zanshi-dev/robot-mpc-wbc-locomotion/results/logs_sample/stage07_online_stance_wbc_plus_swing_pd_sweep.csv
stance_wbc_scale,swing_pd_scale,target_scale,total_steps,transition_count,trot_FR_RL_steps,trot_FL_RR_steps,initial_z,final_z,min_z,max_z,delta_z,final_roll,final_pitch,max_abs_roll,roll_margin_to_0p20,max_abs_pitch,pitch_margin_to_0p20,z_margin_to_0p22,max_joint_error,max_swing_joint_error,max_stance_joint_error,max_tau_stance_wbc_abs,max_tau_swing_pd_abs,max_tau_total_raw_abs,max_tau_total_abs,max_cmd_step_jump_norm,max_cmd_step_jump_abs,max_dyn_res_norm,max_stance_acc_res_norm,max_swing_acc_error_norm,qp_fail_steps,saturation_steps,pass,pass_margin,recommended
0.0,0.5,0.35,1200,5,600,600,0.284805846483,0.142975051681,0.083969389295,0.471365678111,-0.141830794803,1.565829612631,-0.001369338464,3.129996016134,-2.929996016134,0.334877321124,-0.134877321124,-0.136030610705,0.948683403838,0.916220541155,0.948683403838,0.000000000000,37.510060945475,37.510060945475,23.700000000000,47.941328531201,23.700000000000,8.891101297187e-05,1.477450850454e-06,6.842308354162e+00,0,41,False,False,False
0.0,0.5,0.45,1200,5,600,600,0.284805846483,0.142977686443,0.078175598899,0.470950457116,-0.141828160040,1.583592745968,-0.000450449514,3.138438899231,-2.938438899231,0.332224300229,-0.132224300229,-0.141824401101,0.949914412938,0.912348206994,0.949914412938,0.000000000000,36.506825842465,36.506825842465,23.700000000000,47.955668902182,23.700000000000,1.039289616721e-05,8.005922617719e-07,7.311653605185e+00,0,39,False,False,False
0.0,0.5,0.6,1200,5,600,600,0.284805846483,0.142827155597,0.084305520495,0.470870509593,-0.141978690886,1.576799442350,-0.000585769210,3.140485741908,-2.940485741908,0.331572109789,-0.131572109789,-0.135694479505,0.947830310827,0.912081392778,0.947830310827,0.000000000000,36.800098358136,36.800098358136,23.700000000000,47.632688379931,23.700000000000,1.075802307566e-05,6.744874256253e-07,7.355255673620e+00,0,38,False,False,True
0.0,0.75,0.35,1200,5,600,600,0.284805846483,0.142666479251,0.076960359798,0.471678482945,-0.142139367233,1.569570490816,-0.000601736866,3.129233542973,-2.929233542973,0.324868701662,-0.124868701662,-0.143039640202,0.945742304223,0.916328247819,0.945742304223,0.000000000000,56.223419069704,56.223419069704,23.700000000000,48.005432018988,23.700000000000,1.056206615637e-05,5.540474245954e-07,8.085282721157e+00,0,79,False,False,False
0.0,0.75,0.45,1200,5,600,600,0.284805846483,0.142810272544,0.073732458600,0.471376919260,-0.141995573939,1.578953328767,-0.001423557886,3.133373686824,-2.933373686824,0.327323593659,-0.127323593659,-0.146267541400,0.946679309195,0.916079122424,0.946679309195,0.000000000000,54.737488016320,54.737488016320,23.700000000000,48.844970423978,23.700000000000,8.438996374375e-06,3.330212373154e-07,6.758601334906e+00,0,74,False,False,False
0.0,0.75,0.6,1200,5,600,600,0.284805846483,0.142922857778,0.076120933487,0.471316540924,-0.141882988705,1.580500851073,-0.001048954512,3.138218902904,-2.938218902904,0.321326620752,-0.121326620752,-0.143879066513,0.945638098454,0.912173120571,0.945638098454,0.000000000000,54.769349049114,54.769349049114,23.700000000000,48.241296234251,23.700000000000,8.708285585576e-06,4.678226270820e-07,7.692909394156e+00,0,77,False,False,False
0.0,1.0,0.35,1200,5,600,600,0.284805846483,0.142848135335,0.065958261866,0.471505173988,-0.141957711148,1.580758593301,-0.000912114490,3.129977012983,-2.929977012983,0.336396478633,-0.136396478633,-0.154041738134,0.948181059482,0.926724295012,0.948181059482,0.000000000000,74.855703397818,74.855703397818,23.700000000000,48.495774224934,23.700000000000,9.492069895553e-06,4.111413954788e-07,7.522623301521e+00,0,104,False,False,False
0.0,1.0,0.45,1200,5,600,600,0.284805846483,0.142773983174,0.077859914540,0.471100908437,-0.142031863309,1.567850114976,-0.000627421195,3.139176979968,-2.939176979968,0.335635501915,-0.135635501915,-0.142140085460,0.948482605336,0.912671977466,0.948482605336,0.000000000000,73.315312349533,73.315312349533,23.700000000000,48.366661284563,23.700000000000,6.166795128960e-05,9.135653224731e-07,7.070076447854e+00,0,102,False,False,False
0.0,1.0,0.6,1200,5,600,600,0.284805846483,0.142881905507,0.068910400801,0.471389355278,-0.141923940976,1.581509051856,-0.001182307264,3.130379796402,-2.930379796402,0.340171186998,-0.140171186998,-0.151089599199,0.948806748456,0.913780440304,0.948806748456,0.000000000000,74.384294717555,74.384294717555,23.700000000000,48.485399272429,23.700000000000,1.059730709205e-05,4.123770021674e-07,7.307339829788e+00,0,97,False,False,False
0.25,0.5,0.35,1200,5,600,600,0.284805846483,0.096483341736,0.056661063684,0.476387612475,-0.188322504747,2.845560234250,0.048585361155,3.140834156769,-2.940834156769,0.376672818490,-0.176672818490,-0.163338936316,2.225395356665,2.225395356665,2.217948255538,5.370942463901,90.878956361179,90.878956361179,23.700000000000,60.931813065186,26.810721718632,7.246339714090e-06,5.825800225697e-07,1.777343385564e+01,0,143,False,False,False
0.25,0.5,0.45,1200,5,600,600,0.284805846483,0.106112199146,0.054416760743,0.476415721224,-0.178693647337,2.639088510264,0.055087154371,3.141565573146,-2.941565573146,0.461868893393,-0.261868893393,-0.165583239257,1.575497533545,1.560714348294,1.575497533545,4.520039700973,62.876352851349,62.876352851349,23.700000000000,62.355399627931,27.655245653493,3.299897998191e-06,3.055248139369e-07,1.170552341532e+01,0,100,False,False,False
0.25,0.5,0.6,1200,5,600,600,0.284805846483,0.101255706898,0.053881455598,0.476335348075,-0.183550139586,2.709894274134,0.059735575642,3.140710013713,-2.940710013713,0.443345921877,-0.243345921877,-0.166118544402,1.562509964753,1.548874495474,1.562509964753,4.592030061652,62.803190309392,62.803190309392,23.700000000000,62.261154289365,27.254596178029,1.341678228039e-04,3.546182792878e-06,1.122776719550e+01,0,146,False,False,False
0.25,0.75,0.35,1200,5,600,600,0.284805846483,0.110017861406,0.054783779261,0.475873179661,-0.174787985077,2.568720356411,0.056120919087,3.140907786622,-2.940907786622,0.420854995299,-0.220854995299,-0.165216220739,1.605509617735,1.557195732340,1.605509617735,5.125953484542,101.730562005164,101.730562005164,23.700000000000,62.671098248820,28.825953484542,4.126458922770e-06,4.933929305447e-07,1.174097223451e+01,0,178,False,False,False
0.25,0.75,0.45,1200,5,600,600,0.284805846483,0.105846959220,0.064660265202,0.476448929532,-0.178958887263,2.610992416310,0.063946760337,3.141432693570,-2.941432693570,0.417430871287,-0.217430871287,-0.155339734798,1.599650758675,1.572153625812,1.599650758675,5.602948196845,94.309980051427,94.309980051427,23.700000000000,62.636654219469,28.474007278585,7.870607686529e-06,2.948136280892e-07,1.242655729088e+01,0,505,False,False,False
0.25,0.75,0.6,1200,5,600,600,0.284805846483,0.110214423399,0.077561041751,0.476368851441,-0.174591423084,2.594370756036,0.046117443456,3.140154387128,-2.940154387128,0.445398809919,-0.245398809919,-0.142438958249,1.596087537586,1.510686241854,1.596087537586,4.794874359288,88.442198290573,88.442198290573,23.700000000000,62.920728589974,28.493295529888,5.245960563066e-06,4.384886727771e-07,1.221147823802e+01,0,129,False,False,False
0.25,1.0,0.35,1200,5,600,600,0.284805846483,0.103151082526,0.056250943985,0.476570789999,-0.181654763958,2.680490385542,0.058686653610,3.141545418618,-2.941545418618,0.426976497911,-0.226976497911,-0.163749056015,1.609072100011,1.443709975803,1.609072100011,4.612435822840,117.067368334190,117.067368334190,23.700000000000,63.123493201313,28.312435822840,1.295688480594e-05,4.180363547137e-07,1.154318660743e+01,0,172,False,False,False
0.25,1.0,0.45,1200,5,600,600,0.284805846483,0.105869863371,0.052986504887,0.477376722127,-0.178935983113,2.639528088738,0.057200535643,3.140483209384,-2.940483209384,0.446620790305,-0.246620790305,-0.167013495113,1.987525837642,1.987525837642,1.967025744555,5.604961712448,167.044298796790,167.044298796790,23.700000000000,63.539087636843,28.163900819614,7.645784276301e-06,4.017302238807e-07,1.138673837469e+01,0,210,False,False,False
0.25,1.0,0.6,1200,5,600,600,0.284805846483,0.105253308609,0.057742073011,0.477365100679,-0.179552537875,2.648974231448,0.068537974624,3.141372043088,-2.941372043088,0.475047647319,-0.275047647319,-0.162257926989,1.596394520306,1.559364039130,1.596394520306,5.197638191155,124.010233514590,124.010233514590,23.700000000000,63.472852254937,28.111983493664,1.605911937033e-05,1.909717015487e-06,1.131430550829e+01,0,189,False,False,False
0.5,0.5,0.35,1200,5,600,600,0.284805846483,0.085926363075,0.072730595049,0.467826497142,-0.198879483408,2.955859693644,0.070088797912,3.141207578855,-2.941207578855,0.517002514383,-0.317002514383,-0.147269404951,1.654135193184,1.654135193184,1.620685118973,10.804010107052,71.260557882384,71.260557882384,23.700000000000,65.924467189401,30.619139838868,1.010010117427e-05,4.211738819914e-07,3.057428836945e+01,0,206,False,False,False
0.5,0.5,0.45,1200,5,600,600,0.284805846483,0.085988777956,0.062583816869,0.467951953421,-0.198817068527,3.003092876918,0.071163856908,3.140600947665,-2.940600947665,0.530109262889,-0.330109262889,-0.157416183131,1.580691821779,1.580691821779,1.577654071739,8.049446249788,66.375692644359,66.375692644359,23.700000000000,64.666739716581,31.402200418131,5.674362377758e-06,4.219530384899e-07,1.891610791001e+01,0,158,False,False,False
0.5,0.5,0.6,1200,5,600,600,0.284805846483,0.110423478341,0.059064594909,0.467599780252,-0.174382368142,2.575085473676,0.048055278146,3.141538715560,-2.941538715560,0.572651036893,-0.372651036893,-0.160935405091,1.583312320521,1.570949987110,1.583312320521,7.617222566359,62.996670851657,62.996670851657,23.700000000000,67.863477809622,31.059457144165,5.310917600437e-06,3.987649352915e-07,1.902936170726e+01,0,188,False,False,False
0.5,0.75,0.35,1200,5,600,600,0.284805846483,0.087262811807,0.060120922788,0.467777499676,-0.197543034676,2.906856269611,0.074858996590,3.139879526472,-2.939879526472,0.379826963071,-0.179826963071,-0.159879077212,1.791818282179,1.791818282179,1.698723157582,8.159192843408,118.914161088038,118.914161088038,23.700000000000,67.062894989789,31.429894485079,1.895320040080e-05,5.795114929465e-07,1.402995846694e+01,0,223,False,False,False
0.5,0.75,0.45,1200,5,600,600,0.284805846483,0.110617142845,0.060812198010,0.467738064641,-0.174188703638,2.566730039080,0.052188022522,3.141129489288,-2.941129489288,0.569023223509,-0.369023223509,-0.159187801990,1.605193351657,1.605193351657,1.603336890416,8.430902916168,97.703868106467,97.703868106467,23.700000000000,67.269844912887,32.130902916168,1.876986262425e-05,5.058388919047e-07,2.195333844931e+01,0,190,False,False,False
0.5,0.75,0.6,1200,5,600,600,0.284805846483,0.085572071094,0.055254422365,0.467760618094,-0.199233775389,2.988880519738,0.074913090154,3.140723079308,-2.940723079308,0.438996815683,-0.238996815683,-0.164745577635,1.583625364641,1.583625364641,1.583272370633,8.820092022902,95.488302103516,95.488302103516,23.700000000000,67.864847847940,30.411770904824,5.518861276454e-05,1.352322275412e-06,1.617703675127e+01,0,190,False,False,False
0.5,1.0,0.35,1200,5,600,600,0.284805846483,0.242458143599,0.061360724976,0.468309644463,-0.042347702884,1.890505688812,0.060700143051,3.141418046780,-2.941418046780,0.555992228913,-0.355992228913,-0.158639275024,2.456288970878,1.553052767525,2.456288970878,10.242451289838,130.228559274101,130.228559274101,23.700000000000,67.423595744773,33.341843964683,7.977261654171e-06,3.538917471093e-07,2.843558995899e+01,0,205,False,False,False
0.5,1.0,0.45,1200,5,600,600,0.284805846483,0.084260579753,0.078467705918,0.468541351190,-0.200545266730,3.030142554630,0.048647833122,3.141543639674,-2.941543639674,0.470448933155,-0.270448933155,-0.141532294082,2.022352144087,2.022352144087,1.991076525144,10.191316804776,171.454062925440,171.454062925440,23.700000000000,67.109637166297,32.445492403776,1.530687521806e-05,1.004871967076e-06,2.620658773306e+01,0,236,False,False,False
0.5,1.0,0.6,1200,5,600,600,0.284805846483,0.097403286216,0.067788548663,0.469047307791,-0.187402560268,2.751257634504,0.064101184046,3.141538263776,-2.941538263776,0.414357214202,-0.214357214202,-0.152211451337,1.600173809612,1.600173809612,1.584222331406,8.127144873675,142.937318182902,142.937318182902,23.700000000000,66.936022442694,29.490769072017,1.324267142020e-05,5.162167174500e-07,2.143460128968e+01,0,205,False,False,False
0.75,0.5,0.35,1200,5,600,600,0.284805846483,0.085314076373,0.065932164933,0.461444113468,-0.199491770111,3.020017098157,0.061327216902,3.140285109770,-2.940285109770,0.432707766302,-0.232707766302,-0.154067835067,1.606471681747,1.588002362268,1.606471681747,12.474243828644,69.072036867063,69.072036867063,23.700000000000,64.771279302258,32.980134012917,3.074286692540e-05,7.162614339848e-07,2.441084984611e+01,0,128,False,False,False
0.75,0.5,0.45,1200,5,600,600,0.284805846483,0.107303697724,0.053840247391,0.462283565648,-0.177502148759,2.744480182956,0.111022336979,3.140570699954,-2.940570699954,0.370059636158,-0.170059636158,-0.166159752609,1.964134693488,1.964134693488,1.961272294431,12.416477222040,79.501089017552,79.501089017552,23.700000000000,68.855073501703,32.530878723083,5.928055255015e-06,4.625793560293e-07,1.591817109624e+01,0,178,False,False,False
0.75,0.5,0.6,1200,5,600,600,0.284805846483,0.087298763033,0.066857696955,0.462102126947,-0.197507083451,-3.002229669259,-0.064730067702,3.141086151019,-2.941086151019,0.410384020882,-0.210384020882,-0.153142303045,1.615676018913,1.576367088573,1.615676018913,13.279647324435,62.999605825835,62.999605825835,23.700000000000,68.699998199170,36.351338723007,8.218693656869e-06,3.861749354532e-07,1.700103390853e+01,0,141,False,False,False
0.75,0.75,0.35,1200,5,600,600,0.284805846483,0.086142415527,0.066942506492,0.461623232282,-0.198663430956,-2.988291450949,-0.073058642485,3.141088149110,-2.941088149110,0.407688817484,-0.207688817484,-0.153057493508,1.605686421336,1.575620216179,1.605686421336,12.544568584449,94.097118215379,94.097118215379,23.700000000000,70.998979053138,35.043713591041,5.064365210839e-06,3.527917729931e-07,2.201791604567e+01,0,184,False,False,False
0.75,0.75,0.45,1200,5,600,600,0.284805846483,0.089950191603,0.079189664916,0.461766370854,-0.194855654880,2.997570613363,0.032169154849,3.141426676978,-2.941426676978,0.518747920768,-0.318747920768,-0.140810335084,1.696758704104,1.542985425198,1.696758704104,12.551739981623,97.613674684316,97.613674684316,23.700000000000,71.024242505283,33.774297333941,1.142271208221e-05,4.121785123027e-07,2.309332476325e+01,0,161,False,False,False
0.75,0.75,0.6,1200,5,600,600,0.284805846483,0.089694995639,0.061062252570,0.462009024816,-0.195110850845,-2.937766000210,-0.109331904333,3.139697098766,-2.939697098766,0.412289884907,-0.212289884907,-0.158937747430,1.675695587509,1.675695587509,1.661490635818,13.818214475600,105.196742477630,105.196742477630,23.700000000000,68.733462516410,35.637827784743,4.694420896873e-06,4.227206216061e-07,2.536228958107e+01,0,331,False,False,False
0.75,1.0,0.35,1200,5,600,600,0.284805846483,0.234492755553,0.062121284237,0.461584828341,-0.050313090930,1.871845489685,0.048799019466,3.138907927135,-2.938907927135,0.608231205590,-0.408231205590,-0.157878715763,2.560325322849,1.572021329622,2.560325322849,12.330898416970,126.859543844217,126.859543844217,23.700000000000,69.025375193470,34.125336658378,5.934195435432e-06,4.713825104959e-07,4.201939956609e+01,0,174,False,False,False
0.75,1.0,0.45,1200,5,600,600,0.284805846483,0.089056030752,0.065896283120,0.462823590291,-0.195749815731,3.098201176477,0.014951109004,3.141587380204,-2.941587380204,0.470206644884,-0.270206644884,-0.154103716880,1.583176684476,1.580041966606,1.583176684476,12.300670157699,128.034231691273,128.034231691273,23.700000000000,71.430359726750,34.607194430926,3.885657167209e-05,5.688509853585e-07,2.451507223924e+01,0,157,False,False,False
0.75,1.0,0.6,1200,5,600,600,0.284805846483,0.083711497188,0.058483023569,0.463359018828,-0.201094349296,2.990181607882,0.063460931815,3.141458829027,-2.941458829027,0.445961723002,-0.245961723002,-0.161516976431,1.580973625427,1.569092310637,1.580973625427,10.582902576888,132.912565163584,132.912565163584,23.700000000000,65.172679776290,32.732334283248,5.366715783943e-06,3.140542085445e-07,2.053667362752e+01,0,211,False,False,False
1.0,0.5,0.35,1200,5,600,600,0.284805846483,0.089842224504,0.055572354868,0.451755488531,-0.194963621979,3.041962343111,0.023908735332,3.141406357250,-2.941406357250,0.179103558567,0.020896441433,-0.164427645132,1.919295924572,1.919295924572,1.869064260451,17.228917870611,85.915199470022,85.915199470022,23.700000000000,66.023932303368,37.950593191694,2.372417632994e-05,5.251364561268e-07,1.850527408832e+01,0,170,False,False,False
1.0,0.5,0.45,1200,5,600,600,0.284805846483,0.109945463091,0.061690156411,0.452327769151,-0.174860383392,2.612122850171,0.043257586365,3.140445038466,-2.940445038466,0.305352116306,-0.105352116306,-0.158309843589,1.570688675198,1.544071903584,1.570688675198,18.789492726221,60.100609057385,60.100609057385,23.700000000000,60.976656504090,32.146241574159,6.065015093746e-06,4.677033069477e-07,1.784516273342e+01,0,110,False,False,False
1.0,0.5,0.6,1200,5,600,600,0.284805846483,0.091677575733,0.056976983962,0.452306063235,-0.193128270750,-2.969348174949,-0.119376372724,3.140164369496,-2.940164369496,0.462586195518,-0.262586195518,-0.163023016038,2.074586795760,2.019887329692,2.074586795760,18.338348832783,84.129272782554,84.129272782554,23.700000000000,73.500195587206,39.216546292707,6.796006330385e-06,2.943919223311e-07,1.567808746771e+01,0,163,False,False,False
1.0,0.75,0.35,1200,5,600,600,0.284805846483,0.085383223014,0.060143904029,0.450720208001,-0.199422623470,-2.976324282676,-0.074168063216,3.141523330253,-2.941523330253,0.287960907918,-0.087960907918,-0.159856095971,1.879568082560,1.879568082560,1.846671475619,20.465990753171,119.936791389922,119.936791389922,23.700000000000,76.909121311282,42.382520285598,2.969708959738e-05,6.984208779823e-07,1.497890948218e+01,0,207,False,False,False
1.0,0.75,0.45,1200,5,600,600,0.284805846483,0.255474725818,0.072703751597,0.450544556285,-0.029331120666,2.234829824520,-0.105405125285,3.139749268502,-2.939749268502,0.258253294844,-0.058253294844,-0.147296248403,2.154417532337,1.907876427822,2.154417532337,17.910218078019,119.406097516732,119.406097516732,23.700000000000,69.781178950356,37.088086745702,1.343364246527e-05,2.878439646885e-07,1.783398742339e+01,0,280,False,False,False
1.0,0.75,0.6,1200,5,600,600,0.284805846483,0.085862828368,0.068995948588,0.450374455025,-0.198943018116,-3.017584442074,-0.062071255614,3.140934323497,-2.940934323497,0.307036869897,-0.107036869897,-0.151004051412,2.112236342765,2.112236342765,2.104536610287,17.062155780412,129.752088389898,129.752088389898,23.700000000000,69.315849475295,35.401421864427,9.170467472651e-05,2.850640942586e-06,1.484848927732e+01,0,194,False,False,False
1.0,1.0,0.35,1200,5,600,600,0.284805846483,0.091074430082,0.072369927793,0.451479972211,-0.193731416402,-2.884027632854,-0.091869666351,3.139963910425,-2.939963910425,0.508090271588,-0.308090271588,-0.147630072207,1.861965099282,1.861965099282,1.767323806185,321493406.182118535042,162.013042274458,321493406.182118535042,23.700000000000,128.487759602157,47.400000000000,3.391966144679e+10,8.057512292346e+09,5.617225762140e+09,0,244,False,False,False
1.0,1.0,0.45,1200,5,600,600,0.284805846483,0.084802970670,0.078601603068,0.452630385091,-0.200002875814,2.973679672388,0.067227423990,3.140295040266,-2.940295040266,0.298719430913,-0.098719430913,-0.141398396932,1.814069080077,1.814069080077,1.802206018936,15.971129469689,149.787227419559,149.787227419559,23.700000000000,74.923490724413,36.024117525123,2.039672188062e-05,9.920072622240e-07,1.744943218156e+01,0,232,False,False,False
1.0,1.0,0.6,1200,5,600,600,0.284805846483,0.108582955901,0.069121599885,0.453464846734,-0.176222890582,2.890371207585,-0.025833982541,3.141459160145,-2.941459160145,0.518502317330,-0.318502317330,-0.150878400115,1.938914483562,1.938914483562,1.920388462462,16.891779852622,161.694147739799,161.694147739799,23.700000000000,75.772636093578,37.281613781463,5.323631433164e-06,4.168204363557e-07,2.453315688110e+01,0,225,False,False,False
