zanshi-dev/robot-mpc-wbc-locomotion/results/logs_sample/stage07_online_swing_joint_tracking_recommended_test_log.csv
step,source_step,mode,phase_in_mode,swing_progress,stance_legs,swing_legs,base_z,roll,pitch,max_joint_error,max_swing_joint_error,max_stance_joint_error,tau_raw_max_abs,tau_max_abs,saturated
0,0,trot_FR_RL,0.000000000000,0.000000000000,"FR,RL","FL,RR",0.284884398318,-0.000012181847,0.000424212628,0.000000000000,0.000000000000,0.000000000000,0.000000000000,0.000000000000,False
1,1,trot_FR_RL,0.005000000000,0.005000000000,"FR,RL","FL,RR",0.284872694534,0.000121555370,0.000336657447,0.008133496536,0.008133496536,0.007686129966,8.337997003886,8.337997003886,False
2,2,trot_FR_RL,0.010000000000,0.010000000000,"FR,RL","FL,RR",0.284892277192,0.000230641507,0.000652101527,0.006550263488,0.006550263488,0.005053361667,4.345542804006,4.345542804006,False
3,3,trot_FR_RL,0.015000000000,0.015000000000,"FR,RL","FL,RR",0.284731083358,-0.001494176836,0.000661130680,0.013633565504,0.013633565504,0.010616742155,6.677292911086,6.677292911086,False
4,4,trot_FR_RL,0.020000000000,0.020000000000,"FR,RL","FL,RR",0.284683353882,-0.001028804615,0.000982534068,0.011206702764,0.011206702764,0.006736552861,5.179603622919,5.179603622919,False
5,5,trot_FR_RL,0.025000000000,0.025000000000,"FR,RL","FL,RR",0.284525050953,0.000523887332,0.000689822904,0.017205317930,0.017205317930,0.011071711431,5.448040102948,5.448040102948,False
6,6,trot_FR_RL,0.030000000000,0.030000000000,"FR,RL","FL,RR",0.284439761292,-0.000141431186,0.000994970456,0.014005991990,0.014005991990,0.007696243146,5.304811811166,5.304811811166,False
7,7,trot_FR_RL,0.035000000000,0.035000000000,"FR,RL","FL,RR",0.284208049214,0.002979890861,0.000798249355,0.019047017807,0.019047017807,0.010851271043,4.852354954825,4.852354954825,False
8,8,trot_FR_RL,0.040000000000,0.040000000000,"FR,RL","FL,RR",0.284075575792,0.001619319422,0.001053386713,0.014758576285,0.014758576285,0.008717216665,6.558865794149,6.558865794149,False
9,9,trot_FR_RL,0.045000000000,0.045000000000,"FR,RL","FL,RR",0.283790842435,0.003698956159,0.000755271974,0.019174515993,0.019174515993,0.011686231706,4.672585058690,4.672585058690,False
10,10,trot_FR_RL,0.050000000000,0.050000000000,"FR,RL","FL,RR",0.283606272217,0.001390219827,0.000917813907,0.016810578236,0.016810578236,0.011905197223,6.271679706483,6.271679706483,False
11,11,trot_FR_RL,0.055000000000,0.055000000000,"FR,RL","FL,RR",0.283276861825,0.002922191925,0.000585951373,0.020489024219,0.020489024219,0.012995016464,4.825029937440,4.825029937440,False
12,12,trot_FR_RL,0.060000000000,0.060000000000,"FR,RL","FL,RR",0.283048127612,0.000101487360,0.000717358837,0.018940670694,0.018940670694,0.014040289486,6.972427138826,6.972427138826,False
13,13,trot_FR_RL,0.065000000000,0.065000000000,"FR,RL","FL,RR",0.282692112958,0.001448400188,0.000419261453,0.022702237854,0.022702237854,0.014392052003,5.027435642062,5.027435642062,False
14,14,trot_FR_RL,0.070000000000,0.070000000000,"FR,RL","FL,RR",0.282438852670,-0.001585890317,0.000599419100,0.021288567405,0.021288567405,0.015800142499,7.350950739621,7.350950739621,False
15,15,trot_FR_RL,0.075000000000,0.075000000000,"FR,RL","FL,RR",0.282019011170,-0.003327793179,0.000568034791,0.025201706982,0.025201706982,0.015890460966,7.710529767216,7.710529767216,False
16,16,trot_FR_RL,0.080000000000,0.080000000000,"FR,RL","FL,RR",0.281734018829,-0.006986795763,0.000963066522,0.024076009361,0.024076009361,0.016478568099,6.795957582993,6.795957582993,False
17,17,trot_FR_RL,0.085000000000,0.085000000000,"FR,RL","FL,RR",0.281285083786,-0.008223124607,0.000386682666,0.027927756296,0.027927756296,0.017839161750,5.435031367180,5.435031367180,False
18,18,trot_FR_RL,0.090000000000,0.090000000000,"FR,RL","FL,RR",0.280956720232,-0.011192153360,0.000398532920,0.026228904363,0.026228904363,0.016060622151,6.748624036516,6.748624036516,False
19,19,trot_FR_RL,0.095000000000,0.095000000000,"FR,RL","FL,RR",0.280529464349,-0.011814207688,-0.000216147480,0.029770068510,0.029770068510,0.019264130446,6.948113275647,6.948113275647,False
20,20,trot_FR_RL,0.100000000000,0.100000000000,"FR,RL","FL,RR",0.280211023107,-0.014625229321,-0.000005671779,0.028205336640,0.028205336640,0.017467585785,7.467127056075,7.467127056075,False
21,21,trot_FR_RL,0.105000000000,0.105000000000,"FR,RL","FL,RR",0.279742007971,-0.016915217010,-0.000236404013,0.031944019628,0.031944019628,0.020269287212,5.749934866716,5.749934866716,False
22,22,trot_FR_RL,0.110000000000,0.110000000000,"FR,RL","FL,RR",0.279397024424,-0.018749066714,0.000174980294,0.030844560547,0.030844560547,0.020009044102,7.453769938750,7.453769938750,False
23,23,trot_FR_RL,0.115000000000,0.115000000000,"FR,RL","FL,RR",0.278996942541,-0.020327110055,-0.000082589042,0.032128040902,0.032128040902,0.021612644013,4.979999351602,4.979999351602,False
24,24,trot_FR_RL,0.120000000000,0.120000000000,"FR,RL","FL,RR",0.278725058193,-0.023929935078,0.000534032178,0.028740742909,0.028740742909,0.019887555030,4.994932630423,4.994932630423,False
25,25,trot_FR_RL,0.125000000000,0.125000000000,"FR,RL","FL,RR",0.278337755074,-0.025805704423,0.000487017407,0.030999819942,0.030999819942,0.023581233723,5.580177389965,5.580177389965,False
26,26,trot_FR_RL,0.130000000000,0.130000000000,"FR,RL","FL,RR",0.278094144111,-0.029594062352,0.001347408542,0.028386802041,0.028386802041,0.021617791582,6.298827778799,6.298827778799,False
27,27,trot_FR_RL,0.135000000000,0.135000000000,"FR,RL","FL,RR",0.277788001466,-0.031866064585,0.001519565124,0.031314148979,0.031314148979,0.025130610217,5.523267452524,5.523267452524,False
28,28,trot_FR_RL,0.140000000000,0.140000000000,"FR,RL","FL,RR",0.277567458473,-0.038470665389,0.002719827057,0.029218973182,0.029218973182,0.023694795639,5.471428716562,5.471428716562,False
29,29,trot_FR_RL,0.145000000000,0.145000000000,"FR,RL","FL,RR",0.277290282183,-0.039369655172,0.003287730245,0.032820116851,0.032820116851,0.027392111769,6.703593072451,6.703593072451,False
30,30,trot_FR_RL,0.150000000000,0.150000000000,"FR,RL","FL,RR",0.277195187137,-0.043092187494,0.004585807895,0.031020482769,0.031020482769,0.025871544052,6.446947346842,6.446947346842,False
31,31,trot_FR_RL,0.155000000000,0.155000000000,"FR,RL","FL,RR",0.277005898497,-0.041891597516,0.005565324633,0.034601972625,0.034601972625,0.029477197391,5.963829130206,5.963829130206,False
32,32,trot_FR_RL,0.160000000000,0.160000000000,"FR,RL","FL,RR",0.276919884789,-0.045086403402,0.006294041772,0.032971870020,0.032971870020,0.027945073582,7.071995689086,7.071995689086,False
33,33,trot_FR_RL,0.165000000000,0.165000000000,"FR,RL","FL,RR",0.276839282795,-0.042268466781,0.006973276290,0.036087742711,0.036087742711,0.030468808933,5.942889288407,5.942889288407,False
34,34,trot_FR_RL,0.170000000000,0.170000000000,"FR,RL","FL,RR",0.276776463461,-0.044534231354,0.007301791734,0.034247710474,0.034247710474,0.028614612714,5.937402046632,5.937402046632,False
35,35,trot_FR_RL,0.175000000000,0.175000000000,"FR,RL","FL,RR",0.276743078677,-0.040458390742,0.007941086052,0.037052954441,0.037052954441,0.031291883615,6.056087652881,6.056087652881,False
36,36,trot_FR_RL,0.180000000000,0.180000000000,"FR,RL","FL,RR",0.276793861382,-0.041121820298,0.009628527335,0.035248299800,0.035248299800,0.029164764421,6.654508132259,6.654508132259,False
37,37,trot_FR_RL,0.185000000000,0.185000000000,"FR,RL","FL,RR",0.276813085404,-0.038482817487,0.010407426443,0.039019298667,0.039019298667,0.032350655662,6.554188109227,6.554188109227,False
38,38,trot_FR_RL,0.190000000000,0.190000000000,"FR,RL","FL,RR",0.276952492675,-0.037779433274,0.011512630682,0.037445076355,0.037445076355,0.029900352234,7.104112622155,7.104112622155,False
39,39,trot_FR_RL,0.195000000000,0.195000000000,"FR,RL","FL,RR",0.277051316586,-0.038062451881,0.013263501480,0.035599181117,0.035599181117,0.032604066889,5.540462409519,5.540462409519,False
40,40,trot_FR_RL,0.200000000000,0.200000000000,"FR,RL","FL,RR",0.277225549542,-0.034099973551,0.014495800721,0.037043509382,0.037043509382,0.030652241361,7.314684775340,7.314684775340,False
41,41,trot_FR_RL,0.205000000000,0.205000000000,"FR,RL","FL,RR",0.277360911778,-0.034178136646,0.014351860437,0.035765756415,0.035765756415,0.032933317874,6.187324104217,6.187324104217,False
42,42,trot_FR_RL,0.210000000000,0.210000000000,"FR,RL","FL,RR",0.277497958174,-0.029578736657,0.015292281183,0.033132051686,0.029305732612,0.033132051686,6.652563881747,6.652563881747,False
43,43,trot_FR_RL,0.215000000000,0.215000000000,"FR,RL","FL,RR",0.277678844983,-0.028871172272,0.015438602057,0.030298574981,0.030298574981,0.029322994879,6.748255434435,6.748255434435,False
44,44,trot_FR_RL,0.220000000000,0.220000000000,"FR,RL","FL,RR",0.277848016633,-0.023725823201,0.015806441640,0.029532893649,0.026666777162,0.029532893649,4.409092349690,4.409092349690,False
45,45,trot_FR_RL,0.225000000000,0.225000000000,"FR,RL","FL,RR",0.278003930183,-0.023026313110,0.015870053795,0.032286894203,0.032286894203,0.025476703154,7.162561849061,7.162561849061,False
46,46,trot_FR_RL,0.230000000000,0.230000000000,"FR,RL","FL,RR",0.278133147556,-0.018212401639,0.015935834819,0.028859179862,0.028859179862,0.025535888465,6.411379695512,6.411379695512,False
47,47,trot_FR_RL,0.235000000000,0.235000000000,"FR,RL","FL,RR",0.278304322286,-0.017328496946,0.015928410977,0.034597577863,0.034597577863,0.021354331591,7.494883064019,7.494883064019,False
48,48,trot_FR_RL,0.240000000000,0.240000000000,"FR,RL","FL,RR",0.278520630216,-0.014887365652,0.015758001230,0.031266093275,0.031266093275,0.021526673203,2.935697400173,2.935697400173,False
49,49,trot_FR_RL,0.245000000000,0.245000000000,"FR,RL","FL,RR",0.278671636764,-0.015220005690,0.015335026799,0.037394530046,0.037394530046,0.020682019522,8.138524651754,8.138524651754,False
50,50,trot_FR_RL,0.250000000000,0.250000000000,"FR,RL","FL,RR",0.278902490956,-0.011375554186,0.014825604142,0.034092285582,0.034092285582,0.019660551863,4.789053769542,4.789053769542,False
51,51,trot_FR_RL,0.255000000000,0.255000000000,"FR,RL","FL,RR",0.279047037033,-0.010844229530,0.014159540316,0.040006791430,0.040006791430,0.022048035367,9.027907313135,9.027907313135,False
52,52,trot_FR_RL,0.260000000000,0.260000000000,"FR,RL","FL,RR",0.279253349925,-0.006605122327,0.013679459517,0.036582604902,0.036582604902,0.019586760635,7.049401289719,7.049401289719,False
53,53,trot_FR_RL,0.265000000000,0.265000000000,"FR,RL","FL,RR",0.279389469052,-0.004306872878,0.012679053528,0.042428869087,0.042428869087,0.021036801511,8.322625374552,8.322625374552,False
54,54,trot_FR_RL,0.270000000000,0.270000000000,"FR,RL","FL,RR",0.279552650822,0.001406385552,0.011780198368,0.038781861360,0.038781861360,0.021253515030,3.604078898188,3.604078898188,False
55,55,trot_FR_RL,0.275000000000,0.275000000000,"FR,RL","FL,RR",0.279651902774,0.002248511192,0.010551416280,0.044250876782,0.044250876782,0.016879632548,8.124372492984,8.124372492984,False
56,56,trot_FR_RL,0.280000000000,0.280000000000,"FR,RL","FL,RR",0.279846492031,0.007439738484,0.009635395576,0.040597866342,0.040597866342,0.016293601920,4.066562286064,4.066562286064,False
57,57,trot_FR_RL,0.285000000000,0.285000000000,"FR,RL","FL,RR",0.279898776337,0.008762236219,0.008253402692,0.045992652039,0.045992652039,0.018445600232,8.223318960101,8.223318960101,False
58,58,trot_FR_RL,0.290000000000,0.290000000000,"FR,RL","FL,RR",0.280060157784,0.014291018757,0.007212056507,0.042073483464,0.042073483464,0.015599014492,6.153508940379,6.153508940379,False
59,59,trot_FR_RL,0.295000000000,0.295000000000,"FR,RL","FL,RR",0.280098250039,0.017431663962,0.005435806634,0.047153310701,0.047153310701,0.015959245922,8.035661343991,8.035661343991,False
60,60,trot_FR_RL,0.300000000000,0.300000000000,"FR,RL","FL,RR",0.280191292918,0.024468927308,0.004558262448,0.042826681007,0.042826681007,0.014750529936,5.017661173861,5.017661173861,False
61,61,trot_FR_RL,0.305000000000,0.305000000000,"FR,RL","FL,RR",0.280189589689,0.026594882619,0.002712887720,0.047191244215,0.047191244215,0.016065555974,7.358607452396,7.358607452396,False
62,62,trot_FR_RL,0.310000000000,0.310000000000,"FR,RL","FL,RR",0.280292437589,0.030534643202,0.000886280960,0.042568149293,0.042568149293,0.015921594547,5.686074009678,5.686074009678,False
63,63,trot_FR_RL,0.315000000000,0.315000000000,"FR,RL","FL,RR",0.280339965071,0.031505655778,-0.001413525691,0.046653740304,0.046653740304,0.016323175384,7.072574351931,7.072574351931,False
64,64,trot_FR_RL,0.320000000000,0.320000000000,"FR,RL","FL,RR",0.280401381855,0.036181840224,-0.003108451862,0.041736395607,0.041736395607,0.016434769103,6.605416607768,6.605416607768,False
65,65,trot_FR_RL,0.325000000000,0.325000000000,"FR,RL","FL,RR",0.280393509223,0.035829549884,-0.005439577708,0.044911987995,0.044911987995,0.015386074737,7.168267560515,7.168267560515,False
66,66,trot_FR_RL,0.330000000000,0.330000000000,"FR,RL","FL,RR",0.280456112706,0.039906147236,-0.006913526295,0.039433118654,0.039433118654,0.012631568568,6.445693928163,6.445693928163,False
67,67,trot_FR_RL,0.335000000000,0.335000000000,"FR,RL","FL,RR",0.280382357962,0.041049657261,-0.009608913527,0.041840961087,0.041840961087,0.015256270070,7.196360032170,7.196360032170,False
68,68,trot_FR_RL,0.340000000000,0.340000000000,"FR,RL","FL,RR",0.280445035387,0.041785849844,-0.012006486816,0.036161828580,0.036161828580,0.014477038034,6.125846844286,6.125846844286,False
69,69,trot_FR_RL,0.345000000000,0.345000000000,"FR,RL","FL,RR",0.280367352246,0.043222058820,-0.014587736335,0.038344464829,0.038344464829,0.014248351814,7.317005477761,7.317005477761,False
70,70,trot_FR_RL,0.350000000000,0.350000000000,"FR,RL","FL,RR",0.280400627648,0.044306017309,-0.016778783417,0.032533556567,0.032533556567,0.012349999816,6.781623005226,6.781623005226,False
71,71,trot_FR_RL,0.355000000000,0.355000000000,"FR,RL","FL,RR",0.280356898035,0.042901322529,-0.019424571681,0.036412214769,0.036412214769,0.014323478594,7.311535067857,7.311535067857,False
72,72,trot_FR_RL,0.360000000000,0.360000000000,"FR,RL","FL,RR",0.280345303746,0.044029153217,-0.021306477053,0.032576324099,0.032576324099,0.013718726828,7.092985275374,7.092985275374,False
73,73,trot_FR_RL,0.365000000000,0.365000000000,"FR,RL","FL,RR",0.280259973782,0.041861872506,-0.023900320583,0.037475020382,0.037475020382,0.015579645379,7.340295675510,7.340295675510,False
74,74,trot_FR_RL,0.370000000000,0.370000000000,"FR,RL","FL,RR",0.280264365548,0.044029142193,-0.026128560110,0.033546015771,0.033546015771,0.016121287374,7.149330059922,7.149330059922,False
75,75,trot_FR_RL,0.375000000000,0.375000000000,"FR,RL","FL,RR",0.280183204334,0.043328788204,-0.028190245595,0.038755059088,0.038755059088,0.015781587383,7.792414846609,7.792414846609,False
76,76,trot_FR_RL,0.380000000000,0.380000000000,"FR,RL","FL,RR",0.280112664482,0.044969517889,-0.030615758118,0.034833998823,0.034833998823,0.017492581373,7.746587245459,7.746587245459,False
77,77,trot_FR_RL,0.385000000000,0.385000000000,"FR,RL","FL,RR",0.280009512980,0.043556750867,-0.032475900595,0.039939229063,0.039939229063,0.015790284685,7.823158066228,7.823158066228,False
78,78,trot_FR_RL,0.390000000000,0.390000000000,"FR,RL","FL,RR",0.279906364469,0.044946742425,-0.034719555464,0.035846833254,0.035846833254,0.020258272836,7.680979326393,7.680979326393,False
79,79,trot_FR_RL,0.395000000000,0.395000000000,"FR,RL","FL,RR",0.279817169480,0.043735821021,-0.036367475987,0.040850000099,0.040850000099,0.017497155008,7.834190029376,7.834190029376,False
80,80,trot_FR_RL,0.400000000000,0.400000000000,"FR,RL","FL,RR",0.279713337038,0.045599050901,-0.038620095147,0.036763452606,0.036763452606,0.013290225231,5.358105925355,5.358105925355,False
81,81,trot_FR_RL,0.405000000000,0.405000000000,"FR,RL","FL,RR",0.279611216031,0.043174803589,-0.039822664750,0.041874998203,0.041874998203,0.015361311384,8.065177156423,8.065177156423,False
82,82,trot_FR_RL,0.410000000000,0.410000000000,"FR,RL","FL,RR",0.279555867107,0.044069780136,-0.041187656667,0.037487208789,0.037487208789,0.013215431594,6.461219089505,6.461219089505,False
83,83,trot_FR_RL,0.415000000000,0.415000000000,"FR,RL","FL,RR",0.279405698005,0.043730333995,-0.041995297138,0.042309942840,0.042309942840,0.016020014893,7.852112346636,7.852112346636,False
84,84,trot_FR_RL,0.420000000000,0.420000000000,"FR,RL","FL,RR",0.279368240883,0.043042605835,-0.042785287873,0.038006829247,0.038006829247,0.014398773865,4.973004600800,4.973004600800,False
85,85,trot_FR_RL,0.425000000000,0.425000000000,"FR,RL","FL,RR",0.279175979091,0.042550617276,-0.043505018154,0.042553284234,0.042553284234,0.015611320096,7.636561085861,7.636561085861,False
86,86,trot_FR_RL,0.430000000000,0.430000000000,"FR,RL","FL,RR",0.279122248769,0.043948447962,-0.044028573427,0.038274634039,0.038274634039,0.013488005529,5.825412012512,5.825412012512,False
87,87,trot_FR_RL,0.435000000000,0.435000000000,"FR,RL","FL,RR",0.278995430103,0.042073006334,-0.044656277665,0.043061495180,0.043061495180,0.015767827165,7.959157711131,7.959157711131,False
88,88,trot_FR_RL,0.440000000000,0.440000000000,"FR,RL","FL,RR",0.278965626605,0.044090581321,-0.044684464410,0.038784710700,0.038784710700,0.013222415306,6.964407479627,6.964407479627,False
89,89,trot_FR_RL,0.445000000000,0.445000000000,"FR,RL","FL,RR",0.278899989848,0.043471619068,-0.044694868435,0.043544729628,0.043544729628,0.015693374292,8.012743292042,8.012743292042,False
90,90,trot_FR_RL,0.450000000000,0.450000000000,"FR,RL","FL,RR",0.278835039237,0.048139022995,-0.044434571907,0.039327614882,0.039327614882,0.015178074949,4.930675630729,4.930675630729,False
91,91,trot_FR_RL,0.455000000000,0.455000000000,"FR,RL","FL,RR",0.278750424568,0.047012514441,-0.044183792355,0.044254146069,0.044254146069,0.016454137413,8.277976147613,8.277976147613,False
92,92,trot_FR_RL,0.460000000000,0.460000000000,"FR,RL","FL,RR",0.278710721859,0.051014795318,-0.043449643563,0.039843211849,0.039843211849,0.016578558688,4.194678938025,4.194678938025,False
93,93,trot_FR_RL,0.465000000000,0.465000000000,"FR,RL","FL,RR",0.278598194991,0.049953701683,-0.043089474644,0.044582465242,0.044582465242,0.012471611279,8.159093149502,8.159093149502,False
94,94,trot_FR_RL,0.470000000000,0.470000000000,"FR,RL","FL,RR",0.278551958938,0.053847601827,-0.041693032775,0.040133658888,0.040133658888,0.012920324922,6.972047149763,6.972047149763,False
95,95,trot_FR_RL,0.475000000000,0.475000000000,"FR,RL","FL,RR",0.278527022805,0.052561920779,-0.040506728597,0.044671130886,0.044671130886,0.011967712516,8.006660243346,8.006660243346,False
96,96,trot_FR_RL,0.480000000000,0.480000000000,"FR,RL","FL,RR",0.278427242194,0.056007837052,-0.039717572186,0.040106584050,0.040106584050,0.010541323300,5.315537674049,5.315537674049,False
97,97,trot_FR_RL,0.485000000000,0.485000000000,"FR,RL","FL,RR",0.278391840509,0.054170231948,-0.038066779717,0.044806981860,0.044806981860,0.011728617420,8.222798951768,8.222798951768,False
98,98,trot_FR_RL,0.490000000000,0.490000000000,"FR,RL","FL,RR",0.278344034645,0.056825958834,-0.036687229494,0.040042419768,0.040042419768,0.009434785376,4.482202605667,4.482202605667,False
99,99,trot_FR_RL,0.495000000000,0.495000000000,"FR,RL","FL,RR",0.278270914457,0.055082178089,-0.035645789793,0.044393548489,0.044393548489,0.011411392778,7.882852766752,7.882852766752,False
100,100,trot_FR_RL,0.500000000000,0.500000000000,"FR,RL","FL,RR",0.278213260650,0.057571260772,-0.033875445810,0.039762540382,0.039762540382,0.009138859717,5.445691691857,5.445691691857,False
101,101,trot_FR_RL,0.505000000000,0.505000000000,"FR,RL","FL,RR",0.278175096600,0.054965551407,-0.032364682008,0.044117819096,0.044117819096,0.013768376174,7.907357794487,7.907357794487,False
102,102,trot_FR_RL,0.510000000000,0.510000000000,"FR,RL","FL,RR",0.278157055537,0.056823238549,-0.031336283525,0.039429119284,0.039429119284,0.011602817603,4.604790813609,4.604790813609,False
103,103,trot_FR_RL,0.515000000000,0.515000000000,"FR,RL","FL,RR",0.278084706675,0.053988643938,-0.029995648862,0.044154113999,0.044154113999,0.013846130912,8.322369799257,8.322369799257,False
104,104,trot_FR_RL,0.520000000000,0.520000000000,"FR,RL","FL,RR",0.278073648972,0.055507285450,-0.029348394406,0.039498481515,0.039498481515,0.012723724479,5.559817070813,5.559817070813,False
105,105,trot_FR_RL,0.525000000000,0.525000000000,"FR,RL","FL,RR",0.278055463170,0.054568104906,-0.028767991361,0.044344520017,0.044344520017,0.014434000090,8.500980865197,8.500980865197,False
106,106,trot_FR_RL,0.530000000000,0.530000000000,"FR,RL","FL,RR",0.278062234075,0.055873832910,-0.028167981325,0.040233768353,0.040233768353,0.013753547928,4.297817621380,4.297817621380,False
107,107,trot_FR_RL,0.535000000000,0.535000000000,"FR,RL","FL,RR",0.278074756323,0.054385249354,-0.027753424607,0.045065781482,0.045065781482,0.011602326541,8.586897011778,8.586897011778,False
108,108,trot_FR_RL,0.540000000000,0.540000000000,"FR,RL","FL,RR",0.278124392975,0.057610939660,-0.027399450370,0.040891500834,0.040891500834,0.010962908154,3.800256758759,3.800256758759,False
109,109,trot_FR_RL,0.545000000000,0.545000000000,"FR,RL","FL,RR",0.278078025069,0.056057207602,-0.027362935421,0.045881835327,0.045881835327,0.014272324837,8.852612503329,8.852612503329,False
110,110,trot_FR_RL,0.550000000000,0.550000000000,"FR,RL","FL,RR",0.278143970434,0.058869643863,-0.027145602269,0.041578358373,0.041578358373,0.012292247016,5.757350140417,5.757350140417,False
111,111,trot_FR_RL,0.555000000000,0.555000000000,"FR,RL","FL,RR",0.278131889518,0.056652571105,-0.027525569408,0.046430466127,0.046430466127,0.014656769407,8.800218724083,8.800218724083,False
112,112,trot_FR_RL,0.560000000000,0.560000000000,"FR,RL","FL,RR",0.278160419396,0.059361803047,-0.027006643040,0.042079314549,0.042079314549,0.011769372844,6.504960620951,6.504960620951,False
113,113,trot_FR_RL,0.565000000000,0.565000000000,"FR,RL","FL,RR",0.278121331721,0.057025190259,-0.027125418368,0.046692122251,0.046692122251,0.013982712248,8.623589895581,8.623589895581,False
114,114,trot_FR_RL,0.570000000000,0.570000000000,"FR,RL","FL,RR",0.278129710704,0.059593598159,-0.026351768258,0.042152628414,0.042152628414,0.010983618992,6.224117728262,6.224117728262,False
115,115,trot_FR_RL,0.575000000000,0.575000000000,"FR,RL","FL,RR",0.278114569808,0.056482705185,-0.026091078395,0.046566977985,0.046566977985,0.013296458518,8.456618922478,8.456618922478,False
116,116,trot_FR_RL,0.580000000000,0.580000000000,"FR,RL","FL,RR",0.278145955487,0.058235770864,-0.025914378033,0.041805934119,0.041805934119,0.010442128743,6.627197387321,6.627197387321,False
117,117,trot_FR_RL,0.585000000000,0.585000000000,"FR,RL","FL,RR",0.278122393422,0.056978225414,-0.025732213778,0.046321655945,0.046321655945,0.012200398830,8.579587964702,8.579587964702,False
118,118,trot_FR_RL,0.590000000000,0.590000000000,"FR,RL","FL,RR",0.278151669609,0.056188299136,-0.025584775251,0.041738282512,0.041738282512,0.010224439717,7.635218101574,7.635218101574,False
119,119,trot_FR_RL,0.595000000000,0.595000000000,"FR,RL","FL,RR",0.278158519463,0.059024507246,-0.025880724762,0.046690543144,0.046690543144,0.010358717190,9.086548206934,9.086548206934,False
120,120,trot_FR_RL,0.600000000000,0.600000000000,"FR,RL","FL,RR",0.278170348224,0.057613290809,-0.026049532154,0.042439998809,0.042439998809,0.010188610699,6.006773413437,6.006773413437,False
121,121,trot_FR_RL,0.605000000000,0.605000000000,"FR,RL","FL,RR",0.278214403501,0.058135758993,-0.026750738908,0.047092794968,0.047092794968,0.012195456626,8.859826493364,8.859826493364,False
122,122,trot_FR_RL,0.610000000000,0.610000000000,"FR,RL","FL,RR",0.278232467375,0.054514500620,-0.028007646488,0.042511402419,0.042511402419,0.012482449410,4.059886617971,4.059886617971,False
123,123,trot_FR_RL,0.615000000000,0.615000000000,"FR,RL","FL,RR",0.278238193222,0.055129333929,-0.028684336239,0.047115791169,0.047115791169,0.009516542683,8.853437998070,8.853437998070,False
124,124,trot_FR_RL,0.620000000000,0.620000000000,"FR,RL","FL,RR",0.278287731806,0.052743680601,-0.029642559282,0.042321251827,0.042321251827,0.009241603151,4.200074341196,4.200074341196,False
125,125,trot_FR_RL,0.625000000000,0.625000000000,"FR,RL","FL,RR",0.278287367044,0.052599668134,-0.031154584666,0.046888134206,0.046888134206,0.009898984666,8.837479586764,8.837479586764,False
126,126,trot_FR_RL,0.630000000000,0.630000000000,"FR,RL","FL,RR",0.278363964391,0.050842312487,-0.031522440971,0.042136512775,0.042136512775,0.008480248218,3.740252205096,3.740252205096,False
127,127,trot_FR_RL,0.635000000000,0.635000000000,"FR,RL","FL,RR",0.278349899428,0.052305049247,-0.032909242266,0.046447213602,0.046447213602,0.010108942944,8.585331152247,8.585331152247,False
128,128,trot_FR_RL,0.640000000000,0.640000000000,"FR,RL","FL,RR",0.278430956335,0.049386835728,-0.033744118967,0.041721544987,0.041721544987,0.010307773836,6.018119526182,6.018119526182,False
129,129,trot_FR_RL,0.645000000000,0.645000000000,"FR,RL","FL,RR",0.278351917252,0.048697217565,-0.035136699381,0.045951937566,0.045951937566,0.011351908199,8.504219068319,8.504219068319,False
130,130,trot_FR_RL,0.650000000000,0.650000000000,"FR,RL","FL,RR",0.278389102780,0.043709577564,-0.035710971885,0.040821519683,0.040821519683,0.008330922411,5.324927484972,5.324927484972,False
131,131,trot_FR_RL,0.655000000000,0.655000000000,"FR,RL","FL,RR",0.278324431756,0.043459273585,-0.036628912016,0.044664123914,0.044664123914,0.009634691611,8.051700885280,8.051700885280,False
132,132,trot_FR_RL,0.660000000000,0.660000000000,"FR,RL","FL,RR",0.278304515354,0.038777509174,-0.037441390389,0.039491466699,0.039491466699,0.010944691571,6.613179335774,6.613179335774,False
133,133,trot_FR_RL,0.665000000000,0.665000000000,"FR,RL","FL,RR",0.278215648420,0.039135535765,-0.037931878399,0.043447755190,0.043447755190,0.008038024120,8.105813757916,8.105813757916,False
134,134,trot_FR_RL,0.670000000000,0.670000000000,"FR,RL","FL,RR",0.278240227428,0.035180626198,-0.037596185799,0.038187091178,0.038187091178,0.014154560013,7.248900693128,7.248900693128,False
135,135,trot_FR_RL,0.675000000000,0.675000000000,"FR,RL","FL,RR",0.278170024743,0.033752208386,-0.037814721031,0.041896601380,0.041896601380,0.011537589464,7.772090310966,7.772090310966,False
136,136,trot_FR_RL,0.680000000000,0.680000000000,"FR,RL","FL,RR",0.278180403918,0.028833493827,-0.036867060587,0.036423452833,0.036423452833,0.008835210062,5.834281512277,5.834281512277,False
137,137,trot_FR_RL,0.685000000000,0.685000000000,"FR,RL","FL,RR",0.278131989675,0.028305814242,-0.036653398156,0.039892330494,0.039892330494,0.012694461974,7.407638824993,7.407638824993,False
138,138,trot_FR_RL,0.690000000000,0.690000000000,"FR,RL","FL,RR",0.278103281884,0.022992173126,-0.036471432012,0.034522789517,0.034522789517,0.010621479365,6.555226784384,6.555226784384,False
139,139,trot_FR_RL,0.695000000000,0.695000000000,"FR,RL","FL,RR",0.278010858400,0.022947135544,-0.035856185633,0.038266717450,0.038266717450,0.008479396534,9.414360910547,9.414360910547,False
140,140,trot_FR_RL,0.700000000000,0.700000000000,"FR,RL","FL,RR",0.278033110918,0.018823887573,-0.034396588568,0.032804141000,0.032804141000,0.012545516778,6.899145693032,6.899145693032,False
141,141,trot_FR_RL,0.705000000000,0.705000000000,"FR,RL","FL,RR",0.277942954718,0.016886605481,-0.033623912238,0.036345850848,0.036345850848,0.011799503134,7.267792898434,7.267792898434,False
142,142,trot_FR_RL,0.710000000000,0.710000000000,"FR,RL","FL,RR",0.277945764172,0.013093591726,-0.031856179012,0.030729341361,0.030729341361,0.008948305487,6.987023281518,6.987023281518,False
143,143,trot_FR_RL,0.715000000000,0.715000000000,"FR,RL","FL,RR",0.277854940674,0.014047487202,-0.030421589740,0.034272241655,0.034272241655,0.010123363643,7.137547190102,7.137547190102,False
144,144,trot_FR_RL,0.720000000000,0.720000000000,"FR,RL","FL,RR",0.277848192968,0.010674113944,-0.028840112002,0.028818632568,0.028818632568,0.012355264555,5.643879276478,5.643879276478,False
145,145,trot_FR_RL,0.725000000000,0.725000000000,"FR,RL","FL,RR",0.277741369723,0.009573534694,-0.027916640995,0.032549833248,0.032549833248,0.011707920954,7.221753201642,7.221753201642,False
146,146,trot_FR_RL,0.730000000000,0.730000000000,"FR,RL","FL,RR",0.277728025142,0.006592086518,-0.025990924948,0.027098287549,0.027098287549,0.008679691005,6.047498893009,6.047498893009,False
147,147,trot_FR_RL,0.735000000000,0.735000000000,"FR,RL","FL,RR",0.277616869106,0.008387676497,-0.024407347546,0.030764691960,0.030764691960,0.008846106960,7.047058271644,7.047058271644,False
148,148,trot_FR_RL,0.740000000000,0.740000000000,"FR,RL","FL,RR",0.277527621470,0.005246430265,-0.022933983845,0.025405898801,0.025405898801,0.011939742714,6.833624019015,6.833624019015,False
149,149,trot_FR_RL,0.745000000000,0.745000000000,"FR,RL","FL,RR",0.277373592432,0.007190447832,-0.021108000080,0.029142514206,0.029142514206,0.010830768551,7.019591131382,7.019591131382,False
150,150,trot_FR_RL,0.750000000000,0.750000000000,"FR,RL","FL,RR",0.277335227466,0.004951585482,-0.018520189536,0.026841386238,0.026841386238,0.015771028930,7.231686550659,7.231686550659,False
151,151,trot_FR_RL,0.755000000000,0.755000000000,"FR,RL","FL,RR",0.277216234691,0.004072928084,-0.016969989703,0.026967009492,0.026967009492,0.015692677586,6.449704243111,6.449704243111,False
152,152,trot_FR_RL,0.760000000000,0.760000000000,"FR,RL","FL,RR",0.277140751448,0.001752236438,-0.014117855238,0.028384507583,0.028384507583,0.014159458418,6.561825839607,6.561825839607,False
153,153,trot_FR_RL,0.765000000000,0.765000000000,"FR,RL","FL,RR",0.277037531433,0.001535863602,-0.012248787373,0.024694797428,0.024694797428,0.014884201697,5.873346523985,5.873346523985,False
154,154,trot_FR_RL,0.770000000000,0.770000000000,"FR,RL","FL,RR",0.277005178032,-0.002648069465,-0.010527543508,0.030036182708,0.030036182708,0.015109840716,6.716235756314,6.716235756314,False
155,155,trot_FR_RL,0.775000000000,0.775000000000,"FR,RL","FL,RR",0.276846906931,-0.003079615002,-0.009065054579,0.026256080909,0.026256080909,0.011240338517,5.609571175064,5.609571175064,False
156,156,trot_FR_RL,0.780000000000,0.780000000000,"FR,RL","FL,RR",0.276800104650,-0.007373655181,-0.007164873732,0.031715535245,0.031715535245,0.012541986399,6.939650850859,6.939650850859,False
157,157,trot_FR_RL,0.785000000000,0.785000000000,"FR,RL","FL,RR",0.276727722235,-0.007066232192,-0.005516802205,0.027929617827,0.027929617827,0.013409793820,4.535709009121,4.535709009121,False
158,158,trot_FR_RL,0.790000000000,0.790000000000,"FR,RL","FL,RR",0.276652297957,-0.011010655105,-0.003772789784,0.033358578337,0.033358578337,0.013049959038,7.012547474221,7.012547474221,False
159,159,trot_FR_RL,0.795000000000,0.795000000000,"FR,RL","FL,RR",0.276560163998,-0.010371377802,-0.002280057637,0.029694760370,0.029694760370,0.014303736738,5.205168791677,5.205168791677,False
160,160,trot_FR_RL,0.800000000000,0.800000000000,"FR,RL","FL,RR",0.276571046823,-0.011630252729,-0.000898842013,0.035211749123,0.035211749123,0.014499684997,8.051959147361,8.051959147361,False
161,161,trot_FR_RL,0.805000000000,0.805000000000,"FR,RL","FL,RR",0.276439321848,-0.011088831066,0.000754691047,0.031743426348,0.031743426348,0.014264089545,3.482898762918,3.482898762918,False
162,162,trot_FR_RL,0.810000000000,0.810000000000,"FR,RL","FL,RR",0.276443200789,-0.014717721755,0.002846075034,0.033035770456,0.033035770456,0.012912548084,6.333247915549,6.333247915549,False
163,163,trot_FR_RL,0.815000000000,0.815000000000,"FR,RL","FL,RR",0.276432490192,-0.013362198328,0.003637581190,0.025990323916,0.025990323916,0.015508916310,6.117118103173,6.117118103173,False
164,164,trot_FR_RL,0.820000000000,0.820000000000,"FR,RL","FL,RR",0.276344082221,-0.016576716033,0.004565519012,0.029074499545,0.029074499545,0.016226913799,6.084741989510,6.084741989510,False
165,165,trot_FR_RL,0.825000000000,0.825000000000,"FR,RL","FL,RR",0.276324506321,-0.014388121812,0.005319698729,0.023623837244,0.023623837244,0.012577028979,5.132111332249,5.132111332249,False
166,166,trot_FR_RL,0.830000000000,0.830000000000,"FR,RL","FL,RR",0.276288554071,-0.017823126403,0.006024753615,0.027787498168,0.027787498168,0.012072312209,5.199390261084,5.199390261084,False
167,167,trot_FR_RL,0.835000000000,0.835000000000,"FR,RL","FL,RR",0.276237629598,-0.015167910586,0.006837252114,0.023027270387,0.023027270387,0.014581730926,6.890689974918,6.890689974918,False
168,168,trot_FR_RL,0.840000000000,0.840000000000,"FR,RL","FL,RR",0.276251871643,-0.017405309389,0.007918960419,0.027866638038,0.027866638038,0.012389328762,5.858527278599,5.858527278599,False
169,169,trot_FR_RL,0.845000000000,0.845000000000,"FR,RL","FL,RR",0.276161932047,-0.014906960580,0.008091289983,0.023582701544,0.023582701544,0.014219168394,5.747111669468,5.747111669468,False
170,170,trot_FR_RL,0.850000000000,0.850000000000,"FR,RL","FL,RR",0.276220904939,-0.016806230527,0.008795470415,0.028874016391,0.028874016391,0.014403367042,6.647494155799,6.647494155799,False
171,171,trot_FR_RL,0.855000000000,0.855000000000,"FR,RL","FL,RR",0.276271411149,-0.014315146223,0.009264432335,0.024875530632,0.024875530632,0.014015638379,6.195189269453,6.195189269453,False
172,172,trot_FR_RL,0.860000000000,0.860000000000,"FR,RL","FL,RR",0.276314917145,-0.015869134341,0.009568025630,0.030166003588,0.030166003588,0.014030424241,6.512785995301,6.512785995301,False
173,173,trot_FR_RL,0.865000000000,0.865000000000,"FR,RL","FL,RR",0.276370824413,-0.013115982592,0.009779420563,0.026468116942,0.026468116942,0.016002942894,5.330746710703,5.330746710703,False
174,174,trot_FR_RL,0.870000000000,0.870000000000,"FR,RL","FL,RR",0.276519827997,-0.013669692807,0.009993522512,0.031946726785,0.031946726785,0.015236378210,6.762211373218,6.762211373218,False
175,175,trot_FR_RL,0.875000000000,0.875000000000,"FR,RL","FL,RR",0.276592907108,-0.012966329625,0.010034666565,0.028331911726,0.028331911726,0.012125811649,6.658239315442,6.658239315442,False
176,176,trot_FR_RL,0.880000000000,0.880000000000,"FR,RL","FL,RR",0.276752227921,-0.015327062914,0.010158743387,0.033694285341,0.033694285341,0.010830018951,6.767447815905,6.767447815905,False
177,177,trot_FR_RL,0.885000000000,0.885000000000,"FR,RL","FL,RR",0.276834112188,-0.014647536296,0.010194409214,0.029998330764,0.029998330764,0.014506969576,5.388869441429,5.388869441429,False
178,178,trot_FR_RL,0.890000000000,0.890000000000,"FR,RL","FL,RR",0.276989795256,-0.017726975303,0.009791600515,0.035476184900,0.035476184900,0.012736130828,7.008346471863,7.008346471863,False
179,179,trot_FR_RL,0.895000000000,0.895000000000,"FR,RL","FL,RR",0.277130340372,-0.016643662821,0.008944015291,0.031540431428,0.031540431428,0.016506501498,5.090890789298,5.090890789298,False
180,180,trot_FR_RL,0.900000000000,0.900000000000,"FR,RL","FL,RR",0.277302378352,-0.017703509919,0.008251299906,0.036916879721,0.036916879721,0.015936636617,7.006281335172,7.006281335172,False
181,181,trot_FR_RL,0.905000000000,0.905000000000,"FR,RL","FL,RR",0.277493586989,-0.016324687920,0.007162118876,0.033405962642,0.033405962642,0.012358228702,6.434200103891,6.434200103891,False
182,182,trot_FR_RL,0.910000000000,0.910000000000,"FR,RL","FL,RR",0.277681045237,-0.018701109770,0.006668296157,0.037908722884,0.037908722884,0.010372619365,6.197264716288,6.197264716288,False
183,183,trot_FR_RL,0.915000000000,0.915000000000,"FR,RL","FL,RR",0.277839199486,-0.017054721186,0.005043465240,0.033537910890,0.033537910890,0.012830473157,6.875215691189,6.875215691189,False
184,184,trot_FR_RL,0.920000000000,0.920000000000,"FR,RL","FL,RR",0.278112284169,-0.017480909018,0.004125149494,0.038671876988,0.038671876988,0.010388112159,6.876104761025,6.876104761025,False
185,185,trot_FR_RL,0.925000000000,0.925000000000,"FR,RL","FL,RR",0.278292252336,-0.014141281770,0.003108480896,0.034822246624,0.034822246624,0.008875835553,6.929811996765,6.929811996765,False
186,186,trot_FR_RL,0.930000000000,0.930000000000,"FR,RL","FL,RR",0.278518218219,-0.015913916062,0.001859922183,0.040252820440,0.040252820440,0.005299854497,7.287045801849,7.287045801849,False
187,187,trot_FR_RL,0.935000000000,0.935000000000,"FR,RL","FL,RR",0.278666629222,-0.012731145069,0.000907998951,0.036529806544,0.036529806544,0.007577606621,4.952884985531,4.952884985531,False
188,188,trot_FR_RL,0.940000000000,0.940000000000,"FR,RL","FL,RR",0.278863351908,-0.014534529415,-0.000245153675,0.041239854855,0.041239854855,0.005290805052,7.767868441781,7.767868441781,False
189,189,trot_FR_RL,0.945000000000,0.945000000000,"FR,RL","FL,RR",0.278992822088,-0.012750488476,-0.001395095436,0.036967574612,0.036967574612,0.009334767149,5.021335790770,5.021335790770,False
190,190,trot_FR_RL,0.950000000000,0.950000000000,"FR,RL","FL,RR",0.279179454651,-0.013819899701,-0.001606313851,0.042057773846,0.042057773846,0.008948295793,7.070678791561,7.070678791561,False
191,191,trot_FR_RL,0.955000000000,0.955000000000,"FR,RL","FL,RR",0.279304833344,-0.011434381498,-0.002838982803,0.038136373937,0.038136373937,0.009455685898,4.706153544735,4.706153544735,False
192,192,trot_FR_RL,0.960000000000,0.960000000000,"FR,RL","FL,RR",0.279477119786,-0.013800245022,-0.003536775887,0.043614658295,0.043614658295,0.008343655912,7.575099459756,7.575099459756,False
193,193,trot_FR_RL,0.965000000000,0.965000000000,"FR,RL","FL,RR",0.279563257023,-0.011402023579,-0.004791513341,0.039848771732,0.039848771732,0.010842997158,8.451422127339,8.451422127339,False
194,194,trot_FR_RL,0.970000000000,0.970000000000,"FR,RL","FL,RR",0.279737712880,-0.012025472127,-0.005436445040,0.040718765136,0.040718765136,0.007812945752,5.001490594568,5.001490594568,False
195,195,trot_FR_RL,0.975000000000,0.975000000000,"FR,RL","FL,RR",0.279842478693,-0.011407220612,-0.006665641468,0.033445668800,0.033445668800,0.009695289725,8.042076230766,8.042076230766,False
196,196,trot_FR_RL,0.980000000000,0.980000000000,"FR,RL","FL,RR",0.280045553706,-0.011001788999,-0.007469197727,0.036025265283,0.036025265283,0.006450970071,4.056858543408,4.056858543408,False
197,197,trot_FR_RL,0.985000000000,0.985000000000,"FR,RL","FL,RR",0.280074897464,-0.009211137377,-0.008584542697,0.030522779879,0.030522779879,0.008910068550,6.131917517207,6.131917517207,False
198,198,trot_FR_RL,0.990000000000,0.990000000000,"FR,RL","FL,RR",0.280223675260,-0.011365909773,-0.009014224241,0.034588090716,0.034588090716,0.004959578333,5.423437486735,5.423437486735,False
199,199,trot_FR_RL,0.995000000000,0.995000000000,"FR,RL","FL,RR",0.280259144834,-0.008768650464,-0.009679722864,0.029866121384,0.029866121384,0.006450243455,6.051729200133,6.051729200133,False
200,200,trot_FL_RR,0.000000000000,0.000000000000,"FL,RR","FR,RL",0.280329220032,-0.010999000480,-0.010392044657,0.034813419621,0.004131556222,0.034813419621,6.320923835970,6.320923835970,False
201,201,trot_FL_RR,0.005000000000,0.005000000000,"FL,RR","FR,RL",0.280331034572,-0.008188855491,-0.010678216499,0.030736020029,0.004743180587,0.030736020029,5.697580069863,5.697580069863,False
202,202,trot_FL_RR,0.010000000000,0.010000000000,"FL,RR","FR,RL",0.280418353573,-0.009695136002,-0.010877477902,0.035274318455,0.005072127219,0.035274318455,6.521745630444,6.521745630444,False
203,203,trot_FL_RR,0.015000000000,0.015000000000,"FL,RR","FR,RL",0.280360104700,-0.007240721233,-0.011568758910,0.030706298554,0.004515985363,0.030706298554,4.501472816742,4.501472816742,False
204,204,trot_FL_RR,0.020000000000,0.020000000000,"FL,RR","FR,RL",0.280416600409,-0.008925248837,-0.011525232328,0.035331528104,0.007069237716,0.035331528104,7.120784206537,7.120784206537,False
205,205,trot_FL_RR,0.025000000000,0.025000000000,"FL,RR","FR,RL",0.280407912389,-0.005336336407,-0.011447642746,0.030671289451,0.005886041848,0.030671289451,4.290144417907,4.290144417907,False
206,206,trot_FL_RR,0.030000000000,0.030000000000,"FL,RR","FR,RL",0.280422173508,-0.006730980748,-0.011511259225,0.035130940139,0.010827027311,0.035130940139,7.503486794866,7.503486794866,False
207,207,trot_FL_RR,0.035000000000,0.035000000000,"FL,RR","FR,RL",0.280374838289,-0.003333754314,-0.011237797598,0.030426570609,0.009812409778,0.030426570609,8.826571038452,8.826571038452,False
208,208,trot_FL_RR,0.040000000000,0.040000000000,"FL,RR","FR,RL",0.280356494344,-0.004844989775,-0.011125273752,0.027501438879,0.014642081565,0.027501438879,5.969049311130,5.969049311130,False
209,209,trot_FL_RR,0.045000000000,0.045000000000,"FL,RR","FR,RL",0.280272446100,-0.002083600991,-0.010863239521,0.017218479907,0.013492826947,0.017218479907,8.192814104340,8.192814104340,False
210,210,trot_FL_RR,0.050000000000,0.050000000000,"FL,RR","FR,RL",0.280268367099,-0.003745511955,-0.010549625609,0.017193869124,0.015064954242,0.017193869124,5.640444610197,5.640444610197,False
211,211,trot_FL_RR,0.055000000000,0.055000000000,"FL,RR","FR,RL",0.280139109469,-0.001071205863,-0.010246076648,0.011355528892,0.011355528892,0.009617579051,6.069293910568,6.069293910568,False
212,212,trot_FL_RR,0.060000000000,0.060000000000,"FL,RR","FR,RL",0.280104713318,-0.002769907245,-0.009839328926,0.013262100253,0.013262100253,0.012959541419,5.393553479186,5.393553479186,False
213,213,trot_FL_RR,0.065000000000,0.065000000000,"FL,RR","FR,RL",0.279967891089,0.000229563056,-0.009737141672,0.013372630013,0.013372630013,0.011069398486,5.645752403905,5.645752403905,False
214,214,trot_FL_RR,0.070000000000,0.070000000000,"FL,RR","FR,RL",0.279918392395,0.000159926975,-0.009260693672,0.015110214121,0.013776263828,0.015110214121,6.662194431884,6.662194431884,False
215,215,trot_FL_RR,0.075000000000,0.075000000000,"FL,RR","FR,RL",0.279776235663,-0.000915951329,-0.008349397630,0.015102630397,0.012693002476,0.015102630397,5.312913860710,5.312913860710,False
216,216,trot_FL_RR,0.080000000000,0.080000000000,"FL,RR","FR,RL",0.279705190294,-0.000569529689,-0.007592041181,0.016207392419,0.016207392419,0.012856156203,6.783828348101,6.783828348101,False
217,217,trot_FL_RR,0.085000000000,0.085000000000,"FL,RR","FR,RL",0.279599975870,0.000701370934,-0.006728012423,0.014800883166,0.014800883166,0.011124992746,6.739279500473,6.739279500473,False
218,218,trot_FL_RR,0.090000000000,0.090000000000,"FL,RR","FR,RL",0.279491342584,-0.000042379657,-0.005970862610,0.018078870908,0.018078870908,0.010688169980,5.534742359988,5.534742359988,False
219,219,trot_FL_RR,0.095000000000,0.095000000000,"FL,RR","FR,RL",0.279347985938,0.000203213614,-0.005372628214,0.018466954001,0.018466954001,0.009186537942,4.192408629558,4.192408629558,False
220,220,trot_FL_RR,0.100000000000,0.100000000000,"FL,RR","FR,RL",0.279273646541,-0.000256447900,-0.004091349834,0.017063654263,0.017063654263,0.011167703226,6.756067191579,6.756067191579,False
221,221,trot_FL_RR,0.105000000000,0.105000000000,"FL,RR","FR,RL",0.279140309277,0.000623567104,-0.003964466854,0.017939689384,0.017939689384,0.010020779024,7.469911241022,7.469911241022,False
222,222,trot_FL_RR,0.110000000000,0.110000000000,"FL,RR","FR,RL",0.279014502597,-0.001335777859,-0.002851159133,0.017109852179,0.017109852179,0.009437809863,5.682401424833,5.682401424833,False
223,223,trot_FL_RR,0.115000000000,0.115000000000,"FL,RR","FR,RL",0.278816286405,0.001945276802,-0.002545202966,0.020073406488,0.020073406488,0.008182751645,4.969695442908,4.969695442908,False
224,224,trot_FL_RR,0.120000000000,0.120000000000,"FL,RR","FR,RL",0.278654775235,0.000029386540,-0.002507139972,0.020464656012,0.020464656012,0.012830770767,6.044296365569,6.044296365569,False
225,225,trot_FL_RR,0.125000000000,0.125000000000,"FL,RR","FR,RL",0.278437018320,0.002897985662,-0.002029697819,0.016269599659,0.016269599659,0.011715193562,5.640488382264,5.640488382264,False
226,226,trot_FL_RR,0.130000000000,0.130000000000,"FL,RR","FR,RL",0.278282212845,0.001863066634,-0.001726934795,0.017798007039,0.017798007039,0.014499766451,7.259810463742,7.259810463742,False
227,227,trot_FL_RR,0.135000000000,0.135000000000,"FL,RR","FR,RL",0.278180433533,0.003875558307,-0.001280623777,0.014942136738,0.014942136738,0.012879649870,5.679349991194,5.679349991194,False
228,228,trot_FL_RR,0.140000000000,0.140000000000,"FL,RR","FR,RL",0.278016382954,0.005469537000,-0.001272532598,0.015897104406,0.015897104406,0.015559101496,5.872740963397,5.872740963397,False
229,229,trot_FL_RR,0.145000000000,0.145000000000,"FL,RR","FR,RL",0.277911597772,0.007798248006,-0.000764775492,0.015470742297,0.015470742297,0.013623751947,5.220868870961,5.220868870961,False
230,230,trot_FL_RR,0.150000000000,0.150000000000,"FL,RR","FR,RL",0.277753754211,0.007862976361,-0.001142270880,0.014672107402,0.014672107402,0.014213719731,6.163341505385,6.163341505385,False
231,231,trot_FL_RR,0.155000000000,0.155000000000,"FL,RR","FR,RL",0.277636581374,0.011427481852,-0.000391012574,0.015940050949,0.015940050949,0.010010216119,5.442674890431,5.442674890431,False
232,232,trot_FL_RR,0.160000000000,0.160000000000,"FL,RR","FR,RL",0.277483469083,0.010793114483,-0.000726364279,0.014116140961,0.014116140961,0.009994195292,6.273142899018,6.273142899018,False
233,233,trot_FL_RR,0.165000000000,0.165000000000,"FL,RR","FR,RL",0.277380123845,0.015032361178,-0.000355188369,0.016318163586,0.016318163586,0.008347416938,6.740336784976,6.740336784976,False
234,234,trot_FL_RR,0.170000000000,0.170000000000,"FL,RR","FR,RL",0.277259663994,0.015727229388,0.000145187707,0.014295389591,0.014295389591,0.008816557788,5.992328493714,5.992328493714,False
235,235,trot_FL_RR,0.175000000000,0.175000000000,"FL,RR","FR,RL",0.277109889019,0.022025282995,0.000609210414,0.017003311731,0.017003311731,0.007505135587,5.070207373553,5.070207373553,False
236,236,trot_FL_RR,0.180000000000,0.180000000000,"FL,RR","FR,RL",0.276963592939,0.022247461935,0.001304045011,0.014943921087,0.014943921087,0.009805609022,6.416046156110,6.416046156110,False
237,237,trot_FL_RR,0.185000000000,0.185000000000,"FL,RR","FR,RL",0.276869987331,0.027454982236,0.002564162450,0.017738044076,0.017738044076,0.009424067144,6.544010583896,6.544010583896,False
238,238,trot_FL_RR,0.190000000000,0.190000000000,"FL,RR","FR,RL",0.276722577137,0.028011743710,0.002953014519,0.016131376364,0.016131376364,0.006850084936,6.683528928320,6.683528928320,False
239,239,trot_FL_RR,0.195000000000,0.195000000000,"FL,RR","FR,RL",0.276610405195,0.032743063585,0.004654350067,0.018451981840,0.018451981840,0.011383505134,5.333830047945,5.333830047945,False
240,240,trot_FL_RR,0.200000000000,0.200000000000,"FL,RR","FR,RL",0.276513108610,0.032236406279,0.005469126215,0.017335262984,0.017335262984,0.011618078818,6.932878058041,6.932878058041,False
241,241,trot_FL_RR,0.205000000000,0.205000000000,"FL,RR","FR,RL",0.276460389630,0.036696280636,0.006792351805,0.019149157370,0.019149157370,0.011022666901,5.216203743791,5.216203743791,False
242,242,trot_FL_RR,0.210000000000,0.210000000000,"FL,RR","FR,RL",0.276324342342,0.036257223331,0.007480053663,0.018956146473,0.018956146473,0.009655350563,7.285803629328,7.285803629328,False
243,243,trot_FL_RR,0.215000000000,0.215000000000,"FL,RR","FR,RL",0.276311103892,0.038562080751,0.008917194893,0.019055592608,0.019055592608,0.013817240813,6.900867864463,6.900867864463,False
244,244,trot_FL_RR,0.220000000000,0.220000000000,"FL,RR","FR,RL",0.276305422482,0.041374051495,0.010446941041,0.020266074087,0.020266074087,0.014887590683,5.848248798661,5.848248798661,False
245,245,trot_FL_RR,0.225000000000,0.225000000000,"FL,RR","FR,RL",0.276323175512,0.043251473629,0.011952652883,0.019871945392,0.019871945392,0.013212198823,5.111791560762,5.111791560762,False
246,246,trot_FL_RR,0.230000000000,0.230000000000,"FL,RR","FR,RL",0.276329066103,0.047914730755,0.012983951955,0.023114043965,0.023114043965,0.010768022092,6.891809797561,6.891809797561,False
247,247,trot_FL_RR,0.235000000000,0.235000000000,"FL,RR","FR,RL",0.276441968939,0.048000459210,0.014321753140,0.021568077593,0.021568077593,0.010156429588,6.712643548964,6.712643548964,False
248,248,trot_FL_RR,0.240000000000,0.240000000000,"FL,RR","FR,RL",0.276443505264,0.052544043558,0.014847544380,0.024950253762,0.024950253762,0.005999677071,6.859523157135,6.859523157135,False
249,249,trot_FL_RR,0.245000000000,0.245000000000,"FL,RR","FR,RL",0.276534754023,0.051767809281,0.016356242800,0.022796442136,0.022796442136,0.011114879675,6.051352497986,6.051352497986,False
250,250,trot_FL_RR,0.250000000000,0.250000000000,"FL,RR","FR,RL",0.276701472951,0.052649191284,0.017529010932,0.026539817675,0.026539817675,0.010973327866,6.899037653580,6.899037653580,False
251,251,trot_FL_RR,0.255000000000,0.255000000000,"FL,RR","FR,RL",0.276785489735,0.052849781789,0.018615290262,0.024257635335,0.024257635335,0.009344729798,3.730843268952,3.730843268952,False
252,252,trot_FL_RR,0.260000000000,0.260000000000,"FL,RR","FR,RL",0.276967460228,0.053427241998,0.020095341894,0.028692172665,0.028692172665,0.014130124910,7.399900682656,7.399900682656,False
253,253,trot_FL_RR,0.265000000000,0.265000000000,"FL,RR","FR,RL",0.277244290555,0.051743217531,0.021693353528,0.025480889033,0.025480889033,0.014892844380,4.669307968876,4.669307968876,False
254,254,trot_FL_RR,0.270000000000,0.270000000000,"FL,RR","FR,RL",0.277412832372,0.054741232745,0.022417742921,0.030821676684,0.030821676684,0.010893380053,7.341394013996,7.341394013996,False
255,255,trot_FL_RR,0.275000000000,0.275000000000,"FL,RR","FR,RL",0.277661926281,0.052622062073,0.023920870709,0.027267774091,0.027267774091,0.016224807243,6.721573896881,6.721573896881,False
256,256,trot_FL_RR,0.280000000000,0.280000000000,"FL,RR","FR,RL",0.277935487579,0.054165854755,0.024292647111,0.032906178274,0.032906178274,0.014661388408,7.403031670748,7.403031670748,False
257,257,trot_FL_RR,0.285000000000,0.285000000000,"FL,RR","FR,RL",0.278185401588,0.053351102165,0.024888190230,0.029255070792,0.029255070792,0.011870999735,3.999968781378,3.999968781378,False
258,258,trot_FL_RR,0.290000000000,0.290000000000,"FL,RR","FR,RL",0.278501085797,0.056165687899,0.024924709175,0.034944352631,0.034944352631,0.013295094318,7.651091033401,7.651091033401,False
259,259,trot_FL_RR,0.295000000000,0.295000000000,"FL,RR","FR,RL",0.278844995955,0.053876576920,0.025233792972,0.031427075328,0.031427075328,0.012260946279,8.947536293091,8.947536293091,False
260,260,trot_FL_RR,0.300000000000,0.300000000000,"FL,RR","FR,RL",0.279098966639,0.056531034657,0.024982215957,0.036986549299,0.036986549299,0.009457135197,7.719458830120,7.719458830120,False
261,261,trot_FL_RR,0.305000000000,0.305000000000,"FL,RR","FR,RL",0.279403939681,0.053933556752,0.025332869163,0.033328350040,0.033328350040,0.013649703483,6.687024831991,6.687024831991,False
262,262,trot_FL_RR,0.310000000000,0.310000000000,"FL,RR","FR,RL",0.279622751676,0.056221035257,0.025114263619,0.038808959826,0.038808959826,0.012279534184,7.821947849242,7.821947849242,False
263,263,trot_FL_RR,0.315000000000,0.315000000000,"FL,RR","FR,RL",0.279918652336,0.054588411976,0.025466532648,0.035072244338,0.035072244338,0.013870427032,6.985922928893,6.985922928893,False
264,264,trot_FL_RR,0.320000000000,0.320000000000,"FL,RR","FR,RL",0.280247608199,0.054533762619,0.025040464472,0.040637593710,0.040637593710,0.012230978283,8.089279075932,8.089279075932,False
265,265,trot_FL_RR,0.325000000000,0.325000000000,"FL,RR","FR,RL",0.280529071862,0.050899840186,0.025330398279,0.036747180558,0.036747180558,0.012454641190,5.048089406064,5.048089406064,False
266,266,trot_FL_RR,0.330000000000,0.330000000000,"FL,RR","FR,RL",0.280823365486,0.051188712976,0.024779281881,0.042092438804,0.042092438804,0.013185782423,8.022529405445,8.022529405445,False
267,267,trot_FL_RR,0.335000000000,0.335000000000,"FL,RR","FR,RL",0.281120116331,0.046888665728,0.024317153963,0.038207346726,0.038207346726,0.011824922006,3.394989020213,3.394989020213,False
268,268,trot_FL_RR,0.340000000000,0.340000000000,"FL,RR","FR,RL",0.281344469544,0.047270627212,0.023469450722,0.043452463520,0.043452463520,0.015940292342,8.068721597430,8.068721597430,False
269,269,trot_FL_RR,0.345000000000,0.345000000000,"FL,RR","FR,RL",0.281615094031,0.044741891145,0.022724859759,0.039506837113,0.039506837113,0.014966800872,3.446762022712,3.446762022712,False
270,270,trot_FL_RR,0.350000000000,0.350000000000,"FL,RR","FR,RL",0.281772632881,0.044767857683,0.021649789987,0.044916853484,0.044916853484,0.011850547566,8.388849821007,8.388849821007,False
271,271,trot_FL_RR,0.355000000000,0.355000000000,"FL,RR","FR,RL",0.281975918481,0.040670419790,0.021083178492,0.040853373429,0.040853373429,0.010940828496,5.811080841985,5.811080841985,False
272,272,trot_FL_RR,0.360000000000,0.360000000000,"FL,RR","FR,RL",0.282085892741,0.041337291377,0.019955318870,0.046072035619,0.046072035619,0.012427310021,8.328522140202,8.328522140202,False
273,273,trot_FL_RR,0.365000000000,0.365000000000,"FL,RR","FR,RL",0.282224529924,0.037051395672,0.019431862708,0.042066017535,0.042066017535,0.008723720131,6.165108817452,6.165108817452,False
274,274,trot_FL_RR,0.370000000000,0.370000000000,"FL,RR","FR,RL",0.282269904605,0.037520931723,0.018347221987,0.047230419751,0.047230419751,0.011083266290,8.406058551669,8.406058551669,False
275,275,trot_FL_RR,0.375000000000,0.375000000000,"FL,RR","FR,RL",0.282341277126,0.033097354910,0.017859175680,0.043169818663,0.043169818663,0.009559051253,6.774010608550,6.774010608550,False
276,276,trot_FL_RR,0.380000000000,0.380000000000,"FL,RR","FR,RL",0.282319120115,0.033429524212,0.016808610145,0.048283690606,0.048283690606,0.011109139150,8.479391436031,8.479391436031,False
277,277,trot_FL_RR,0.385000000000,0.385000000000,"FL,RR","FR,RL",0.282321208691,0.028915108025,0.016346535045,0.044172768823,0.044172768823,0.012569961429,7.071504505647,7.071504505647,False
278,278,trot_FL_RR,0.390000000000,0.390000000000,"FL,RR","FR,RL",0.282229970273,0.029135017852,0.015323940727,0.049239450673,0.049239450673,0.012144253452,8.548695283071,8.548695283071,False
279,279,trot_FL_RR,0.395000000000,0.395000000000,"FL,RR","FR,RL",0.282161364367,0.024555525106,0.014888043338,0.045080323016,0.045080323016,0.015954875090,7.192115355220,7.192115355220,False
280,280,trot_FL_RR,0.400000000000,0.400000000000,"FL,RR","FR,RL",0.282021621520,0.023635325637,0.014050746408,0.050102570196,0.050102570196,0.014804239062,8.613735417201,8.613735417201,False
281,281,trot_FL_RR,0.405000000000,0.405000000000,"FL,RR","FR,RL",0.281933878723,0.019822650693,0.013585746905,0.045838739583,0.045838739583,0.018116400478,7.526215714538,7.526215714538,False
282,282,trot_FL_RR,0.410000000000,0.410000000000,"FL,RR","FR,RL",0.281730678082,0.018593982337,0.012767186997,0.050964353181,0.050964353181,0.015259806023,8.826828321831,8.826828321831,False
283,283,trot_FL_RR,0.415000000000,0.415000000000,"FL,RR","FR,RL",0.281579416257,0.014611716526,0.012296083615,0.046614308640,0.046614308640,0.016000295863,4.790365120225,4.790365120225,False
284,284,trot_FL_RR,0.420000000000,0.420000000000,"FL,RR","FR,RL",0.281303742403,0.013364010078,0.011414885204,0.051675887217,0.051675887217,0.017783516520,8.860826206445,8.860826206445,False
285,285,trot_FL_RR,0.425000000000,0.425000000000,"FL,RR","FR,RL",0.281067865082,0.008536817624,0.010979789553,0.047265592463,0.047265592463,0.014473955646,4.646745830331,4.646745830331,False
286,286,trot_FL_RR,0.430000000000,0.430000000000,"FL,RR","FR,RL",0.280734983429,0.008563421599,0.009977597745,0.052186599077,0.052186599077,0.020550930977,8.802512907892,8.802512907892,False
287,287,trot_FL_RR,0.435000000000,0.435000000000,"FL,RR","FR,RL",0.280446728395,0.004080470512,0.009333442974,0.047883808093,0.047883808093,0.017480374164,4.745941095495,4.745941095495,False
288,288,trot_FL_RR,0.440000000000,0.440000000000,"FL,RR","FR,RL",0.280037201420,0.003956794799,0.008384780734,0.052789571441,0.052789571441,0.014306882991,8.877163457128,8.877163457128,False
289,289,trot_FL_RR,0.445000000000,0.445000000000,"FL,RR","FR,RL",0.279710037705,-0.000406910398,0.007746980280,0.048419004614,0.048419004614,0.016159018545,5.481058311694,5.481058311694,False
290,290,trot_FL_RR,0.450000000000,0.450000000000,"FL,RR","FR,RL",0.279235204836,-0.000866260377,0.006649235632,0.053322512185,0.053322512185,0.012030208022,8.959415682455,8.959415682455,False
291,291,trot_FL_RR,0.455000000000,0.455000000000,"FL,RR","FR,RL",0.278859890849,-0.005495535070,0.005943464803,0.048853500555,0.048853500555,0.016946776814,6.276313125794,6.276313125794,False
292,292,trot_FL_RR,0.460000000000,0.460000000000,"FL,RR","FR,RL",0.278373771059,-0.005395481377,0.004375996195,0.053545551565,0.053545551565,0.014957721676,8.807855040582,8.807855040582,False
293,293,trot_FL_RR,0.465000000000,0.465000000000,"FL,RR","FR,RL",0.277921746250,-0.010078729488,0.003532376402,0.048989025507,0.048989025507,0.015892421642,6.647323406577,6.647323406577,False
294,294,trot_FL_RR,0.470000000000,0.470000000000,"FL,RR","FR,RL",0.277401008928,-0.010259562445,0.002196702351,0.053376792549,0.053376792549,0.014627731082,8.532267116156,8.532267116156,False
295,295,trot_FL_RR,0.475000000000,0.475000000000,"FL,RR","FR,RL",0.276944678880,-0.014902874130,0.001225366410,0.048634707722,0.048634707722,0.017006834021,7.257139300922,7.257139300922,False
296,296,trot_FL_RR,0.480000000000,0.480000000000,"FL,RR","FR,RL",0.276426372411,-0.014532200118,-0.000293397319,0.052495440682,0.052495440682,0.014033186017,7.977029494203,7.977029494203,False
297,297,trot_FL_RR,0.485000000000,0.485000000000,"FL,RR","FR,RL",0.275952192683,-0.018922978434,-0.001018437854,0.047388080625,0.047388080625,0.017674358512,5.219341164793,5.219341164793,False
298,298,trot_FL_RR,0.490000000000,0.490000000000,"FL,RR","FR,RL",0.275411367491,-0.018072654591,-0.002415961659,0.050390508725,0.050390508725,0.015516453825,6.992705894044,6.992705894044,False
299,299,trot_FL_RR,0.495000000000,0.495000000000,"FL,RR","FR,RL",0.275024816284,-0.018911594350,-0.003368124142,0.044608295877,0.044608295877,0.019720377945,5.779622439834,5.779622439834,False
300,300,trot_FL_RR,0.500000000000,0.500000000000,"FL,RR","FR,RL",0.274543856507,-0.018076402900,-0.004236173040,0.046851592052,0.046851592052,0.020817117220,5.992870726189,5.992870726189,False
301,301,trot_FL_RR,0.505000000000,0.505000000000,"FL,RR","FR,RL",0.274226038996,-0.021392504102,-0.004634995334,0.040192689598,0.040192689598,0.019630794517,6.290106630297,6.290106630297,False
302,302,trot_FL_RR,0.510000000000,0.510000000000,"FL,RR","FR,RL",0.273841227900,-0.019500331759,-0.005720230101,0.041127994911,0.041127994911,0.014061037168,5.230132387296,5.230132387296,False
303,303,trot_FL_RR,0.515000000000,0.515000000000,"FL,RR","FR,RL",0.273623947836,-0.021890680771,-0.006245615673,0.033738915084,0.033738915084,0.015152381062,7.791801924069,7.791801924069,False
304,304,trot_FL_RR,0.520000000000,0.520000000000,"FL,RR","FR,RL",0.273291624617,-0.022734586375,-0.007190135109,0.033786369194,0.033786369194,0.011808881666,5.284040075097,5.284040075097,False
305,305,trot_FL_RR,0.525000000000,0.525000000000,"FL,RR","FR,RL",0.273046667512,-0.024801680337,-0.007928101082,0.026106351504,0.026106351504,0.011760688968,6.710615437354,6.710615437354,False
306,306,trot_FL_RR,0.530000000000,0.530000000000,"FL,RR","FR,RL",0.272902583651,-0.026078489997,-0.008480508263,0.025631609966,0.025631609966,0.014480629044,6.602306058736,6.602306058736,False
307,307,trot_FL_RR,0.535000000000,0.535000000000,"FL,RR","FR,RL",0.272837428444,-0.026709934970,-0.009024913444,0.025282035431,0.025282035431,0.014159635377,3.967340725661,3.967340725661,False
308,308,trot_FL_RR,0.540000000000,0.540000000000,"FL,RR","FR,RL",0.272764549626,-0.027437046479,-0.009766163151,0.025816342696,0.025816342696,0.011957551277,5.861366083152,5.861366083152,False
309,309,trot_FL_RR,0.545000000000,0.545000000000,"FL,RR","FR,RL",0.272789195635,-0.027234168266,-0.010001980612,0.017679731004,0.017679731004,0.009979391622,6.530502027249,6.530502027249,False
310,310,trot_FL_RR,0.550000000000,0.550000000000,"FL,RR","FR,RL",0.272807774324,-0.027059504817,-0.010548623136,0.020188410426,0.020188410426,0.013716212323,6.080792299790,6.080792299790,False
311,311,trot_FL_RR,0.555000000000,0.555000000000,"FL,RR","FR,RL",0.272894990812,-0.026893908481,-0.011405879050,0.019607236867,0.019607236867,0.016173577040,7.200302057051,7.200302057051,False
312,312,trot_FL_RR,0.560000000000,0.560000000000,"FL,RR","FR,RL",0.273079843374,-0.028638142501,-0.012157397191,0.020778396358,0.020778396358,0.015627234315,5.874746245139,5.874746245139,False
313,313,trot_FL_RR,0.565000000000,0.565000000000,"FL,RR","FR,RL",0.273276815313,-0.026810997662,-0.013197001826,0.018771536109,0.018771536109,0.015096745909,3.951695765828,3.951695765828,False
314,314,trot_FL_RR,0.570000000000,0.570000000000,"FL,RR","FR,RL",0.273470115538,-0.029381780245,-0.013666429986,0.021292836243,0.021292836243,0.013362093550,5.763932567118,5.763932567118,False
315,315,trot_FL_RR,0.575000000000,0.575000000000,"FL,RR","FR,RL",0.273647138861,-0.027462543693,-0.014874116742,0.019314453496,0.019314453496,0.016545159585,6.635995641748,6.635995641748,False
316,316,trot_FL_RR,0.580000000000,0.580000000000,"FL,RR","FR,RL",0.273945128822,-0.029151350845,-0.015316884338,0.021634183061,0.021634183061,0.016553066360,5.990081010537,5.990081010537,False
317,317,trot_FL_RR,0.585000000000,0.585000000000,"FL,RR","FR,RL",0.274268921300,-0.027889026033,-0.015452598167,0.019696902897,0.019696902897,0.013614570567,4.611174007007,4.611174007007,False
318,318,trot_FL_RR,0.590000000000,0.590000000000,"FL,RR","FR,RL",0.274629553571,-0.029105549870,-0.015640186429,0.022634233608,0.022634233608,0.013164883582,5.450678543283,5.450678543283,False
319,319,trot_FL_RR,0.595000000000,0.595000000000,"FL,RR","FR,RL",0.274961732626,-0.029512523654,-0.015694878561,0.020667601675,0.020667601675,0.011304022832,5.059284672947,5.059284672947,False
320,320,trot_FL_RR,0.600000000000,0.600000000000,"FL,RR","FR,RL",0.275370765374,-0.028792124767,-0.015659478955,0.023630549751,0.023630549751,0.014679848852,6.615097004201,6.615097004201,False
321,321,trot_FL_RR,0.605000000000,0.605000000000,"FL,RR","FR,RL",0.275747939686,-0.030056747286,-0.016265092128,0.021548980901,0.021548980901,0.014534615066,4.456319695101,4.456319695101,False
322,322,trot_FL_RR,0.610000000000,0.610000000000,"FL,RR","FR,RL",0.276102526768,-0.028375405752,-0.015748583626,0.024337366437,0.024337366437,0.012800814070,6.844972071785,6.844972071785,False
323,323,trot_FL_RR,0.615000000000,0.615000000000,"FL,RR","FR,RL",0.276500380938,-0.031262696099,-0.015950388588,0.022850341969,0.022850341969,0.014355656962,5.629186242374,5.629186242374,False
324,324,trot_FL_RR,0.620000000000,0.620000000000,"FL,RR","FR,RL",0.276870723985,-0.028246438925,-0.016141023009,0.023272126371,0.023272126371,0.013121161473,6.395631387057,6.395631387057,False
325,325,trot_FL_RR,0.625000000000,0.625000000000,"FL,RR","FR,RL",0.277222699102,-0.030911429471,-0.016216074123,0.019058456188,0.019058456188,0.012572880803,6.088050155859,6.088050155859,False
326,326,trot_FL_RR,0.630000000000,0.630000000000,"FL,RR","FR,RL",0.277571701784,-0.027983239864,-0.016105465235,0.019921063168,0.019921063168,0.009936253281,6.519395676731,6.519395676731,False
327,327,trot_FL_RR,0.635000000000,0.635000000000,"FL,RR","FR,RL",0.277899449850,-0.030650906939,-0.015937074846,0.016214960761,0.016214960761,0.009294793491,4.584558800775,4.584558800775,False
328,328,trot_FL_RR,0.640000000000,0.640000000000,"FL,RR","FR,RL",0.278196869238,-0.027484090929,-0.015805345835,0.017479743159,0.017479743159,0.012548797048,6.921888030606,6.921888030606,False
329,329,trot_FL_RR,0.645000000000,0.645000000000,"FL,RR","FR,RL",0.278529522536,-0.029393854532,-0.016012081156,0.013968734139,0.013968734139,0.010818144038,4.739016554812,4.739016554812,False
330,330,trot_FL_RR,0.650000000000,0.650000000000,"FL,RR","FR,RL",0.278771025370,-0.026530534305,-0.016076180949,0.016630626823,0.016630626823,0.007480333593,6.460564004766,6.460564004766,False
331,331,trot_FL_RR,0.655000000000,0.655000000000,"FL,RR","FR,RL",0.279065074397,-0.028624428508,-0.016287487593,0.013289131536,0.013289131536,0.009499259972,5.543310717569,5.543310717569,False
332,332,trot_FL_RR,0.660000000000,0.660000000000,"FL,RR","FR,RL",0.279286586132,-0.025723057204,-0.016166273536,0.018939193922,0.018939193922,0.009203900216,6.510290338125,6.510290338125,False
333,333,trot_FL_RR,0.665000000000,0.665000000000,"FL,RR","FR,RL",0.279530297217,-0.027882268001,-0.016447264170,0.015357719197,0.015357719197,0.011143602902,6.900005554216,6.900005554216,False
334,334,trot_FL_RR,0.670000000000,0.670000000000,"FL,RR","FR,RL",0.279753007231,-0.025037136929,-0.016834118858,0.020896663932,0.020896663932,0.010621454954,6.518323453873,6.518323453873,False
335,335,trot_FL_RR,0.675000000000,0.675000000000,"FL,RR","FR,RL",0.279927802945,-0.026941132127,-0.017177682314,0.017210688830,0.017210688830,0.009122305148,5.575709097420,5.575709097420,False
336,336,trot_FL_RR,0.680000000000,0.680000000000,"FL,RR","FR,RL",0.280096545850,-0.024009263859,-0.017580147786,0.022668201982,0.022668201982,0.011945810183,6.541775820613,6.541775820613,False
337,337,trot_FL_RR,0.685000000000,0.685000000000,"FL,RR","FR,RL",0.280247164016,-0.026453420230,-0.018047839132,0.018917124928,0.018917124928,0.011297564300,5.354504662279,5.354504662279,False
338,338,trot_FL_RR,0.690000000000,0.690000000000,"FL,RR","FR,RL",0.280354853121,-0.023223686337,-0.018495908073,0.024363416539,0.024363416539,0.015122111021,7.860710577097,7.860710577097,False
339,339,trot_FL_RR,0.695000000000,0.695000000000,"FL,RR","FR,RL",0.280458819259,-0.024289705965,-0.019047457463,0.020565465713,0.020565465713,0.014235806133,6.243660918953,6.243660918953,False
340,340,trot_FL_RR,0.700000000000,0.700000000000,"FL,RR","FR,RL",0.280558868674,-0.021669544150,-0.019279420627,0.025857547397,0.025857547397,0.013758849483,6.559769711688,6.559769711688,False
341,341,trot_FL_RR,0.705000000000,0.705000000000,"FL,RR","FR,RL",0.280608765724,-0.022557897110,-0.019627616716,0.022058785516,0.022058785516,0.011344659517,4.986254683004,4.986254683004,False
342,342,trot_FL_RR,0.710000000000,0.710000000000,"FL,RR","FR,RL",0.280617612996,-0.017917635390,-0.019944430372,0.027348622744,0.027348622744,0.010334289794,6.641993466847,6.641993466847,False
343,343,trot_FL_RR,0.715000000000,0.715000000000,"FL,RR","FR,RL",0.280602672072,-0.019021444146,-0.020201412267,0.023449863503,0.023449863503,0.014271358680,6.679666219906,6.679666219906,False
344,344,trot_FL_RR,0.720000000000,0.720000000000,"FL,RR","FR,RL",0.280562421812,-0.014784622248,-0.020367923999,0.028829011637,0.028829011637,0.012703836213,6.815656092640,6.815656092640,False
345,345,trot_FL_RR,0.725000000000,0.725000000000,"FL,RR","FR,RL",0.280497094240,-0.016236005677,-0.020485736585,0.025001732136,0.025001732136,0.017519161842,6.217046797915,6.217046797915,False
346,346,trot_FL_RR,0.730000000000,0.730000000000,"FL,RR","FR,RL",0.280408910957,-0.013051514950,-0.020444987095,0.030444834466,0.030444834466,0.016208932123,6.975566754445,6.975566754445,False
347,347,trot_FL_RR,0.735000000000,0.735000000000,"FL,RR","FR,RL",0.280297976192,-0.015497010983,-0.020336898459,0.026736655226,0.026736655226,0.016902458273,5.547125306499,5.547125306499,False
348,348,trot_FL_RR,0.740000000000,0.740000000000,"FL,RR","FR,RL",0.280144611031,-0.012283565271,-0.020214773490,0.032278004780,0.032278004780,0.012096301811,7.187959408743,7.187959408743,False
349,349,trot_FL_RR,0.745000000000,0.745000000000,"FL,RR","FR,RL",0.279971683094,-0.014729258112,-0.020001796959,0.028598567136,0.028598567136,0.013737045288,5.812198583582,5.812198583582,False
350,350,trot_FL_RR,0.750000000000,0.750000000000,"FL,RR","FR,RL",0.279769077704,-0.011708375856,-0.019722957515,0.034164166683,0.034164166683,0.013040679666,7.331425977398,7.331425977398,False
351,351,trot_FL_RR,0.755000000000,0.755000000000,"FL,RR","FR,RL",0.279549138377,-0.014315844083,-0.019339688407,0.030507011543,0.030507011543,0.012310657227,5.909432107402,5.909432107402,False
352,352,trot_FL_RR,0.760000000000,0.760000000000,"FL,RR","FR,RL",0.279286420650,-0.011301946076,-0.018946273868,0.035106615446,0.035106615446,0.016842914073,6.901097205885,6.901097205885,False
353,353,trot_FL_RR,0.765000000000,0.765000000000,"FL,RR","FR,RL",0.279040318047,-0.012175123971,-0.018637634011,0.030702614169,0.030702614169,0.015815466448,6.101543959262,6.101543959262,False
354,354,trot_FL_RR,0.770000000000,0.770000000000,"FL,RR","FR,RL",0.278746204960,-0.009999867652,-0.017869718792,0.035507480755,0.035507480755,0.017957029123,7.597844486709,7.597844486709,False
355,355,trot_FL_RR,0.775000000000,0.775000000000,"FL,RR","FR,RL",0.278463888595,-0.011391399498,-0.017557704134,0.031482040406,0.031482040406,0.014788504312,6.259751895994,6.259751895994,False
356,356,trot_FL_RR,0.780000000000,0.780000000000,"FL,RR","FR,RL",0.278151954201,-0.011228292824,-0.016781908567,0.036607817486,0.036607817486,0.017438534459,6.997356173422,6.997356173422,False
357,357,trot_FL_RR,0.785000000000,0.785000000000,"FL,RR","FR,RL",0.277850775981,-0.012414924216,-0.016124828274,0.032960467614,0.032960467614,0.011965373912,6.153483822563,6.153483822563,False
358,358,trot_FL_RR,0.790000000000,0.790000000000,"FL,RR","FR,RL",0.277550218239,-0.010791267060,-0.015048389645,0.034765355121,0.034765355121,0.016271600238,5.608965243385,5.608965243385,False
359,359,trot_FL_RR,0.795000000000,0.795000000000,"FL,RR","FR,RL",0.277186235509,-0.014321902931,-0.014506923412,0.028351248601,0.028351248601,0.012418499570,6.501261535395,6.501261535395,False
360,360,trot_FL_RR,0.800000000000,0.800000000000,"FL,RR","FR,RL",0.276878631803,-0.012785416889,-0.013044734893,0.031874728817,0.031874728817,0.017575839601,6.564417292747,6.564417292747,False
361,361,trot_FL_RR,0.805000000000,0.805000000000,"FL,RR","FR,RL",0.276541154667,-0.013303649321,-0.012723352566,0.026632563176,0.026632563176,0.014813050741,6.755733454186,6.755733454186,False
362,362,trot_FL_RR,0.810000000000,0.810000000000,"FL,RR","FR,RL",0.276218075078,-0.010376681541,-0.011018863992,0.030802799714,0.030802799714,0.011670997928,5.496213784852,5.496213784852,False
363,363,trot_FL_RR,0.815000000000,0.815000000000,"FL,RR","FR,RL",0.275904619804,-0.011082413165,-0.010236720672,0.028904256642,0.028904256642,0.014712894754,7.109371441018,7.109371441018,False
364,364,trot_FL_RR,0.820000000000,0.820000000000,"FL,RR","FR,RL",0.275612519878,-0.006824899294,-0.009248172507,0.031213970917,0.031213970917,0.014095683646,6.213174711261,6.213174711261,False
365,365,trot_FL_RR,0.825000000000,0.825000000000,"FL,RR","FR,RL",0.275232163107,-0.007348142769,-0.008859232820,0.031175937948,0.031175937948,0.009801285985,7.054462274147,7.054462274147,False
366,366,trot_FL_RR,0.830000000000,0.830000000000,"FL,RR","FR,RL",0.274934395204,-0.003011236582,-0.007450332307,0.032752528258,0.032752528258,0.014535417198,7.005106351177,7.005106351177,False
367,367,trot_FL_RR,0.835000000000,0.835000000000,"FL,RR","FR,RL",0.274693223667,-0.004084950056,-0.006274565383,0.033499835146,0.033499835146,0.012755627817,7.354257424504,7.354257424504,False
368,368,trot_FL_RR,0.840000000000,0.840000000000,"FL,RR","FR,RL",0.274432356374,-0.000970509071,-0.004650683968,0.034873233020,0.034873233020,0.008526901083,7.246166092789,7.246166092789,False
369,369,trot_FL_RR,0.845000000000,0.845000000000,"FL,RR","FR,RL",0.274242275417,-0.002481784161,-0.003695713264,0.035726409070,0.035726409070,0.013187115548,7.376570482626,7.376570482626,False
370,370,trot_FL_RR,0.850000000000,0.850000000000,"FL,RR","FR,RL",0.274024609972,0.001830594808,-0.002777103356,0.032003887948,0.032003887948,0.012342867198,3.715578631325,3.715578631325,False
371,371,trot_FL_RR,0.855000000000,0.855000000000,"FL,RR","FR,RL",0.273809861930,0.000056701102,-0.001548311042,0.037619107473,0.037619107473,0.008304487084,9.056039954840,9.056039954840,False
372,372,trot_FL_RR,0.860000000000,0.860000000000,"FL,RR","FR,RL",0.273701263328,0.003260239007,0.000462496564,0.034268956065,0.034268956065,0.010591168599,4.809942401706,4.809942401706,False
373,373,trot_FL_RR,0.865000000000,0.865000000000,"FL,RR","FR,RL",0.273633278027,0.001495842130,0.001586342168,0.032787173800,0.032787173800,0.009762521956,6.551020832863,6.551020832863,False
374,374,trot_FL_RR,0.870000000000,0.870000000000,"FL,RR","FR,RL",0.273483612935,0.004500677017,0.002932819531,0.023743455372,0.023743455372,0.009666337764,8.416378610982,8.416378610982,False
375,375,trot_FL_RR,0.875000000000,0.875000000000,"FL,RR","FR,RL",0.273438028156,0.002333591529,0.004186565513,0.025235289399,0.025235289399,0.011995955924,6.538233435329,6.538233435329,False
376,376,trot_FL_RR,0.880000000000,0.880000000000,"FL,RR","FR,RL",0.273428502148,0.005757456118,0.005630297879,0.019429419915,0.019429419915,0.013605119626,5.541984516221,5.541984516221,False
377,377,trot_FL_RR,0.885000000000,0.885000000000,"FL,RR","FR,RL",0.273447439052,0.003442989305,0.007059690093,0.023423861486,0.023423861486,0.010912873235,5.330085699554,5.330085699554,False
378,378,trot_FL_RR,0.890000000000,0.890000000000,"FL,RR","FR,RL",0.273459003982,0.007136465590,0.008434800617,0.022104749639,0.022104749639,0.011366639203,6.547318594483,6.547318594483,False
379,379,trot_FL_RR,0.895000000000,0.895000000000,"FL,RR","FR,RL",0.273501667802,0.005059048509,0.010138237781,0.026347845059,0.026347845059,0.008893134865,6.885804351496,6.885804351496,False
380,380,trot_FL_RR,0.900000000000,0.900000000000,"FL,RR","FR,RL",0.273637145487,0.005558251058,0.011347628722,0.026139833999,0.026139833999,0.012066961285,7.316833161836,7.316833161836,False
381,381,trot_FL_RR,0.905000000000,0.905000000000,"FL,RR","FR,RL",0.273806254291,0.004926293780,0.011912909672,0.024047835171,0.024047835171,0.013820361537,3.328502386353,3.328502386353,False
382,382,trot_FL_RR,0.910000000000,0.910000000000,"FL,RR","FR,RL",0.274010610844,0.007036965488,0.012010694048,0.026790671329,0.026790671329,0.015897031618,7.642541952967,7.642541952967,False
383,383,trot_FL_RR,0.915000000000,0.915000000000,"FL,RR","FR,RL",0.274307131283,0.009183344121,0.011698462206,0.026009604995,0.026009604995,0.015554322404,5.941409451772,5.941409451772,False
384,384,trot_FL_RR,0.920000000000,0.920000000000,"FL,RR","FR,RL",0.274576176716,0.009563113164,0.011458066061,0.020227879724,0.020227879724,0.014398522586,5.928637720479,5.928637720479,False
385,385,trot_FL_RR,0.925000000000,0.925000000000,"FL,RR","FR,RL",0.274947341889,0.012627282440,0.010965430511,0.024347574264,0.024347574264,0.013870076899,5.594611644740,5.594611644740,False
386,386,trot_FL_RR,0.930000000000,0.930000000000,"FL,RR","FR,RL",0.275280249360,0.014434887204,0.009298333263,0.022992728774,0.022992728774,0.012927432488,4.259906343338,4.259906343338,False
387,387,trot_FL_RR,0.935000000000,0.935000000000,"FL,RR","FR,RL",0.275631446907,0.019876187310,0.008849665920,0.019048654192,0.019048654192,0.012393126241,7.342893189525,7.342893189525,False
388,388,trot_FL_RR,0.940000000000,0.940000000000,"FL,RR","FR,RL",0.276039956432,0.019994607914,0.007913171710,0.022485368973,0.022485368973,0.012625259152,6.459808820130,6.459808820130,False
389,389,trot_FL_RR,0.945000000000,0.945000000000,"FL,RR","FR,RL",0.276462874254,0.023380980198,0.006483294108,0.022928908740,0.022928908740,0.011325068179,6.337771315432,6.337771315432,False
390,390,trot_FL_RR,0.950000000000,0.950000000000,"FL,RR","FR,RL",0.276900873217,0.021003958406,0.005529973686,0.021128639331,0.021128639331,0.011584601248,6.965618986125,6.965618986125,False
391,391,trot_FL_RR,0.955000000000,0.955000000000,"FL,RR","FR,RL",0.277346608398,0.023602820562,0.004423721361,0.024123567043,0.024123567043,0.009361343126,6.667591339295,6.667591339295,False
392,392,trot_FL_RR,0.960000000000,0.960000000000,"FL,RR","FR,RL",0.277786740858,0.021837701069,0.003528570079,0.022207885505,0.022207885505,0.008491308369,4.601655306307,4.601655306307,False
393,393,trot_FL_RR,0.965000000000,0.965000000000,"FL,RR","FR,RL",0.278203541169,0.024376428898,0.002351770651,0.015567362137,0.015567362137,0.010992067505,8.117641366932,8.117641366932,False
394,394,trot_FL_RR,0.970000000000,0.970000000000,"FL,RR","FR,RL",0.278697386621,0.023467440816,0.001600230160,0.021977710064,0.021977710064,0.013015637386,6.769330556564,6.769330556564,False
395,395,trot_FL_RR,0.975000000000,0.975000000000,"FL,RR","FR,RL",0.279122390225,0.024688093389,-0.000074634914,0.021171257668,0.021171257668,0.011999135100,6.602835627275,6.602835627275,False
396,396,trot_FL_RR,0.980000000000,0.980000000000,"FL,RR","FR,RL",0.279582523444,0.023249530279,-0.000952283322,0.016989374980,0.016989374980,0.013601564262,5.929959843350,5.929959843350,False
397,397,trot_FL_RR,0.985000000000,0.985000000000,"FL,RR","FR,RL",0.280035330903,0.023027050493,-0.002390066567,0.021057112008,0.021057112008,0.012371587908,7.270701336922,7.270701336922,False
398,398,trot_FL_RR,0.990000000000,0.990000000000,"FL,RR","FR,RL",0.280489220814,0.020717365893,-0.004015907211,0.020169175598,0.020169175598,0.013253343040,5.330385025505,5.330385025505,False
399,399,trot_FL_RR,0.995000000000,0.995000000000,"FL,RR","FR,RL",0.280903863865,0.020452581924,-0.005137550866,0.014295213225,0.013026856962,0.014295213225,7.538132945436,7.538132945436,False
400,400,trot_FR_RL,0.000000000000,0.000000000000,"FR,RL","FL,RR",0.281361253995,0.017760267011,-0.006342925616,0.019072896281,0.010698373665,0.019072896281,6.160423050495,6.160423050495,False
401,401,trot_FR_RL,0.005000000000,0.005000000000,"FR,RL","FL,RR",0.281706441839,0.017561547540,-0.007558317280,0.016119809603,0.016119809603,0.016035250412,7.165050473650,7.165050473650,False
402,402,trot_FR_RL,0.010000000000,0.010000000000,"FR,RL","FL,RR",0.282102162872,0.014451301188,-0.008809262060,0.022069819842,0.011175309541,0.022069819842,6.823068557591,6.823068557591,False
403,403,trot_FR_RL,0.015000000000,0.015000000000,"FR,RL","FL,RR",0.282429013031,0.013510224364,-0.010151820321,0.018771878553,0.015258730866,0.018771878553,6.857036499017,6.857036499017,False
404,404,trot_FR_RL,0.020000000000,0.020000000000,"FR,RL","FL,RR",0.282780310399,0.010233524129,-0.011241166390,0.024395317711,0.012192481229,0.024395317711,7.244096983498,7.244096983498,False
405,405,trot_FR_RL,0.025000000000,0.025000000000,"FR,RL","FL,RR",0.283059527598,0.009125973221,-0.012439840150,0.020607497586,0.014569490409,0.020607497586,6.509715190390,6.509715190390,False
406,406,trot_FR_RL,0.030000000000,0.030000000000,"FR,RL","FL,RR",0.283384699792,0.005280128959,-0.013672568849,0.025712021834,0.015810897931,0.025712021834,7.394846890487,7.394846890487,False
407,407,trot_FR_RL,0.035000000000,0.035000000000,"FR,RL","FL,RR",0.283607603157,0.004004682939,-0.014796959534,0.021546198772,0.015974523734,0.021546198772,5.994250750233,5.994250750233,False
408,408,trot_FR_RL,0.040000000000,0.040000000000,"FR,RL","FL,RR",0.283877449309,-0.000003464766,-0.015949319745,0.022677491146,0.018273574112,0.022677491146,5.908147771994,5.908147771994,False
409,409,trot_FR_RL,0.045000000000,0.045000000000,"FR,RL","FL,RR",0.284018451582,-0.001335498884,-0.017446935015,0.019311296447,0.019311296447,0.015618052366,5.684313019179,5.684313019179,False
410,410,trot_FR_RL,0.050000000000,0.050000000000,"FR,RL","FL,RR",0.284226333053,-0.005636343973,-0.018450824093,0.018320809446,0.015748278685,0.018320809446,6.557948411778,6.557948411778,False
411,411,trot_FR_RL,0.055000000000,0.055000000000,"FR,RL","FL,RR",0.284305547293,-0.007254720208,-0.019803272496,0.017239392960,0.017239392960,0.012856388007,5.509765397302,5.509765397302,False
412,412,trot_FR_RL,0.060000000000,0.060000000000,"FR,RL","FL,RR",0.284454525771,-0.011792020782,-0.020643220742,0.016920834911,0.014131352799,0.016920834911,6.356710889136,6.356710889136,False
413,413,trot_FR_RL,0.065000000000,0.065000000000,"FR,RL","FL,RR",0.284474668377,-0.013642134649,-0.021837048757,0.016224881908,0.016224881908,0.012969132442,5.335317459293,5.335317459293,False
414,414,trot_FR_RL,0.070000000000,0.070000000000,"FR,RL","FL,RR",0.284567551887,-0.018371566978,-0.022495178175,0.018342741174,0.013655689241,0.018342741174,7.209813663758,7.209813663758,False
415,415,trot_FR_RL,0.075000000000,0.075000000000,"FR,RL","FL,RR",0.284574800649,-0.019510178292,-0.023168253842,0.016287860258,0.016287860258,0.015805954013,5.144408165991,5.144408165991,False
416,416,trot_FR_RL,0.080000000000,0.080000000000,"FR,RL","FL,RR",0.284581064783,-0.024245359320,-0.024068241169,0.014332067907,0.014332067907,0.012201572176,6.447153770184,6.447153770184,False
417,417,trot_FR_RL,0.085000000000,0.085000000000,"FR,RL","FL,RR",0.284521070451,-0.025133975827,-0.024619368903,0.016871874930,0.016871874930,0.011389633665,4.811298557332,4.811298557332,False
418,418,trot_FR_RL,0.090000000000,0.090000000000,"FR,RL","FL,RR",0.284462089755,-0.029565382237,-0.025379404838,0.015051757358,0.015051757358,0.012630582573,5.700904301487,5.700904301487,False
419,419,trot_FR_RL,0.095000000000,0.095000000000,"FR,RL","FL,RR",0.284343165909,-0.030106327082,-0.025737809408,0.017705842676,0.017705842676,0.013227904969,6.099029644692,6.099029644692,False
420,420,trot_FR_RL,0.100000000000,0.100000000000,"FR,RL","FL,RR",0.284313754389,-0.033498510002,-0.025422770339,0.015997515442,0.015997515442,0.013421513994,5.839537288835,5.839537288835,False
421,421,trot_FR_RL,0.105000000000,0.105000000000,"FR,RL","FL,RR",0.284154433010,-0.034210968910,-0.025511204336,0.019381417252,0.019381417252,0.012026513991,5.786912253655,5.786912253655,False
422,422,trot_FR_RL,0.110000000000,0.110000000000,"FR,RL","FL,RR",0.284092683437,-0.037697122837,-0.024849990599,0.017790571650,0.017790571650,0.014808746235,5.897963624304,5.897963624304,False
423,423,trot_FR_RL,0.115000000000,0.115000000000,"FR,RL","FL,RR",0.283949168209,-0.037566604048,-0.024437171211,0.021329790299,0.021329790299,0.013277578738,5.349848927331,5.349848927331,False
424,424,trot_FR_RL,0.120000000000,0.120000000000,"FR,RL","FL,RR",0.283786224228,-0.042478081997,-0.023878656785,0.019915056723,0.019915056723,0.016532055353,6.062606537056,6.062606537056,False
425,425,trot_FR_RL,0.125000000000,0.125000000000,"FR,RL","FL,RR",0.283607875629,-0.041397907538,-0.023051809251,0.023348731596,0.023348731596,0.013837952286,6.215985181196,6.215985181196,False
426,426,trot_FR_RL,0.130000000000,0.130000000000,"FR,RL","FL,RR",0.283465975239,-0.045199506547,-0.021959410916,0.022025485430,0.022025485430,0.017850278598,6.251450859056,6.251450859056,False
427,427,trot_FR_RL,0.135000000000,0.135000000000,"FR,RL","FL,RR",0.283277800897,-0.043369411625,-0.021293616228,0.025608411394,0.025608411394,0.015840236834,5.932653796763,5.932653796763,False
428,428,trot_FR_RL,0.140000000000,0.140000000000,"FR,RL","FL,RR",0.283058068627,-0.047003767121,-0.020641911746,0.023901218441,0.023901218441,0.020002262674,6.129664096922,6.129664096922,False
429,429,trot_FR_RL,0.145000000000,0.145000000000,"FR,RL","FL,RR",0.282827182575,-0.044660535107,-0.019676997354,0.026981432239,0.026981432239,0.017801749699,7.037082537690,7.037082537690,False
430,430,trot_FR_RL,0.150000000000,0.150000000000,"FR,RL","FL,RR",0.282663080241,-0.047032338182,-0.017764762293,0.025370389396,0.025370389396,0.022270187321,6.193887972516,6.193887972516,False
431,431,trot_FR_RL,0.155000000000,0.155000000000,"FR,RL","FL,RR",0.282439451787,-0.046479002998,-0.016676525156,0.029193151215,0.029193151215,0.021019299547,6.410255901694,6.410255901694,False
432,432,trot_FR_RL,0.160000000000,0.160000000000,"FR,RL","FL,RR",0.282258157613,-0.047812076113,-0.014478524722,0.027710888167,0.027710888167,0.017443998928,6.920156873918,6.920156873918,False
433,433,trot_FR_RL,0.165000000000,0.165000000000,"FR,RL","FL,RR",0.282065391258,-0.045429016842,-0.012941308479,0.031415526308,0.031415526308,0.017268929144,6.516233196625,6.516233196625,False
434,434,trot_FR_RL,0.170000000000,0.170000000000,"FR,RL","FL,RR",0.281867888343,-0.046006964041,-0.010894465856,0.029882729943,0.029882729943,0.017330935244,6.648132828670,6.648132828670,False
435,435,trot_FR_RL,0.175000000000,0.175000000000,"FR,RL","FL,RR",0.281611661222,-0.043721226277,-0.009647617899,0.033178559468,0.033178559468,0.015405043929,6.634838436721,6.634838436721,False
436,436,trot_FR_RL,0.180000000000,0.180000000000,"FR,RL","FL,RR",0.281382064323,-0.044189669856,-0.007226523796,0.031261752639,0.031261752639,0.017438771724,7.267602967391,7.267602967391,False
437,437,trot_FR_RL,0.185000000000,0.185000000000,"FR,RL","FL,RR",0.281160082906,-0.043016640676,-0.004930857508,0.034714918799,0.034714918799,0.015808022550,6.883505193296,6.883505193296,False
438,438,trot_FR_RL,0.190000000000,0.190000000000,"FR,RL","FL,RR",0.280848012258,-0.044938935780,-0.002836835037,0.033458680776,0.033458680776,0.017788447642,6.390642223671,6.390642223671,False
439,439,trot_FR_RL,0.195000000000,0.195000000000,"FR,RL","FL,RR",0.280570599279,-0.042924584279,-0.000373629166,0.030246422245,0.030246422245,0.016627887512,6.224832799982,6.224832799982,False
440,440,trot_FR_RL,0.200000000000,0.200000000000,"FR,RL","FL,RR",0.280302402875,-0.041630635251,0.001983385317,0.031864462537,0.031864462537,0.018107457163,6.524732811560,6.524732811560,False
441,441,trot_FR_RL,0.205000000000,0.205000000000,"FR,RL","FL,RR",0.279982603788,-0.039959031755,0.004085760059,0.030976278332,0.030976278332,0.013546696084,5.974627427442,5.974627427442,False
442,442,trot_FR_RL,0.210000000000,0.210000000000,"FR,RL","FL,RR",0.279665589418,-0.040693888076,0.006847286485,0.032450359590,0.032450359590,0.018515042904,7.421341621885,7.421341621885,False
443,443,trot_FR_RL,0.215000000000,0.215000000000,"FR,RL","FL,RR",0.279359780942,-0.037845985547,0.009405509600,0.033350721535,0.033350721535,0.018014796912,6.561181833388,6.561181833388,False
444,444,trot_FR_RL,0.220000000000,0.220000000000,"FR,RL","FL,RR",0.278980595851,-0.037941418579,0.011868806576,0.033425317354,0.033425317354,0.019362888473,6.730970718611,6.730970718611,False
445,445,trot_FR_RL,0.225000000000,0.225000000000,"FR,RL","FL,RR",0.278632215417,-0.034270921144,0.014588064275,0.035676560415,0.035676560415,0.019530713850,6.675053287553,6.675053287553,False
446,446,trot_FR_RL,0.230000000000,0.230000000000,"FR,RL","FL,RR",0.278293179876,-0.031369072295,0.017065462184,0.034510490974,0.034510490974,0.020871152523,7.300724478824,7.300724478824,False
447,447,trot_FR_RL,0.235000000000,0.235000000000,"FR,RL","FL,RR",0.277919478918,-0.028415822554,0.019130975518,0.037766267912,0.037766267912,0.017582539683,6.682438026214,6.682438026214,False
448,448,trot_FR_RL,0.240000000000,0.240000000000,"FR,RL","FL,RR",0.277607811107,-0.027366376551,0.021206081044,0.035268849418,0.035268849418,0.018696494658,5.914097139624,5.914097139624,False
449,449,trot_FR_RL,0.245000000000,0.245000000000,"FR,RL","FL,RR",0.277236597573,-0.023213460035,0.023263310430,0.040166472825,0.040166472825,0.014799207797,7.147931171809,7.147931171809,False
450,450,trot_FR_RL,0.250000000000,0.250000000000,"FR,RL","FL,RR",0.276928160008,-0.023599029639,0.025003478700,0.037581752271,0.037581752271,0.016950610706,5.485795080545,5.485795080545,False
451,451,trot_FR_RL,0.255000000000,0.255000000000,"FR,RL","FL,RR",0.276626555791,-0.019298866422,0.025997214018,0.042605972893,0.042605972893,0.014173907725,7.501341378997,7.501341378997,False
452,452,trot_FR_RL,0.260000000000,0.260000000000,"FR,RL","FL,RR",0.276288353588,-0.018918324974,0.027052190583,0.039937808204,0.039937808204,0.013717075084,4.263632177040,4.263632177040,False
453,453,trot_FR_RL,0.265000000000,0.265000000000,"FR,RL","FL,RR",0.276020303113,-0.014285471419,0.027993100093,0.044521499712,0.044521499712,0.016065594754,7.246911551222,7.246911551222,False
454,454,trot_FR_RL,0.270000000000,0.270000000000,"FR,RL","FL,RR",0.275763348307,-0.012070315156,0.028509485420,0.041649107476,0.041649107476,0.017513182945,4.237696231929,4.237696231929,False
455,455,trot_FR_RL,0.275000000000,0.275000000000,"FR,RL","FL,RR",0.275562386937,-0.005186667944,0.028372655833,0.045825701631,0.045825701631,0.016365952607,6.977824508871,6.977824508871,False
456,456,trot_FR_RL,0.280000000000,0.280000000000,"FR,RL","FL,RR",0.275362203318,-0.003710945340,0.028091882878,0.042505507550,0.042505507550,0.014934582801,5.926956900569,5.926956900569,False
457,457,trot_FR_RL,0.285000000000,0.285000000000,"FR,RL","FL,RR",0.275147536712,0.002974689200,0.027802155820,0.046412319815,0.046412319815,0.012585433843,6.789225030565,6.789225030565,False
458,458,trot_FR_RL,0.290000000000,0.290000000000,"FR,RL","FL,RR",0.274997879909,0.004388429914,0.027031425098,0.042789509821,0.042789509821,0.017491351763,7.114848799998,7.114848799998,False
459,459,trot_FR_RL,0.295000000000,0.295000000000,"FR,RL","FL,RR",0.274927402376,0.009703707666,0.026155941028,0.046114495289,0.046114495289,0.019805008728,6.218425500764,6.218425500764,False
460,460,trot_FR_RL,0.300000000000,0.300000000000,"FR,RL","FL,RR",0.274902765405,0.009667486587,0.024963082896,0.042209087309,0.042209087309,0.020883317018,7.477243032303,7.477243032303,False
461,461,trot_FR_RL,0.305000000000,0.305000000000,"FR,RL","FL,RR",0.274987401284,0.014239934880,0.023819971935,0.044982326578,0.044982326578,0.019281264904,5.611668989473,5.611668989473,False
462,462,trot_FR_RL,0.310000000000,0.310000000000,"FR,RL","FL,RR",0.275063565109,0.012970320804,0.022111590161,0.040552485123,0.040552485123,0.017232627175,8.184636688648,8.184636688648,False
463,463,trot_FR_RL,0.315000000000,0.315000000000,"FR,RL","FL,RR",0.275141561123,0.017151951876,0.020691934477,0.042700039832,0.042700039832,0.013009761699,4.917939846203,4.917939846203,False
464,464,trot_FR_RL,0.320000000000,0.320000000000,"FR,RL","FL,RR",0.275195944584,0.015615335792,0.018880832869,0.036336921385,0.036336921385,0.017215380009,5.577842173449,5.577842173449,False
465,465,trot_FR_RL,0.325000000000,0.325000000000,"FR,RL","FL,RR",0.275300320222,0.019265475617,0.016553185664,0.039295579668,0.039295579668,0.018962286385,5.624472133724,5.624472133724,False
466,466,trot_FR_RL,0.330000000000,0.330000000000,"FR,RL","FL,RR",0.275429090500,0.017676872357,0.014286563240,0.033557585776,0.033557585776,0.019770845184,5.466606053417,5.466606053417,False
467,467,trot_FR_RL,0.335000000000,0.335000000000,"FR,RL","FL,RR",0.275598234058,0.021244288548,0.011531717062,0.037066103024,0.037066103024,0.017232313759,6.057861350653,6.057861350653,False
468,468,trot_FR_RL,0.340000000000,0.340000000000,"FR,RL","FL,RR",0.275721490778,0.020038539926,0.009319370516,0.031741966026,0.031741966026,0.014175754152,5.834284010762,5.834284010762,False
469,469,trot_FR_RL,0.345000000000,0.345000000000,"FR,RL","FL,RR",0.275900060069,0.023445381701,0.006369017218,0.035405615923,0.035405615923,0.014945533027,5.884884690383,5.884884690383,False
470,470,trot_FR_RL,0.350000000000,0.350000000000,"FR,RL","FL,RR",0.276128316767,0.021425975085,0.003629694810,0.030230643867,0.030230643867,0.012606531268,6.094604979088,6.094604979088,False
471,471,trot_FR_RL,0.355000000000,0.355000000000,"FR,RL","FL,RR",0.276283400156,0.024469426971,0.000790404084,0.034133895759,0.034133895759,0.010047156384,6.061365391222,6.061365391222,False
472,472,trot_FR_RL,0.360000000000,0.360000000000,"FR,RL","FL,RR",0.276493075283,0.022095581655,-0.001852607371,0.029015515807,0.029015515807,0.011585589932,6.204181295489,6.204181295489,False
473,473,trot_FR_RL,0.365000000000,0.365000000000,"FR,RL","FL,RR",0.276747553164,0.024427349332,-0.005184712493,0.032898548177,0.032898548177,0.012524560888,5.981437982450,5.981437982450,False
474,474,trot_FR_RL,0.370000000000,0.370000000000,"FR,RL","FL,RR",0.276977133927,0.022787652399,-0.007568264531,0.027904022461,0.027904022461,0.011646759346,6.619616357862,6.619616357862,False
475,475,trot_FR_RL,0.375000000000,0.375000000000,"FR,RL","FL,RR",0.277253525966,0.024229016992,-0.010673307351,0.031642194399,0.031642194399,0.013340807664,5.775661697791,5.775661697791,False
476,476,trot_FR_RL,0.380000000000,0.380000000000,"FR,RL","FL,RR",0.277519911825,0.022673988736,-0.013982456669,0.025882855069,0.025882855069,0.013901123537,6.584249912250,6.584249912250,False
477,477,trot_FR_RL,0.385000000000,0.385000000000,"FR,RL","FL,RR",0.277777531093,0.023875577241,-0.016635441976,0.028812423893,0.028812423893,0.013652902749,4.780698881839,4.780698881839,False
478,478,trot_FR_RL,0.390000000000,0.390000000000,"FR,RL","FL,RR",0.278024697695,0.022121924945,-0.019675571994,0.023930147000,0.023930147000,0.014835781749,6.475641962544,6.475641962544,False
479,479,trot_FR_RL,0.395000000000,0.395000000000,"FR,RL","FL,RR",0.278235558900,0.025567129390,-0.023064888499,0.024850253191,0.024850253191,0.015150962434,3.192870820700,3.192870820700,False
480,480,trot_FR_RL,0.400000000000,0.400000000000,"FR,RL","FL,RR",0.278432635861,0.023306558166,-0.026232491066,0.025542729678,0.025542729678,0.014895327913,7.096549678303,7.096549678303,False
481,481,trot_FR_RL,0.405000000000,0.405000000000,"FR,RL","FL,RR",0.278618612588,0.026057031977,-0.029117677885,0.021557346109,0.021557346109,0.012406357585,5.916172750326,5.916172750326,False
482,482,trot_FR_RL,0.410000000000,0.410000000000,"FR,RL","FL,RR",0.278824714076,0.023560485425,-0.031748086721,0.026645503975,0.026645503975,0.013527759753,6.867605860921,6.867605860921,False
483,483,trot_FR_RL,0.415000000000,0.415000000000,"FR,RL","FL,RR",0.278952160256,0.026003556831,-0.034612837548,0.022448238489,0.022448238489,0.014339478192,5.333419580451,5.333419580451,False
484,484,trot_FR_RL,0.420000000000,0.420000000000,"FR,RL","FL,RR",0.279114726371,0.023356311492,-0.037139430906,0.027441694437,0.027441694437,0.013441031231,6.877825861098,6.877825861098,False
485,485,trot_FR_RL,0.425000000000,0.425000000000,"FR,RL","FL,RR",0.279230214055,0.026196176532,-0.040075321791,0.023169036499,0.023169036499,0.014620474981,4.406169036735,4.406169036735,False
486,486,trot_FR_RL,0.430000000000,0.430000000000,"FR,RL","FL,RR",0.279398117273,0.023979129140,-0.042202579897,0.028269750173,0.028269750173,0.013476435841,7.092822336191,7.092822336191,False
487,487,trot_FR_RL,0.435000000000,0.435000000000,"FR,RL","FL,RR",0.279471240527,0.026416313196,-0.044911372224,0.023925192176,0.023925192176,0.015205426120,5.640415967560,5.640415967560,False
488,488,trot_FR_RL,0.440000000000,0.440000000000,"FR,RL","FL,RR",0.279610144406,0.023952950336,-0.046601667380,0.028860088806,0.028860088806,0.015906027956,7.015957019605,7.015957019605,False
489,489,trot_FR_RL,0.445000000000,0.445000000000,"FR,RL","FL,RR",0.279701744998,0.026993147006,-0.048725160378,0.024326537322,0.024326537322,0.014194058662,3.688203617043,3.688203617043,False
490,490,trot_FR_RL,0.450000000000,0.450000000000,"FR,RL","FL,RR",0.279766829506,0.024394508257,-0.050760356894,0.029202132708,0.029202132708,0.018535321472,7.025936791259,7.025936791259,False
491,491,trot_FR_RL,0.455000000000,0.455000000000,"FR,RL","FL,RR",0.279820299929,0.027648435567,-0.052475551319,0.024743888876,0.024743888876,0.016391295237,6.193492758281,6.193492758281,False
492,492,trot_FR_RL,0.460000000000,0.460000000000,"FR,RL","FL,RR",0.279941011198,0.026001662023,-0.053166972475,0.029480740356,0.029480740356,0.020824306962,6.951555311617,6.951555311617,False
493,493,trot_FR_RL,0.465000000000,0.465000000000,"FR,RL","FL,RR",0.279998433117,0.027359440142,-0.054627652530,0.024763464692,0.024763464692,0.019430623916,3.550967973369,3.550967973369,False
494,494,trot_FR_RL,0.470000000000,0.470000000000,"FR,RL","FL,RR",0.280088302061,0.025888638585,-0.054826109116,0.029301840954,0.029301840954,0.016604605062,6.780962336246,6.780962336246,False
495,495,trot_FR_RL,0.475000000000,0.475000000000,"FR,RL","FL,RR",0.280198099372,0.027464698567,-0.055153130441,0.024492966447,0.024492966447,0.016547308492,3.731184619310,3.731184619310,False
496,496,trot_FR_RL,0.480000000000,0.480000000000,"FR,RL","FL,RR",0.280238233225,0.025508191200,-0.055242483373,0.028827392316,0.028827392316,0.014235086502,6.581334545838,6.581334545838,False
497,497,trot_FR_RL,0.485000000000,0.485000000000,"FR,RL","FL,RR",0.280295850140,0.027563282250,-0.055307047284,0.023994949461,0.023994949461,0.013988240116,6.689073929137,6.689073929137,False
498,498,trot_FR_RL,0.490000000000,0.490000000000,"FR,RL","FL,RR",0.280359141679,0.026636485226,-0.054633659437,0.028348891224,0.028348891224,0.014535672065,6.604896620023,6.604896620023,False
499,499,trot_FR_RL,0.495000000000,0.495000000000,"FR,RL","FL,RR",0.280371151590,0.028619620874,-0.054741130001,0.023512118408,0.023512118408,0.012892330590,3.762609348203,3.762609348203,False
500,500,trot_FR_RL,0.500000000000,0.500000000000,"FR,RL","FL,RR",0.280406698801,0.027761168557,-0.053686049116,0.027938547219,0.027938547219,0.015026511013,6.686893427057,6.686893427057,False
501,501,trot_FR_RL,0.505000000000,0.505000000000,"FR,RL","FL,RR",0.280421437679,0.030424852962,-0.053334315350,0.023036880750,0.023036880750,0.011832353216,3.750779589928,3.750779589928,False
502,502,trot_FR_RL,0.510000000000,0.510000000000,"FR,RL","FL,RR",0.280370016626,0.029557486578,-0.052666944947,0.027484023470,0.027484023470,0.015539358628,6.713557058851,6.713557058851,False
503,503,trot_FR_RL,0.515000000000,0.515000000000,"FR,RL","FL,RR",0.280331685287,0.032562363316,-0.052021319263,0.022701457643,0.022701457643,0.011472096398,6.353895195359,6.353895195359,False
504,504,trot_FR_RL,0.520000000000,0.520000000000,"FR,RL","FL,RR",0.280290784997,0.032347176871,-0.050894662404,0.027074259119,0.027074259119,0.015905687743,6.648684154464,6.648684154464,False
505,505,trot_FR_RL,0.525000000000,0.525000000000,"FR,RL","FL,RR",0.280200246983,0.035045454829,-0.050521467013,0.022294098841,0.022294098841,0.011259534002,3.756223768010,3.756223768010,False
506,506,trot_FR_RL,0.530000000000,0.530000000000,"FR,RL","FL,RR",0.280128576657,0.034906483836,-0.049027446535,0.026743456634,0.026743456634,0.016256683639,6.740927274302,6.740927274302,False
507,507,trot_FR_RL,0.535000000000,0.535000000000,"FR,RL","FL,RR",0.279997549379,0.037472435602,-0.048329710768,0.021852105300,0.021852105300,0.011604472422,3.734362906777,3.734362906777,False
508,508,trot_FR_RL,0.540000000000,0.540000000000,"FR,RL","FL,RR",0.279884657992,0.037209518358,-0.046555822132,0.026181650983,0.026181650983,0.016576104517,7.066059971316,7.066059971316,False
509,509,trot_FR_RL,0.545000000000,0.545000000000,"FR,RL","FL,RR",0.279754590746,0.038374988462,-0.045199260196,0.021198529904,0.021198529904,0.012979194089,3.524393535989,3.524393535989,False
510,510,trot_FR_RL,0.550000000000,0.550000000000,"FR,RL","FL,RR",0.279592936056,0.037987984130,-0.043355481300,0.025212133728,0.025212133728,0.017120565999,6.632700277384,6.632700277384,False
511,511,trot_FR_RL,0.555000000000,0.555000000000,"FR,RL","FL,RR",0.279422648077,0.039106449911,-0.041745604965,0.020259588653,0.020259588653,0.012956282420,5.892201317233,5.892201317233,False
512,512,trot_FR_RL,0.560000000000,0.560000000000,"FR,RL","FL,RR",0.279242922425,0.037394785386,-0.039715503851,0.024242018984,0.024242018984,0.017962491458,6.726747871723,6.726747871723,False
513,513,trot_FR_RL,0.565000000000,0.565000000000,"FR,RL","FL,RR",0.278968359979,0.040370320770,-0.038281640610,0.019161025731,0.019161025731,0.013744632736,3.664883669440,3.664883669440,False
514,514,trot_FR_RL,0.570000000000,0.570000000000,"FR,RL","FL,RR",0.278743982690,0.038468347507,-0.036039579355,0.024452633690,0.024452633690,0.018600254958,7.143433037326,7.143433037326,False
515,515,trot_FR_RL,0.575000000000,0.575000000000,"FR,RL","FL,RR",0.278467690413,0.042004627305,-0.034261095621,0.020681355343,0.020681355343,0.014817878120,3.388679768735,3.388679768735,False
516,516,trot_FR_RL,0.580000000000,0.580000000000,"FR,RL","FL,RR",0.278174688786,0.040084993507,-0.032188858846,0.026126189913,0.026126189913,0.020082029613,7.174827943119,7.174827943119,False
517,517,trot_FR_RL,0.585000000000,0.585000000000,"FR,RL","FL,RR",0.277835942226,0.043594786546,-0.030561921646,0.022382943189,0.022382943189,0.016630196040,4.877238867577,4.877238867577,False
