zanshi-dev/robot-mpc-wbc-locomotion/results/logs_sample/stage07_online_full_wbc_plus_swing_joint_tracking_proto_log.csv
step,mode,cycle_i,phase,phase_step,mode_step,phase_in_mode,swing_progress,is_transition,base_z,roll,pitch,osqp_status,dyn_res_norm,stance_acc_res_norm,swing_acc_error_norm,max_joint_error,max_swing_joint_error,max_stance_joint_error,tau_wbc_max_abs,tau_swing_pd_max_abs,tau_total_raw_max_abs,tau_total_max_abs,tau_step_jump_norm,tau_step_jump_abs,saturated
0,trot_FR_RL,0,0.000000000000,0,0,0.000000000000,0.000000000000,False,0.284895840137,-0.000046958904,0.000452547462,solved,5.968873418427e-08,2.442850828302e-09,8.153277073836e-02,0.000000000000,0.000000000000,0.000000000000,1.553461975343,0.000000000000,1.553461975343,1.553461975343,2.366384873705,1.553461975343,False
1,trot_FR_RL,0,0.002500000000,1,1,0.005000000000,0.005000000000,False,0.284955012147,-0.000859671642,0.000137555592,solved,6.183304893944e-08,2.568676234223e-09,8.162211567813e-02,0.008301451561,0.008301451561,0.007335667590,2.881192937954,4.259694215161,4.329843238370,4.329843238370,8.725068024340,4.294566628896,False
2,trot_FR_RL,0,0.005000000000,2,2,0.010000000000,0.010000000000,False,0.284957304963,0.000310053461,0.000081853604,solved,5.868925066550e-08,2.390391717632e-09,8.133082862094e-02,0.017880373483,0.006865066779,0.017880373483,3.992386596664,6.023920385338,2.114557328321,2.114557328321,9.461079907871,5.183034289002,False
3,trot_FR_RL,0,0.007500000000,3,3,0.015000000000,0.015000000000,False,0.284946281510,-0.002681858644,0.000177395112,solved,6.525730097644e-08,2.601966626765e-09,8.336658481391e-02,0.020858069530,0.013778174094,0.020858069530,4.939840091718,3.749995247232,3.731124225026,3.731124225026,11.670594159262,5.845681553346,False
4,trot_FR_RL,0,0.010000000000,4,4,0.020000000000,0.020000000000,False,0.284991196702,-0.001222142383,0.000073143125,solved,6.305777791853e-08,2.523240187141e-09,9.025164110017e-02,0.029243805732,0.011683580616,0.029243805732,5.732398724235,5.362620330227,3.352653043038,3.352653043038,10.863653303202,4.831586897734,False
5,trot_FR_RL,0,0.012500000000,5,5,0.025000000000,0.025000000000,False,0.285006682799,-0.003750717350,-0.000404587466,solved,6.445515094203e-08,2.551045436864e-09,9.375968476934e-02,0.039676511008,0.018251098953,0.039676511008,6.400880799718,6.803413078335,3.229670542412,3.229670542412,9.322814367456,4.573151564725,False
6,trot_FR_RL,0,0.015000000000,6,6,0.030000000000,0.030000000000,False,0.285108869926,-0.003260392397,-0.000406757540,solved,6.332624005704e-08,2.511955644128e-09,1.033294061325e-01,0.049315056075,0.015691779480,0.049315056075,6.957339199048,8.605443288916,2.869223980363,2.869223980363,9.504883774806,4.649478738962,False
7,trot_FR_RL,0,0.017500000000,7,7,0.035000000000,0.035000000000,False,0.285222772339,-0.001920999483,-0.001029260409,solved,6.550145614712e-08,2.588836831337e-09,9.984934192308e-02,0.061224354235,0.021327969500,0.061224354235,7.422085909841,8.403623249744,2.997472917240,2.997472917240,9.173981140301,4.454062959611,False
8,trot_FR_RL,0,0.020000000000,8,8,0.040000000000,0.040000000000,False,0.285428342398,-0.002622403699,-0.001698063317,solved,6.659992943859e-08,2.612240280063e-09,1.026764582471e-01,0.071406576636,0.017683183874,0.071406576636,7.810688015293,7.947374265587,2.514389057500,2.514389057500,8.266042593654,4.673910866310,False
9,trot_FR_RL,0,0.022500000000,9,9,0.045000000000,0.045000000000,False,0.285625703280,-0.001858962877,-0.002974922834,solved,6.678002457904e-08,2.629997474973e-09,1.079588090548e-01,0.079809665585,0.022799184905,0.079809665585,8.129482243554,7.606304063084,3.008837677393,3.008837677393,8.199011636208,4.685275626462,False
10,trot_FR_RL,0,0.025000000000,10,10,0.050000000000,0.050000000000,False,0.285991698597,-0.002790220328,-0.003341303076,solved,6.839194584376e-08,2.653870879269e-09,1.071323301059e-01,0.086288828671,0.018990753311,0.086288828671,8.396888224700,7.379690115935,2.027000543942,2.027000543942,8.065278783612,4.549930444664,False
11,trot_FR_RL,0,0.027500000000,11,11,0.055000000000,0.055000000000,False,0.286377025895,-0.001681735054,-0.004129394082,solved,6.845118455709e-08,2.674241392515e-09,1.142623148913e-01,0.092496694817,0.023983870124,0.092496694817,8.614849708713,7.503977206112,3.086466746286,3.086466746286,8.542519686072,4.656089519630,False
12,trot_FR_RL,0,0.030000000000,12,12,0.060000000000,0.060000000000,False,0.286909401354,-0.002063941070,-0.004133452708,solved,7.045557078774e-08,2.713583990265e-09,1.134658536830e-01,0.097282195878,0.020001585617,0.097282195878,8.798019139280,7.143983632136,2.594843877577,2.594843877577,8.533682947580,4.656594055848,False
13,trot_FR_RL,0,0.032500000000,13,13,0.065000000000,0.065000000000,False,0.287459474237,-0.001079499831,-0.004421136295,solved,7.019806465674e-08,2.717882744082e-09,1.160262569311e-01,0.102254395421,0.025235627823,0.102254395421,8.946276174445,6.930543975097,3.219017444361,3.219017444361,8.560663170195,4.789144753923,False
14,trot_FR_RL,0,0.035000000000,14,14,0.070000000000,0.070000000000,False,0.288156834897,-0.001509722103,-0.003953792479,solved,7.131340905502e-08,2.735390979847e-09,1.170796496038e-01,0.106885569038,0.021681947102,0.106885569038,9.067202234957,6.591009570031,3.123086957967,3.123086957967,7.759279035448,4.572353419789,False
15,trot_FR_RL,0,0.037500000000,15,15,0.075000000000,0.075000000000,False,0.288868620349,-0.000016142746,-0.004115404804,solved,7.096766719534e-08,2.739259915273e-09,1.201957499295e-01,0.110880343687,0.027426068412,0.110880343687,9.169244919732,6.432601071757,3.501771603663,3.501771603663,8.635603894760,4.855107579090,False
16,trot_FR_RL,0,0.040000000000,16,16,0.080000000000,0.080000000000,False,0.289732924001,-0.000043208650,-0.003505550720,solved,7.232413941158e-08,2.768159597064e-09,1.205185238093e-01,0.114250519382,0.025399594362,0.114250519382,9.249698746541,6.255108622794,3.418088565063,3.418088565063,8.590662914420,4.673360170621,False
17,trot_FR_RL,0,0.042500000000,17,17,0.085000000000,0.085000000000,False,0.290599672487,0.001727874984,-0.003694533877,solved,7.158595949820e-08,2.753210286228e-09,1.210766978439e-01,0.117382062792,0.030209046568,0.117382062792,9.317176614768,6.261054217066,3.777988808051,3.777988808051,8.747394349275,4.949577375009,False
18,trot_FR_RL,0,0.045000000000,18,18,0.090000000000,0.090000000000,False,0.291615074684,0.001958439554,-0.003113565399,solved,7.303799517874e-08,2.792549160285e-09,1.232450886686e-01,0.120277095708,0.028516506877,0.120277095708,9.369534737692,6.258600286313,3.404612685087,3.404612685087,8.625696271065,4.675973883640,False
19,trot_FR_RL,0,0.047500000000,19,19,0.095000000000,0.095000000000,False,0.292622020757,0.003901297042,-0.003459599557,solved,7.206840643713e-08,2.767120960659e-09,1.216984576787e-01,0.123226472638,0.033429168015,0.123226472638,9.422638288258,6.601931033482,4.028194584474,4.028194584474,8.859798757578,4.926179660062,False
20,trot_FR_RL,0,0.050000000000,20,20,0.100000000000,0.100000000000,False,0.293760141628,0.004650556628,-0.003119779771,solved,7.376549648110e-08,2.818443202693e-09,1.255090751400e-01,0.126247250409,0.031251659278,0.126247250409,9.459595474555,6.560278901486,3.070140984387,3.070140984387,8.669006263358,4.678679773158,False
21,trot_FR_RL,0,0.052500000000,21,21,0.105000000000,0.105000000000,False,0.294856545634,0.005490790797,-0.003549512370,solved,7.313931265991e-08,2.806797157538e-09,1.249230450255e-01,0.129485489204,0.036952168910,0.129485489204,9.497911777474,7.216604075259,4.287471874619,4.287471874619,8.647525460233,4.937957063303,False
22,trot_FR_RL,0,0.055000000000,22,22,0.110000000000,0.110000000000,False,0.296102149256,0.006616245655,-0.003697586635,solved,7.366835762641e-08,2.826637213729e-09,1.338950125455e-01,0.133054298025,0.034641863487,0.133054298025,9.524086360822,7.106576331522,2.554722712008,2.554722712008,7.579829357831,4.592520880919,False
23,trot_FR_RL,0,0.057500000000,23,23,0.115000000000,0.115000000000,False,0.297300791184,0.007657536992,-0.004578372278,solved,7.410042134089e-08,2.838627276011e-09,1.289348910468e-01,0.136754068230,0.040342906322,0.136754068230,9.542605800966,8.048964407579,4.075354921798,4.075354921798,6.830087296294,4.447605763175,False
24,trot_FR_RL,0,0.060000000000,24,24,0.120000000000,0.120000000000,False,0.298650715979,0.008516008532,-0.004810989613,solved,7.471661990829e-08,2.877749482840e-09,1.321271812158e-01,0.141041352958,0.037614807485,0.141041352958,9.558902653329,7.862994268548,2.117476580836,2.117476580836,7.396921876420,4.502413811119,False
25,trot_FR_RL,0,0.062500000000,25,25,0.125000000000,0.125000000000,False,0.299980778947,0.011022590961,-0.005984454554,solved,7.508045851652e-08,2.896727066148e-09,1.350454683781e-01,0.147703701482,0.043941690693,0.147703701482,9.570506622672,9.239322321479,4.533559106865,4.533559106865,8.180281912642,4.882778535737,False
26,trot_FR_RL,0,0.065000000000,26,26,0.130000000000,0.130000000000,False,0.301416934981,0.011797850447,-0.006715928887,solved,7.673904676001e-08,2.952581062685e-09,1.259112774916e-01,0.153986721967,0.041181428313,0.153986721967,9.562500705423,9.300979121179,2.789098973876,2.789098973876,8.600121463142,4.656401161580,False
27,trot_FR_RL,0,0.067500000000,27,27,0.135000000000,0.135000000000,False,0.302818909739,0.013643414724,-0.008310555582,solved,7.590258413904e-08,2.939618232751e-09,1.370231090539e-01,0.161567121309,0.047821723704,0.161567121309,9.567660132145,10.252884523341,4.844394792978,4.844394792978,8.868072551896,4.967236847693,False
28,trot_FR_RL,0,0.070000000000,28,28,0.140000000000,0.140000000000,False,0.304346437986,0.013822975258,-0.009145052205,solved,7.719120427967e-08,2.977545002748e-09,1.334408775334e-01,0.168596629839,0.045458270755,0.168596629839,9.553666219148,10.258619458524,1.911863366364,1.911863366364,7.993017944280,4.629157283528,False
29,trot_FR_RL,0,0.072500000000,29,29,0.145000000000,0.145000000000,False,0.305777557433,0.015375221163,-0.010853281145,solved,7.630263039850e-08,2.977436148041e-09,1.457519102472e-01,0.177437807042,0.052280782657,0.177437807042,9.561377865045,11.518100883023,5.126567869802,5.126567869802,9.101918641592,4.876929894519,False
30,trot_FR_RL,0,0.075000000000,30,30,0.150000000000,0.150000000000,False,0.307353703773,0.012796676268,-0.011627064838,solved,7.932998462985e-08,3.031025128294e-09,1.348195612645e-01,0.178077536910,0.049697600748,0.178077536910,9.543662985610,9.659365518364,3.314127883851,3.314127883851,11.091087090766,5.371392086809,False
31,trot_FR_RL,0,0.077500000000,31,31,0.155000000000,0.155000000000,False,0.308860923012,0.015464483382,-0.012012655154,solved,7.369449725188e-08,2.842187326749e-09,1.643170745606e-01,0.186735060065,0.056020145080,0.186735060065,9.569551123028,11.798163979814,5.042826102854,5.042826102854,10.662302574119,4.987334907489,False
32,trot_FR_RL,0,0.080000000000,32,32,0.160000000000,0.160000000000,False,0.310461152791,0.013588705799,-0.012297102419,solved,8.423306955866e-08,3.173425658160e-09,1.426167569824e-01,0.184860042041,0.052990769769,0.184860042041,9.546155287977,10.526404476174,3.089262618177,3.089262618177,11.955875490711,5.317875474964,False
33,trot_FR_RL,0,0.082500000000,33,33,0.165000000000,0.165000000000,False,0.311979329399,0.015400257662,-0.013551230119,solved,7.737412111918e-08,2.949243291106e-09,1.655231657785e-01,0.190933285405,0.059140019779,0.190933285405,9.559899730321,11.048751415206,5.095954197601,5.095954197601,10.653444219593,4.918519121130,False
34,trot_FR_RL,0,0.085000000000,34,34,0.170000000000,0.170000000000,False,0.313585177654,0.013435817582,-0.013842781251,solved,8.309000855932e-08,3.119850610103e-09,1.566403113531e-01,0.195712475485,0.056247340295,0.195712475485,9.531899156256,11.077045117198,1.899704776272,1.899704776272,10.518124358643,4.843820665276,False
35,trot_FR_RL,0,0.087500000000,35,35,0.175000000000,0.175000000000,False,0.315058364715,0.015407092924,-0.014564241028,solved,7.912369790137e-08,2.995269167201e-09,1.780166401130e-01,0.202039620130,0.062278319553,0.202039620130,9.539741920482,11.623911136792,5.173246762686,5.173246762686,10.492431128309,4.939598342915,False
36,trot_FR_RL,0,0.090000000000,36,36,0.180000000000,0.180000000000,False,0.316633455406,0.013179890859,-0.014560802767,solved,8.660703918756e-08,3.209772527435e-09,1.701039247338e-01,0.203921581230,0.059071409023,0.203921581230,9.512933678217,9.097843799184,2.623407236879,2.623407236879,11.688374076315,4.857167747950,False
37,trot_FR_RL,0,0.092500000000,37,37,0.185000000000,0.185000000000,False,0.318091480733,0.013961731377,-0.015001879131,solved,8.204821343461e-08,3.050867578772e-09,1.944298270357e-01,0.212334317179,0.064894194385,0.212334317179,9.517043485175,12.699740661878,5.183551137476,5.183551137476,11.635179193652,4.958471406397,False
38,trot_FR_RL,0,0.095000000000,38,38,0.190000000000,0.190000000000,False,0.319532243250,0.011862833419,-0.015697976665,solved,8.575570585792e-08,3.172476948326e-09,1.874901276797e-01,0.210621509425,0.061443233627,0.210621509425,9.499369764232,11.637913585834,2.392499027761,2.392499027761,10.896514699986,5.113610441396,False
39,trot_FR_RL,0,0.097500000000,39,39,0.195000000000,0.195000000000,False,0.320941595855,0.011665557751,-0.016096630179,solved,8.274333259103e-08,3.060278212164e-09,1.966477594699e-01,0.216882125738,0.067400394370,0.216882125738,9.502404650642,11.805593186306,5.433591992228,5.433591992228,11.629683274832,5.143615820199,False
40,trot_FR_RL,0,0.100000000000,40,40,0.200000000000,0.200000000000,False,0.322358606021,0.012109658110,-0.016475401400,solved,8.561575177357e-08,3.152694477019e-09,1.907659190689e-01,0.213028058274,0.063793004025,0.213028058274,9.492729233912,10.785911335182,2.898640635206,2.898640635206,11.420180078210,5.201829170871,False
41,trot_FR_RL,0,0.102500000000,41,41,0.205000000000,0.205000000000,False,0.323745113204,0.011108823991,-0.016882639766,solved,8.761839651682e-08,3.206888551804e-09,1.915622953492e-01,0.218011731611,0.069933612239,0.218011731611,9.480150603770,11.212305932943,5.570523274751,5.570523274751,10.656126794519,5.128838053418,False
42,trot_FR_RL,0,0.105000000000,42,42,0.210000000000,0.210000000000,False,0.325102522263,0.011384586853,-0.017246849450,solved,8.534363171890e-08,3.127579230219e-09,1.987300236822e-01,0.222129107660,0.066220427198,0.222129107660,9.478690099618,13.372718508776,4.210746012362,4.210746012362,10.819662107972,5.069211928937,False
43,trot_FR_RL,0,0.107500000000,43,43,0.215000000000,0.215000000000,False,0.326417106487,0.010367231432,-0.017570965736,solved,8.865722003522e-08,3.207296456073e-09,2.005041439164e-01,0.225981710316,0.072271126708,0.225981710316,9.464826848385,13.164883163019,5.634481312149,5.634481312149,12.315759076163,5.365780871119,False
44,trot_FR_RL,0,0.110000000000,44,44,0.220000000000,0.220000000000,False,0.327681901417,0.009223181547,-0.017984940969,solved,8.679115399683e-08,3.136026968264e-09,2.060213841745e-01,0.226845994882,0.068459173464,0.226845994882,9.463444599486,12.259974588860,3.138145759370,3.138145759370,12.090533655224,5.311099830171,False
45,trot_FR_RL,0,0.112500000000,45,45,0.225000000000,0.225000000000,False,0.328892421418,0.009872310021,-0.018126933251,solved,8.636696452682e-08,3.093339935714e-09,2.066529794777e-01,0.230924887205,0.074285876982,0.230924887205,9.457526023850,12.807535163230,5.618220163505,5.618220163505,11.897687947535,5.061245529172,False
46,trot_FR_RL,0,0.115000000000,46,46,0.230000000000,0.230000000000,False,0.330078123961,0.007790721951,-0.018621891259,solved,8.965173653174e-08,3.224848838979e-09,2.032547236502e-01,0.228799141465,0.070513917074,0.228799141465,9.443083401230,11.822633537129,2.735953369726,2.735953369726,11.715983240570,5.154749164055,False
47,trot_FR_RL,0,0.117500000000,47,47,0.235000000000,0.235000000000,False,0.331209864413,0.008559528914,-0.018742116173,solved,8.533823755924e-08,3.040219478501e-09,2.106996307183e-01,0.234178874179,0.076232448262,0.234178874179,9.444238365534,12.474381890443,5.656148455674,5.656148455674,12.132756681027,5.179868174305,False
48,trot_FR_RL,0,0.120000000000,48,48,0.240000000000,0.240000000000,False,0.332317163161,0.006589343760,-0.019217599898,solved,8.989592271776e-08,3.216480800055e-09,2.022894729459e-01,0.230512632769,0.072443814514,0.230512632769,9.429748064184,11.619994813200,2.561812114978,2.561812114978,12.089032012016,5.111912059333,False
49,trot_FR_RL,0,0.122500000000,49,49,0.245000000000,0.245000000000,False,0.333370421242,0.007422279268,-0.019322212806,solved,8.586658942072e-08,3.042953111864e-09,2.096772732947e-01,0.236180989623,0.078143740696,0.236180989623,9.430835504246,12.281418012099,5.737802696953,5.737802696953,12.144670842935,5.181091357898,False
50,trot_FR_RL,0,0.125000000000,50,50,0.250000000000,0.250000000000,False,0.334399295825,0.005507687446,-0.019784452868,solved,9.002133335817e-08,3.206667527832e-09,2.013529123722e-01,0.232088847297,0.074330663297,0.232088847297,9.417166347454,11.591812619392,2.554308334024,2.554308334024,12.132464866244,5.109458315627,False
51,trot_FR_RL,0,0.127500000000,51,51,0.255000000000,0.255000000000,False,0.335374323157,0.006388386504,-0.019876820728,solved,8.614339834489e-08,3.039895808322e-09,2.087605908107e-01,0.237427091113,0.080004790318,0.237427091113,9.418887268575,12.166205552435,5.814558195176,5.814558195176,12.157907785549,5.181120312321,False
52,trot_FR_RL,0,0.130000000000,52,52,0.260000000000,0.260000000000,False,0.336324959541,0.004515492463,-0.020328681484,solved,9.011869197260e-08,3.198851079138e-09,2.005193543054e-01,0.233074425863,0.076164438303,0.233074425863,9.406245527288,11.574791202059,2.552016187409,2.552016187409,12.123678238064,5.109554353021,False
53,trot_FR_RL,0,0.132500000000,53,53,0.265000000000,0.265000000000,False,0.337221867866,0.005432137657,-0.020411289078,solved,8.639369038203e-08,3.038896672530e-09,2.079899651236e-01,0.238210045522,0.081810260418,0.238210045522,9.408760901114,12.096211650493,5.888522428435,5.888522428435,12.165354710701,5.180570321635,False
54,trot_FR_RL,0,0.135000000000,54,54,0.270000000000,0.270000000000,False,0.338094344705,0.003590837682,-0.020854894001,solved,9.020798768045e-08,3.192981979853e-09,1.997956812693e-01,0.233696747050,0.077940515098,0.233696747050,9.397140304757,11.564452128289,2.551847773598,2.551847773598,12.119044265116,5.110103816095,False
55,trot_FR_RL,0,0.137500000000,55,55,0.275000000000,0.275000000000,False,0.338913168660,0.004534784781,-0.020929613945,solved,8.663464171354e-08,3.039764661317e-09,2.073600404882e-01,0.238706897724,0.083556267334,0.238706897724,9.400439166126,12.053351246303,5.959712112821,5.959712112821,12.169303369137,5.179673172730,False
56,trot_FR_RL,0,0.140000000000,56,56,0.280000000000,0.280000000000,False,0.339707505912,0.002717642054,-0.021366569773,solved,9.029857950801e-08,3.188856789982e-09,1.991814566103e-01,0.234093577264,0.079655671165,0.234093577264,9.389738340697,11.558111553859,2.552196799938,2.552196799938,12.116867754613,5.110933113715,False
57,trot_FR_RL,0,0.142500000000,57,57,0.285000000000,0.285000000000,False,0.340448239257,0.003682496711,-0.021434840600,solved,8.687428426723e-08,3.042253524152e-09,2.068609533383e-01,0.239025196543,0.085240086758,0.239025196543,9.393734192617,12.026817501040,6.028136214552,6.028136214552,12.171140286406,5.178565885413,False
58,trot_FR_RL,0,0.145000000000,58,58,0.290000000000,0.290000000000,False,0.341164426178,0.001883979224,-0.021866385857,solved,9.039494302798e-08,3.186235920569e-09,1.986722831744e-01,0.234348852978,0.081307499057,0.234348852978,9.383818749393,11.554161274235,2.552282591457,2.552282591457,12.116156268446,5.111943644544,False
59,trot_FR_RL,0,0.147500000000,59,59,0.295000000000,0.295000000000,False,0.341827042481,0.002864965662,-0.021929331636,solved,8.711704105633e-08,3.046115017429e-09,2.064811099954e-01,0.239230687338,0.086859468984,0.239230687338,9.388400218648,12.010144673587,6.093784767156,6.093784767156,12.171690898136,5.177322892323,False
60,trot_FR_RL,0,0.150000000000,60,60,0.300000000000,0.300000000000,False,0.342465053541,0.001080920907,-0.022356436863,solved,9.049855377599e-08,3.184887982107e-09,1.982617678022e-01,0.234514078016,0.082893801495,0.234514078016,9.379133942203,11.551637802006,2.551773385803,2.551773385803,12.116331363423,5.113082595818,False
61,trot_FR_RL,0,0.152500000000,61,61,0.305000000000,0.305000000000,False,0.343049517793,0.002074442886,-0.022414949121,solved,8.736440895515e-08,3.051125410726e-09,2.062086906302e-01,0.239363881024,0.088412224867,0.239363881024,9.384189925642,11.999456744645,6.156624314726,6.156624314726,12.171445449293,5.175984339741,False
62,trot_FR_RL,0,0.155000000000,62,62,0.310000000000,0.310000000000,False,0.343609321574,0.000301729709,-0.022838385858,solved,9.060987758692e-08,3.184607292242e-09,1.979426717904e-01,0.234621135609,0.084412402284,0.234621135609,9.375449008315,11.549964107840,2.550572525768,2.550572525768,12.117051994826,5.114319092606,False
63,trot_FR_RL,0,0.157500000000,63,63,0.315000000000,0.315000000000,False,0.344115596543,0.001305060308,-0.022893180814,solved,8.761710655628e-08,3.057089040606e-09,2.060324201127e-01,0.239449984513,0.089896227628,0.239449984513,9.380879886000,11.992423832361,6.216606496072,6.216606496072,12.170700026402,5.174575584071,False
64,trot_FR_RL,0,0.160000000000,64,64,0.320000000000,0.320000000000,False,0.344596909243,-0.000455207372,-0.023318988347,solved,9.072874739564e-08,3.185214688821e-09,1.977075762439e-01,0.234689975987,0.085861266144,0.234689975987,9.372558132386,11.548794831440,2.548699074628,2.548699074628,12.118111890388,5.115630977572,False
65,trot_FR_RL,0,0.162500000000,65,65,0.325000000000,0.325000000000,False,0.345024751692,0.000558748977,-0.023375193659,solved,8.785774318762e-08,3.063265309565e-09,2.059851592033e-01,0.239506424879,0.091311373176,0.239506424879,9.378141152019,11.988481441438,6.274654483180,6.274654483180,12.154474316327,5.162405772954,False
66,trot_FR_RL,0,0.165000000000,66,66,0.330000000000,0.330000000000,False,0.345427873582,-0.001195564292,-0.023796855992,solved,9.086477901701e-08,3.187378367992e-09,1.974248921667e-01,0.234735905046,0.087241649058,0.234735905046,9.370220388293,11.547908364201,2.546180167107,2.546180167107,12.117364071510,5.113931196095,False
67,trot_FR_RL,0,0.167500000000,67,67,0.335000000000,0.335000000000,False,0.345777521302,-0.000176359910,-0.023849069456,solved,8.812408628568e-08,3.071138306039e-09,2.059397727639e-01,0.239542082112,0.092654422478,0.239542082112,9.376069361715,11.984771817397,6.328342659381,6.328342659381,12.170077777124,5.173806013115,False
68,trot_FR_RL,0,0.170000000000,68,68,0.340000000000,0.340000000000,False,0.346102396538,-0.001925746684,-0.024267492384,solved,9.099166969779e-08,3.189430572086e-09,1.973540140904e-01,0.234762968779,0.088547229046,0.234762968779,9.368394232857,11.547334158781,2.543294818886,2.543294818886,12.119595959593,5.116686256454,False
69,trot_FR_RL,0,0.172500000000,69,69,0.345000000000,0.345000000000,False,0.346373797764,-0.000902233984,-0.024316513220,solved,8.839425643302e-08,3.079432306701e-09,2.059693616530e-01,0.239562119065,0.093922427568,0.239562119065,9.374440373418,11.982059905427,6.379208464787,6.379208464787,12.168085293441,5.171263295132,False
70,trot_FR_RL,0,0.175000000000,70,70,0.350000000000,0.350000000000,False,0.346619307682,-0.002664144379,-0.024721496706,solved,9.112595640786e-08,3.191988959053e-09,1.973388302317e-01,0.234777073943,0.089777444833,0.234777073943,9.366956858236,11.546769098701,2.539891738089,2.539891738089,12.121604320871,5.118916512466,False
71,trot_FR_RL,0,0.177500000000,71,71,0.355000000000,0.355000000000,False,0.346811587075,-0.001649642010,-0.024759183173,solved,8.864575439500e-08,3.087061881822e-09,2.059326191973e-01,0.239567968149,0.094503933573,0.239567968149,9.372952860705,11.978165828806,6.330792197416,6.330792197416,12.023560129522,5.170045336198,False
72,trot_FR_RL,0,0.180000000000,72,72,0.360000000000,0.360000000000,False,0.346979195880,-0.003400794739,-0.025165928028,solved,9.119977547164e-08,3.192932198685e-09,1.979085138324e-01,0.234776584125,0.089843623490,0.234776584125,9.365911659330,11.545337827369,2.535318250558,2.535318250558,12.101133366837,5.121258767605,False
73,trot_FR_RL,0,0.182500000000,73,73,0.365000000000,0.365000000000,False,0.347093484187,-0.002377944640,-0.025204555443,solved,8.889000300914e-08,3.094950211818e-09,2.062853795778e-01,0.239566039343,0.094767773832,0.239566039343,9.372094395186,11.977369182715,6.376490942592,6.376490942592,12.181690728323,5.166957512781,False
74,trot_FR_RL,0,0.185000000000,74,74,0.370000000000,0.370000000000,False,0.347182994085,-0.004121956992,-0.025612083714,solved,9.133434678674e-08,3.195810075866e-09,1.979734937795e-01,0.234773180743,0.090253890728,0.234773180743,9.365030452892,11.545154405149,2.531645742860,2.531645742860,12.111688417405,5.122778468331,False
75,trot_FR_RL,0,0.187500000000,75,75,0.375000000000,0.375000000000,False,0.347219132825,-0.003093518360,-0.025650918235,solved,8.914928834063e-08,3.103471924641e-09,2.066332311815e-01,0.239561169960,0.095282687094,0.239561169960,9.371339794883,11.976441406950,6.419053075706,6.419053075706,12.172923081033,5.165340601445,False
76,trot_FR_RL,0,0.190000000000,76,76,0.380000000000,0.380000000000,False,0.347230420163,-0.004832644390,-0.026058676363,solved,9.147531895486e-08,3.199097120476e-09,1.981040177742e-01,0.234766903906,0.090842345892,0.234766903906,9.364290088146,11.544846246996,2.527582144494,2.527582144494,12.118729773136,5.124341462184,False
77,trot_FR_RL,0,0.192500000000,77,77,0.385000000000,0.385000000000,False,0.347188309037,-0.003800346579,-0.026097312522,solved,8.929798681703e-08,3.107089757700e-09,2.069867077774e-01,0.239553562503,0.095919282530,0.239553562503,9.370683685259,11.975471798229,6.458418381006,6.458418381006,12.166967636570,5.163706767484,False
78,trot_FR_RL,0,0.195000000000,78,78,0.390000000000,0.390000000000,False,0.347119733890,-0.005560100898,-0.026489235676,solved,9.162150686582e-08,3.202710546576e-09,1.982857328250e-01,0.234758060080,0.091508141918,0.234758060080,9.363663300140,11.544468976604,2.523242731035,2.523242731035,12.123652223420,5.125930214444,False
79,trot_FR_RL,0,0.197500000000,79,79,0.395000000000,0.395000000000,False,0.346998095964,-0.004543267482,-0.026514787637,solved,8.940636444766e-08,3.108936698018e-09,2.071951525208e-01,0.239538704094,0.095713941708,0.239538704094,9.369841104301,11.971870170795,6.495871696291,6.495871696291,11.958428640100,5.163383529729,False
80,trot_FR_RL,0,0.200000000000,80,80,0.400000000000,0.400000000000,False,0.346851781356,-0.006289801274,-0.026912009967,solved,9.167597406088e-08,3.203640629758e-09,1.993066302406e-01,0.234739013417,0.090613662659,0.234739013417,9.363282562274,11.542770515850,2.517565853216,2.517565853216,12.094993118550,5.128129218004,False
81,trot_FR_RL,0,0.202500000000,81,81,0.405000000000,0.405000000000,False,0.346652262337,-0.005263064428,-0.026941497675,solved,8.953022699593e-08,3.112064185174e-09,2.078408243760e-01,0.239521639055,0.095154091013,0.239521639055,9.369603767468,11.972178381248,6.527747247917,6.527747247917,12.184432314504,5.160004769630,False
82,trot_FR_RL,0,0.205000000000,82,82,0.410000000000,0.410000000000,False,0.346427927181,-0.007001404054,-0.027341959566,solved,9.181786820819e-08,3.207090518515e-09,1.995154042604e-01,0.234723261020,0.090366337515,0.234723261020,9.362871794779,11.542832487635,2.513487045371,2.513487045371,12.110510454613,5.129385914447,False
83,trot_FR_RL,0,0.207500000000,83,83,0.415000000000,0.415000000000,False,0.346150306372,-0.005968510927,-0.027373761069,solved,8.966957720055e-08,3.115677778700e-09,2.084375149333e-01,0.239506593273,0.095670752569,0.239506593273,9.369285214164,11.971929857598,6.556928214126,6.556928214126,12.171577621819,5.158566880656,False
84,trot_FR_RL,0,0.210000000000,84,84,0.420000000000,0.420000000000,False,0.345847780243,-0.007701669353,-0.027776192743,solved,9.196568667313e-08,3.210896405223e-09,1.997949291391e-01,0.234708599733,0.091060422658,0.234708599733,9.362471022563,11.542677056731,2.509065998781,2.509065998781,12.120561632696,5.130841153934,False
85,trot_FR_RL,0,0.212500000000,85,85,0.425000000000,0.425000000000,False,0.345491923056,-0.006664866705,-0.027809308647,solved,8.981895169233e-08,3.119639945717e-09,2.090013793682e-01,0.239492008256,0.096323545811,0.239492008256,9.368940322351,11.971384591667,6.583088285545,6.583088285545,12.163154996490,5.157001225353,False
86,trot_FR_RL,0,0.215000000000,86,86,0.430000000000,0.430000000000,False,0.345110578858,-0.008387000775,-0.028214880469,solved,9.211837595239e-08,3.214973966837e-09,2.001207540052e-01,0.234693953976,0.091671939522,0.234693953976,9.362091770932,11.542395053710,2.504421104569,2.504421104569,12.127308457336,5.132404136519,False
87,trot_FR_RL,0,0.217500000000,87,87,0.435000000000,0.435000000000,False,0.344676002997,-0.007341827095,-0.028249903160,solved,8.996694361292e-08,3.123566005751e-09,2.095834485859e-01,0.239476405454,0.096624967840,0.239476405454,9.368553138682,11.970281957530,6.460864720293,6.460864720293,12.089503727136,5.010180571267,False
88,trot_FR_RL,0,0.220000000000,88,88,0.440000000000,0.440000000000,False,0.344216108240,-0.009071320825,-0.028650846672,solved,9.228588261212e-08,3.219565524452e-09,2.003883100228e-01,0.234677598573,0.091721797260,0.234677598573,9.361665971027,11.542031160071,2.499607417530,2.499607417530,12.121451773287,5.113063582846,False
89,trot_FR_RL,0,0.222500000000,89,89,0.445000000000,0.445000000000,False,0.343703013158,-0.008031589420,-0.028682008097,solved,9.011308620176e-08,3.127279110943e-09,2.100352102560e-01,0.239458903400,0.096737631495,0.239458903400,9.368113344214,11.969008549662,6.517773346286,6.517773346286,12.107151415754,5.169972208839,False
90,trot_FR_RL,0,0.225000000000,90,90,0.450000000000,0.450000000000,False,0.343165004179,-0.009758641756,-0.029084184363,solved,9.240859276069e-08,3.222761802993e-09,2.010117224730e-01,0.234659268780,0.091874389082,0.234659268780,9.361348574236,11.541343880437,2.494463394366,2.494463394366,12.120842534013,5.122879167814,False
91,trot_FR_RL,0,0.227500000000,91,91,0.455000000000,0.455000000000,False,0.342573727307,-0.008717027307,-0.029116170078,solved,9.026436864287e-08,3.131428587076e-09,2.106269889040e-01,0.239441216914,0.096911039396,0.239441216914,9.367852641817,11.968622743877,6.556202250988,6.556202250988,12.161412387777,5.161308072516,False
92,trot_FR_RL,0,0.230000000000,92,92,0.460000000000,0.460000000000,False,0.341957462301,-0.010442344124,-0.029519226326,solved,9.256049243428e-08,3.226855532410e-09,2.014286709854e-01,0.234641986196,0.092055147223,0.234641986196,9.361049939915,11.541044132066,2.489647881674,2.489647881674,12.129511886245,5.129286012594,False
93,trot_FR_RL,0,0.232500000000,93,93,0.465000000000,0.465000000000,False,0.341287892170,-0.009399382553,-0.029551739388,solved,9.042205996848e-08,3.135791136480e-09,2.112068324894e-01,0.239424111325,0.097088190393,0.239424111325,9.367579819017,11.968027017677,6.582640096852,6.582640096852,12.154149353683,5.155723858458,False
94,trot_FR_RL,0,0.235000000000,94,94,0.470000000000,0.470000000000,False,0.340592351140,-0.011125717606,-0.029951566793,solved,9.271858312427e-08,3.231213490143e-09,2.018619226680e-01,0.234624954061,0.092220471605,0.234624954061,9.360761403574,11.540659753813,2.484697680827,2.484697680827,12.135415742040,5.133839006271,False
95,trot_FR_RL,0,0.237500000000,95,95,0.475000000000,0.475000000000,False,0.339843699479,-0.010083476603,-0.029981016231,solved,9.056252109637e-08,3.139398410328e-09,2.117370431628e-01,0.239404805448,0.097029254168,0.239404805448,9.367172607752,11.966117911075,6.489317011895,6.489317011895,12.025483765399,5.040515921314,False
96,trot_FR_RL,0,0.240000000000,96,96,0.480000000000,0.480000000000,False,0.339070138533,-0.011807736825,-0.030382208828,solved,9.285655619930e-08,3.234989071196e-09,2.024977361381e-01,0.234604115738,0.091976852327,0.234604115738,9.360470725706,11.539791383809,2.479266313542,2.479266313542,12.120481802428,5.121363037659,False
97,trot_FR_RL,0,0.242500000000,97,97,0.485000000000,0.485000000000,False,0.338243375162,-0.010763886861,-0.030412644050,solved,9.071353598081e-08,3.143594010186e-09,2.123849194914e-01,0.239385149823,0.096836961698,0.239385149823,9.366955253379,11.965923035160,6.528574731542,6.528574731542,12.160136443310,5.160620757307,False
98,trot_FR_RL,0,0.245000000000,98,98,0.490000000000,0.490000000000,False,0.337391610344,-0.012486650165,-0.030814884854,solved,9.300779427798e-08,3.239068557324e-09,2.029763363596e-01,0.234585284442,0.091815831117,0.234585284442,9.360196552734,11.539550136654,2.474422360432,2.474422360432,12.131295471576,5.130145883833,False
99,trot_FR_RL,0,0.247500000000,99,99,0.495000000000,0.495000000000,False,0.336486591532,-0.011441634044,-0.030846024867,solved,9.087188317748e-08,3.148007567483e-09,2.130165539571e-01,0.239366815409,0.096690924516,0.239366815409,9.366714680861,11.965438099492,6.551524723256,6.551524723256,12.151187593211,5.153095875547,False
100,trot_FR_RL,0,0.250000000000,100,100,0.500000000000,0.500000000000,False,0.335556512974,-0.013163246536,-0.031249061670,solved,9.316646968000e-08,3.243448555898e-09,2.034647512709e-01,0.234567276345,0.091672580402,0.234567276345,9.359928153482,11.539191090224,2.469425495196,2.469425495196,12.138484200924,5.136137586430,False
101,trot_FR_RL,0,0.252500000000,101,101,0.505000000000,0.505000000000,False,0.334573574338,-0.012087212653,-0.031278518818,solved,9.103522591058e-08,3.152581954514e-09,2.136386832007e-01,0.239348953082,0.096540549983,0.239348953082,9.366457834532,11.964796491591,6.563243529403,6.563243529403,12.145105360207,5.147856392577,False
102,trot_FR_RL,0,0.255000000000,102,102,0.510000000000,0.510000000000,False,0.333565635099,-0.013775774132,-0.031679682529,solved,9.332332586446e-08,3.247529563227e-09,2.032619177495e-01,0.234546509981,0.091505329804,0.234546509981,9.359484142853,11.453045562150,2.378845293925,2.378845293925,12.104690386417,5.141673418812,False
103,trot_FR_RL,0,0.257500000000,103,103,0.515000000000,0.515000000000,False,0.332505496651,-0.012619113449,-0.031703072931,solved,9.123541487499e-08,3.157861708340e-09,2.136009791604e-01,0.239325560154,0.096350762144,0.239325560154,9.365877255699,11.962547492591,6.565666618254,6.565666618254,12.135872222920,5.144096507662,False
104,trot_FR_RL,0,0.260000000000,104,104,0.520000000000,0.520000000000,False,0.331420544644,-0.014222506738,-0.032097562169,solved,9.344435272456e-08,3.249364276246e-09,2.014660757642e-01,0.234516056438,0.091285137613,0.234516056438,9.358473106548,11.264042178271,2.382582707186,2.382582707186,12.055767161794,5.146770698134,False
105,trot_FR_RL,0,0.262500000000,105,105,0.525000000000,0.525000000000,False,0.330284713471,-0.012885792463,-0.032103569003,solved,9.145211851608e-08,3.162684950974e-09,2.120521390273e-01,0.239288822093,0.096097307474,0.239288822093,9.364538046944,11.957935711220,6.560168753894,6.560168753894,12.122468324972,5.141272833775,False
106,trot_FR_RL,0,0.265000000000,106,106,0.530000000000,0.530000000000,False,0.329133432593,-0.013956423004,-0.032429563333,solved,9.350945715757e-08,3.247755825711e-09,1.966412028314e-01,0.234463433510,0.090989272647,0.234463433510,9.356266644600,10.895501862702,2.390423595715,2.390423595715,11.961523043720,5.152906628459,False
107,trot_FR_RL,0,0.267500000000,107,107,0.535000000000,0.535000000000,False,0.327934239226,-0.012028646930,-0.032334922181,solved,9.169534050081e-08,3.171464676596e-09,2.072200592601e-01,0.239182702116,0.095741949241,0.239182702116,9.359601585386,11.926942387607,6.537359570336,6.537359570336,11.440417257906,5.130097444901,False
108,trot_FR_RL,0,0.270000000000,108,108,0.540000000000,0.540000000000,False,0.326716811169,-0.012458953890,-0.032558425616,solved,9.393738712409e-08,3.266145064178e-09,1.903894178915e-01,0.234300648805,0.090575571091,0.234300648805,9.349192584547,11.455036444174,2.418193287431,2.418193287431,11.736108479398,5.154120676047,False
109,trot_FR_RL,0,0.272500000000,109,109,0.545000000000,0.545000000000,False,0.325461664291,-0.009833289419,-0.032270522692,solved,9.224096835716e-08,3.188529250909e-09,2.002766993608e-01,0.238962253485,0.095262350871,0.238962253485,9.350028428183,11.889292478932,6.506580879233,6.506580879233,11.986036246062,5.123341984944,False
110,trot_FR_RL,0,0.275000000000,110,110,0.550000000000,0.550000000000,False,0.324258491268,-0.010041959526,-0.031984132821,solved,9.412371056208e-08,3.262836810949e-09,1.832217620578e-01,0.234008664608,0.090047271938,0.234008664608,9.338594313411,10.164591437161,2.455042167379,2.455042167379,11.586265344592,5.146657228756,False
111,trot_FR_RL,0,0.277500000000,111,111,0.555000000000,0.555000000000,False,0.322937783117,-0.007671636487,-0.031989840711,solved,9.143988228654e-08,3.172667674103e-09,1.961383725214e-01,0.238642698915,0.094662535096,0.238642698915,9.338864409587,11.862725110282,6.468374890185,6.468374890185,10.734881387589,5.108451239708,False
112,trot_FR_RL,0,0.280000000000,112,112,0.560000000000,0.560000000000,False,0.321726003054,-0.008285828318,-0.031114168247,solved,9.411717365798e-08,3.263513118614e-09,1.820140889273e-01,0.233883164336,0.089482479436,0.233883164336,9.328210501455,6.975559283753,2.958830324098,2.958830324098,12.270394957575,5.092901283564,False
113,trot_FR_RL,0,0.282500000000,113,113,0.565000000000,0.565000000000,False,0.320462287458,-0.004051305586,-0.029789270284,solved,8.990480021481e-08,3.106917577082e-09,1.978919575625e-01,0.238254879378,0.094104751950,0.238254879378,9.330590440254,11.716052695947,6.471224779036,6.471224779036,11.028796393363,5.095751172415,False
114,trot_FR_RL,0,0.285000000000,114,114,0.570000000000,0.570000000000,False,0.319255269785,-0.004144113858,-0.028576815082,solved,9.489624577310e-08,3.286511145532e-09,1.907368989137e-01,0.232883497835,0.089368323105,0.232883497835,9.323504245212,10.483205585862,2.693855103011,2.693855103011,11.613883970889,5.079317358704,False
115,trot_FR_RL,0,0.287500000000,115,115,0.575000000000,0.575000000000,False,0.317997069216,-0.000541387335,-0.027125849192,solved,9.022812711827e-08,3.134007800764e-09,1.976269468954e-01,0.236776223029,0.090245525703,0.236776223029,9.325272442739,11.417411518278,6.002998656301,6.002998656301,10.188545433374,4.863721622130,False
116,trot_FR_RL,0,0.290000000000,116,116,0.580000000000,0.580000000000,False,0.316850820970,-0.001318841211,-0.025329275248,solved,9.342933291275e-08,3.265880654444e-09,1.915275277764e-01,0.231148095825,0.084943616948,0.231148095825,9.328189109510,10.099863744669,2.896328878576,2.896328878576,10.522543864765,4.988467954115,False
117,trot_FR_RL,0,0.292500000000,117,117,0.585000000000,0.585000000000,False,0.315675959594,0.002588908569,-0.023841318162,solved,8.843478696427e-08,3.098151100612e-09,2.022844279055e-01,0.233933471005,0.088906291883,0.233933471005,9.328965159441,10.750026430306,5.967202895516,5.967202895516,11.166291109724,5.155288304206,False
118,trot_FR_RL,0,0.295000000000,118,118,0.590000000000,0.590000000000,False,0.314651994478,0.002778164866,-0.021384424875,solved,9.301617353105e-08,3.262776454705e-09,1.996199090484e-01,0.236239606614,0.083900044277,0.236239606614,9.327188618203,10.602652069099,2.783971696945,2.783971696945,9.991916446723,4.675766291258,False
119,trot_FR_RL,0,0.297500000000,119,119,0.595000000000,0.595000000000,False,0.313597063458,0.004354310608,-0.019254771541,solved,8.748219207272e-08,3.053266239147e-09,2.064775503710e-01,0.239409190906,0.087980996913,0.239409190906,9.321259873061,11.161159781876,6.008691416807,6.008691416807,9.856511672720,5.069161449608,False
120,trot_FR_RL,0,0.300000000000,120,120,0.600000000000,0.600000000000,False,0.312704112334,0.006069704420,-0.016265275107,solved,8.830289168137e-08,3.058368297277e-09,2.123252034811e-01,0.234454144782,0.082738381932,0.234454144782,9.335573140026,8.863228034011,2.434930410642,2.434930410642,9.866158826297,4.860705763727,False
121,trot_FR_RL,0,0.302500000000,121,121,0.605000000000,0.605000000000,False,0.311895940201,0.007062205783,-0.013594017827,solved,8.717484956400e-08,2.996000227538e-09,2.202846384513e-01,0.233221985809,0.087030560872,0.233221985809,9.343456153900,9.278392343231,6.096772093589,6.096772093589,9.146780434685,5.156444050035,False
122,trot_FR_RL,0,0.305000000000,122,122,0.610000000000,0.610000000000,False,0.311195922631,0.008245907592,-0.010692208936,solved,8.532029387820e-08,2.920306040110e-09,2.203908712197e-01,0.234712474557,0.081998145914,0.234712474557,9.350445068911,10.133743356384,1.369294434576,1.369294434576,8.662039297126,4.931567891724,False
123,trot_FR_RL,0,0.307500000000,123,123,0.615000000000,0.615000000000,False,0.310575993077,0.009589986245,-0.008143563335,solved,8.583612553007e-08,2.923218331597e-09,2.319501149054e-01,0.235637421336,0.085800624889,0.235637421336,9.356113160778,9.887970242893,6.025979473732,6.025979473732,7.870623257266,5.054944837776,False
124,trot_FR_RL,0,0.310000000000,124,124,0.620000000000,0.620000000000,False,0.310135554275,0.010180940866,-0.004998196036,solved,8.376547729858e-08,2.852377973740e-09,2.276175157267e-01,0.235979707759,0.080378506643,0.235979707759,9.373726667672,9.610331521568,2.108431481309,2.108431481309,8.736305967601,4.993649142073,False
125,trot_FR_RL,0,0.312500000000,125,125,0.625000000000,0.625000000000,False,0.309745503114,0.014592186988,-0.002754371873,solved,8.434659538145e-08,2.846045767138e-09,2.357528977538e-01,0.235571850026,0.084625150792,0.235571850026,9.372041852884,9.218945134599,6.194058524970,6.194058524970,8.884104610381,5.161728193311,False
126,trot_FR_RL,0,0.315000000000,126,126,0.630000000000,0.630000000000,False,0.309555480976,0.014129398361,-0.000056218291,solved,8.049225009975e-08,2.716101418624e-09,2.456630997491e-01,0.233852384798,0.080070150122,0.233852384798,9.406458329971,9.031631472591,3.753661743719,3.753661743719,9.684364269611,4.873922522908,False
127,trot_FR_RL,0,0.317500000000,127,127,0.635000000000,0.635000000000,False,0.309439565456,0.017045092970,0.001810311406,solved,8.350997690915e-08,2.786728330540e-09,2.320183498661e-01,0.232427214062,0.084356924650,0.232427214062,9.392693070444,9.201593223343,6.229595610131,6.229595610131,9.979618452670,4.909459608069,False
128,trot_FR_RL,0,0.320000000000,128,128,0.640000000000,0.640000000000,False,0.309512472046,0.015138524980,0.004053273394,solved,7.979348236157e-08,2.660606252349e-09,2.404360303850e-01,0.230073331756,0.079868751286,0.230073331756,9.412685574408,9.352010922059,3.266490128448,3.266490128448,9.167003573555,4.830371655504,False
129,trot_FR_RL,0,0.322500000000,129,129,0.645000000000,0.645000000000,False,0.309655852967,0.016972550884,0.005432373624,solved,8.236702539136e-08,2.722065161254e-09,2.286562366249e-01,0.229112362271,0.083258503140,0.229112362271,9.391299594544,9.645751925856,6.292103043540,6.292103043540,9.686710258390,4.892879088914,False
130,trot_FR_RL,0,0.325000000000,130,130,0.650000000000,0.650000000000,False,0.309971036683,0.013999542164,0.006976531351,solved,7.834802884492e-08,2.588633417956e-09,2.417654739543e-01,0.230570086295,0.077981663496,0.230570086295,9.405760232095,9.951665463813,3.437546459881,3.437546459881,9.509925653844,4.857002343329,False
131,trot_FR_RL,0,0.327500000000,131,131,0.655000000000,0.655000000000,False,0.310338383191,0.014789145245,0.007633729851,solved,8.125791426450e-08,2.668823890584e-09,2.314187195356e-01,0.232366032575,0.082025063272,0.232366032575,9.384767591570,10.192614443061,6.308862743307,6.308862743307,10.004244856869,4.873762043096,False
132,trot_FR_RL,0,0.330000000000,132,132,0.660000000000,0.660000000000,False,0.310851491441,0.013395901585,0.008634137762,solved,7.717185818266e-08,2.531100579181e-09,2.449121702166e-01,0.234399844952,0.077239161741,0.234399844952,9.394605312681,10.392899986597,3.573642855603,3.573642855603,9.547446068761,4.867040067567,False
133,trot_FR_RL,0,0.332500000000,133,133,0.665000000000,0.665000000000,False,0.311362176312,0.013772328352,0.008991981585,solved,7.835781028049e-08,2.558464525956e-09,2.406644364902e-01,0.236198506798,0.081832349655,0.236198506798,9.386077207792,10.347271195070,6.173283423941,6.173283423941,8.744869046969,4.878984646161,False
134,trot_FR_RL,0,0.335000000000,134,134,0.670000000000,0.670000000000,False,0.312052268235,0.011942519624,0.010208283384,solved,7.728145463519e-08,2.521813037651e-09,2.461349478998e-01,0.237069093434,0.077878202608,0.237069093434,9.387166212638,9.918057055287,1.738573987329,1.738573987329,7.847411193216,4.764038681446,False
135,trot_FR_RL,0,0.337500000000,135,135,0.675000000000,0.675000000000,False,0.312735955603,0.013173156503,0.010397348483,solved,7.678112779463e-08,2.501379127128e-09,2.482190316044e-01,0.241072723632,0.081584162990,0.241072723632,9.378564630670,11.644724044006,6.198772640999,6.198772640999,7.816884576566,4.789527898505,False
136,trot_FR_RL,0,0.340000000000,136,136,0.680000000000,0.680000000000,False,0.313596018104,0.010085806896,0.011307960876,solved,7.672794398201e-08,2.487566042748e-09,2.589270583719e-01,0.235613340329,0.076874537507,0.235613340329,9.382429659363,9.736859931019,2.158208856372,2.158208856372,11.070648985605,4.936381741872,False
137,trot_FR_RL,0,0.342500000000,137,137,0.685000000000,0.685000000000,False,0.314485516582,0.011495467870,0.012090036627,solved,7.812322377894e-08,2.516956385997e-09,2.538287851175e-01,0.235098030346,0.081578999629,0.235098030346,9.367880077673,10.733867086035,6.232260081034,6.232260081034,10.657005785880,4.992189036794,False
138,trot_FR_RL,0,0.345000000000,138,138,0.690000000000,0.690000000000,False,0.315388805178,0.009232455511,0.012505540144,solved,7.574130372329e-08,2.435443434851e-09,2.730592626755e-01,0.239247363115,0.076889478562,0.239247363115,9.371995040590,11.644560909102,2.814813606315,2.814813606315,9.941688978557,4.876629205080,False
139,trot_FR_RL,0,0.347500000000,139,139,0.695000000000,0.695000000000,False,0.316256019249,0.010881152898,0.013401650737,solved,7.829087227631e-08,2.497353109784e-09,2.588249976236e-01,0.235849791992,0.081771556765,0.235849791992,9.365365506374,11.753086485217,6.348157788175,6.348157788175,10.811826830969,5.007116884814,False
140,trot_FR_RL,0,0.350000000000,140,140,0.700000000000,0.700000000000,False,0.317207389559,0.007605767881,0.014094690728,solved,7.477715584747e-08,2.399286961327e-09,2.704747233973e-01,0.235753757763,0.076839055403,0.235753757763,9.370239678440,10.314543846247,2.111390386854,2.111390386854,11.187755114168,5.096714965008,False
141,trot_FR_RL,0,0.352500000000,141,141,0.705000000000,0.705000000000,False,0.318146153123,0.008845786516,0.014268237766,solved,7.815108806339e-08,2.534132738105e-09,2.594519845520e-01,0.236454773829,0.081186556755,0.236454773829,9.358657725813,9.808698985967,6.073022897615,6.073022897615,10.470002691716,4.886270901403,False
142,trot_FR_RL,0,0.355000000000,142,142,0.710000000000,0.710000000000,False,0.319138022376,0.006896734120,0.014341769444,solved,7.506486540913e-08,2.450366696742e-09,2.700790946342e-01,0.243653681017,0.076108693875,0.243653681017,9.360447400570,13.345600834871,4.547995482806,4.547995482806,10.621498316800,4.907877546819,False
143,trot_FR_RL,0,0.357500000000,143,143,0.715000000000,0.715000000000,False,0.320033380748,0.007575367200,0.014455988939,solved,7.899103975618e-08,2.586530356038e-09,2.680032105072e-01,0.240281594577,0.080164085028,0.240281594577,9.353566065084,11.798789368403,5.901768037667,5.901768037667,10.982676030362,5.416865201090,False
144,trot_FR_RL,0,0.360000000000,144,144,0.720000000000,0.720000000000,False,0.320969841692,0.003265663068,0.014366631169,solved,7.459038840759e-08,2.462860510880e-09,2.755389619266e-01,0.244622382653,0.074999819235,0.244622382653,9.356992269787,11.955289344287,3.169252966127,3.169252966127,11.500650591468,4.942552861457,False
145,trot_FR_RL,0,0.362500000000,145,145,0.725000000000,0.725000000000,False,0.321876069305,0.003452055860,0.013827611979,solved,8.159058275123e-08,2.716391976547e-09,2.661667857959e-01,0.239438482818,0.079131213363,0.239438482818,9.344229546775,10.295390647772,5.914448969184,5.914448969184,12.107117784931,4.970104697775,False
146,trot_FR_RL,0,0.365000000000,146,146,0.730000000000,0.730000000000,False,0.322791433572,0.001757097020,0.013694270751,solved,7.573873140024e-08,2.508286196055e-09,2.792964391296e-01,0.242919643230,0.073878387352,0.242919643230,9.342630183156,11.503695144448,2.673735203826,2.673735203826,11.178088518636,4.894168004512,False
147,trot_FR_RL,0,0.367500000000,147,147,0.735000000000,0.735000000000,False,0.323655720543,0.002145797284,0.013045003626,solved,8.069326258032e-08,2.698742923284e-09,2.781137804458e-01,0.236741965830,0.077871566786,0.236741965830,9.341033404939,7.323459884778,5.811366528356,5.811366528356,11.294932915555,5.081991681845,False
148,trot_FR_RL,0,0.370000000000,148,148,0.740000000000,0.740000000000,False,0.324530362537,-0.001560154145,0.012091470602,solved,7.749145536244e-08,2.595786787792e-09,2.772928067601e-01,0.240079179910,0.072672226234,0.240079179910,9.341435683729,11.271774236564,2.478721692131,2.478721692131,10.856046299625,4.886978170150,False
149,trot_FR_RL,0,0.372500000000,149,149,0.745000000000,0.745000000000,False,0.325330000211,-0.000682243233,0.011392014243,solved,8.443678658352e-08,2.823649399645e-09,2.738361076538e-01,0.241596864080,0.076636813733,0.241596864080,9.331693072131,12.440342001708,5.766101478002,5.766101478002,11.234615570557,4.944335335362,False
150,trot_FR_RL,0,0.375000000000,150,150,0.750000000000,0.750000000000,False,0.326148018756,-0.004658030167,0.010594862265,solved,7.771523372264e-08,2.607948388655e-09,2.813692506432e-01,0.238465955705,0.071241241175,0.238465955705,9.332297692252,11.243785178853,2.440597910924,2.440597910924,12.315417644623,4.906211554154,False
151,trot_FR_RL,0,0.377500000000,151,151,0.755000000000,0.755000000000,False,0.326872770636,-0.003860904031,0.009887051226,solved,8.616708647432e-08,2.908212764580e-09,2.710661469048e-01,0.243845224676,0.075141579327,0.243845224676,9.325953554632,12.443443472468,5.691193061553,5.691193061553,12.446486128635,4.902692863064,False
152,trot_FR_RL,0,0.380000000000,152,152,0.760000000000,0.760000000000,False,0.327614890706,-0.007875495875,0.009081477629,solved,7.882963900774e-08,2.683529491173e-09,2.800951610187e-01,0.239284604334,0.069631537530,0.239284604334,9.326744332894,11.322755404658,2.500925282584,2.500925282584,12.902813180146,5.153160248359,False
153,trot_FR_RL,0,0.382500000000,153,153,0.765000000000,0.765000000000,False,0.328263967349,-0.007138415270,0.008361030833,solved,8.712840575163e-08,2.976085166339e-09,2.715886380508e-01,0.243872370603,0.073430914595,0.243872370603,9.320310372013,12.048777958807,5.588397866361,5.588397866361,12.601884678209,4.930767118502,False
154,trot_FR_RL,0,0.385000000000,154,154,0.770000000000,0.770000000000,False,0.328929878002,-0.011169402421,0.007545141505,solved,8.022053895189e-08,2.772486926279e-09,2.799203005847e-01,0.238708824106,0.067837318738,0.238708824106,9.321904975509,11.386715046949,2.555823820193,2.555823820193,12.869377786010,5.083792846617,False
155,trot_FR_RL,0,0.387500000000,155,155,0.775000000000,0.775000000000,False,0.329502410911,-0.010474558687,0.006812146382,solved,8.788587573442e-08,3.036050148829e-09,2.726313677195e-01,0.243089841391,0.071560615815,0.243089841391,9.315814120867,11.914102297754,5.490889680694,5.490889680694,12.702092509100,4.953613436710,False
156,trot_FR_RL,0,0.390000000000,156,156,0.780000000000,0.780000000000,False,0.330091494470,-0.014530776125,0.005985668582,solved,8.192490417564e-08,2.871442297127e-09,2.811993904066e-01,0.237778635368,0.065903246027,0.237778635368,9.318044152893,11.484923279789,2.655140174226,2.655140174226,12.878017985132,5.060789926391,False
157,trot_FR_RL,0,0.392500000000,157,157,0.785000000000,0.785000000000,False,0.330587079592,-0.013862369740,0.005242645998,solved,8.870263697354e-08,3.096655536755e-09,2.745502049098e-01,0.242163145753,0.069568952101,0.242163145753,9.312250877983,11.878781022856,5.397100539300,5.397100539300,12.746448170425,5.029031894377,False
158,trot_FR_RL,0,0.395000000000,158,158,0.790000000000,0.790000000000,False,0.331098895276,-0.017927955881,0.004409372205,solved,8.365829682147e-08,2.968376286243e-09,2.836878256436e-01,0.236864864882,0.063860647836,0.236864864882,9.314901567755,11.544412263881,2.713982082772,2.713982082772,12.866663836519,5.055977553126,False
159,trot_FR_RL,0,0.397500000000,159,159,0.795000000000,0.795000000000,False,0.331517046175,-0.017268292894,0.003660836737,solved,8.956122393063e-08,3.154859250800e-09,2.773674335980e-01,0.241372700453,0.067478986377,0.241372700453,9.309224082942,11.908825803840,5.303864331682,5.303864331682,12.777605448974,5.089049129151,False
160,trot_FR_RL,0,0.400000000000,160,160,0.800000000000,0.800000000000,False,0.331951407806,-0.021341969564,0.002822560837,solved,8.487474601253e-08,3.036554737206e-09,2.871614002300e-01,0.236180025198,0.061727756831,0.236180025198,9.312064489435,11.580899441231,2.736539712035,2.736539712035,12.863764894156,5.060802829932,False
161,trot_FR_RL,0,0.402500000000,161,161,0.805000000000,0.805000000000,False,0.332291960912,-0.020689782668,0.002070108865,solved,9.044662100575e-08,3.209754083028e-09,2.808768095132e-01,0.240776818634,0.065306819912,0.240776818634,9.306422358230,11.929469463048,5.210788623372,5.210788623372,12.778976705224,5.084248213853,False
162,trot_FR_RL,0,0.405000000000,162,162,0.810000000000,0.810000000000,False,0.332648723890,-0.024770306429,0.001228257012,solved,8.599833626505e-08,3.097117832300e-09,2.912708826549e-01,0.235660976653,0.059519266188,0.235660976653,9.309349700363,11.603022876252,2.760420463360,2.760420463360,12.862457716371,5.063878729303,False
163,trot_FR_RL,0,0.407500000000,163,163,0.815000000000,0.815000000000,False,0.332911548946,-0.024124416759,0.000473141349,solved,9.136031286394e-08,3.262060947671e-09,2.849544485661e-01,0.240322937060,0.063064455699,0.240322937060,9.303707050150,11.943897685857,5.117027864959,5.117027864959,12.779350381309,5.081022260192,False
164,trot_FR_RL,0,0.410000000000,164,164,0.820000000000,0.820000000000,False,0.333190594892,-0.028210672989,-0.000371179910,solved,8.710964615005e-08,3.154158838594e-09,2.958906432554e-01,0.235263814507,0.057245077892,0.235263814507,9.306663803308,11.616513130361,2.784859667850,2.784859667850,12.862061532874,5.065863135086,False
165,trot_FR_RL,0,0.412500000000,165,165,0.825000000000,0.825000000000,False,0.333375583267,-0.027570049966,-0.001127997746,solved,9.230172208366e-08,3.312347512503e-09,2.895040322269e-01,0.239974164531,0.060760172884,0.239974164531,9.301009250369,11.954141592965,5.022110867701,5.022110867701,12.779173186404,5.078804841976,False
166,trot_FR_RL,0,0.415000000000,166,166,0.830000000000,0.830000000000,False,0.333576811431,-0.031661084614,-0.001973945881,solved,8.821656391858e-08,3.208451854638e-09,3.009252426822e-01,0.234957444277,0.054912205050,0.234957444277,9.303964747752,11.624798294666,2.809300511528,2.809300511528,12.862174760061,5.067159446207,False
167,trot_FR_RL,0,0.417500000000,167,167,0.835000000000,0.835000000000,False,0.333683869554,-0.031024860002,-0.002731741176,solved,9.326868130499e-08,3.361052714022e-09,2.944497965839e-01,0.239704145005,0.058400006995,0.239704145005,9.298299695570,11.961516164423,4.925792487294,4.925792487294,12.778707514771,5.077243572464,False
168,trot_FR_RL,0,0.420000000000,168,168,0.840000000000,0.840000000000,False,0.333807191970,-0.035119879625,-0.003578684686,solved,8.932377907678e-08,3.260587949777e-09,3.063014011837e-01,0.234719464873,0.052525921249,0.234719464873,9.301238945345,11.629934310188,2.833354450671,2.833354450671,12.862560675895,5.068016885681,False
169,trot_FR_RL,0,0.422500000000,169,169,0.845000000000,0.845000000000,False,0.333836237595,-0.034487339164,-0.004336919833,solved,9.425961252255e-08,3.408527701306e-09,2.997315559135e-01,0.239493740053,0.055988643288,0.239493740053,9.295570821364,11.966887192606,4.827963688872,4.827963688872,12.778106030681,5.076116788069,False
170,trot_FR_RL,0,0.425000000000,170,170,0.850000000000,0.850000000000,False,0.333881576293,-0.038585696316,-0.005184392029,solved,9.042314841298e-08,3.310942850630e-09,3.119623302343e-01,0.234533487699,0.050090453618,0.234533487699,9.298487708907,11.633157771688,2.856764168510,2.856764168510,12.863080143780,5.068590749543,False
171,trot_FR_RL,0,0.427500000000,171,171,0.855000000000,0.855000000000,False,0.333833447208,-0.038011358249,-0.005948116840,solved,9.527179445994e-08,3.455038554524e-09,3.053010852455e-01,0.239328849773,0.053529955056,0.239328849773,9.292826132406,11.970835028123,4.728597256943,4.728597256943,12.777456492473,5.075283274017,False
172,trot_FR_RL,0,0.430000000000,172,172,0.860000000000,0.860000000000,False,0.333801598187,-0.042161017342,-0.006800837667,solved,9.164592936297e-08,3.363806129931e-09,3.178377449128e-01,0.234377110146,0.047615333599,0.234377110146,9.295556698199,11.632817207175,2.764600942517,2.764600942517,12.822671180138,5.074351001822,False
173,trot_FR_RL,0,0.432500000000,173,173,0.865000000000,0.865000000000,False,0.333675227593,-0.041576963792,-0.007563556283,solved,9.634556406245e-08,3.501162548436e-09,3.107459629463e-01,0.239181416085,0.051037494656,0.239181416085,9.289980781858,11.969409612813,4.630273835397,4.630273835397,12.774912558732,5.075770937060,False
174,trot_FR_RL,0,0.435000000000,174,174,0.870000000000,0.870000000000,False,0.333565170655,-0.045718172558,-0.008415496515,solved,9.271647462360e-08,3.409644263928e-09,3.236056517187e-01,0.234249509896,0.045099069456,0.234249509896,9.292810535463,11.635379688366,2.788270141753,2.788270141753,12.865849165600,5.068212064600,False
175,trot_FR_RL,0,0.437500000000,175,175,0.875000000000,0.875000000000,False,0.333360953173,-0.045097909797,-0.009174621910,solved,9.738964714493e-08,3.544896314383e-09,3.164994407681e-01,0.239070363730,0.048498897339,0.239070363730,9.287330486314,11.973241465885,4.527010894358,4.527010894358,12.774635918309,5.074694213216,False
176,trot_FR_RL,0,0.440000000000,176,176,0.880000000000,0.880000000000,False,0.333173185613,-0.049201975256,-0.010022898632,solved,9.368229230920e-08,3.449913953679e-09,3.291349056829e-01,0.234149688094,0.042537288549,0.234149688094,9.290181555624,11.553564714476,2.821588149483,2.821588149483,12.830755596003,5.070442829514,False
177,trot_FR_RL,0,0.442500000000,177,177,0.885000000000,0.885000000000,False,0.332891487422,-0.048528327627,-0.010776388788,solved,9.835293633238e-08,3.583848866156e-09,3.219633662012e-01,0.238979871065,0.045915379123,0.238979871065,9.284760293638,11.974286328365,4.421623173534,4.421623173534,12.769247979157,5.074057884670,False
178,trot_FR_RL,0,0.445000000000,178,178,0.890000000000,0.890000000000,False,0.332626399819,-0.052577424548,-0.011618934048,solved,9.456409333185e-08,3.485507146108e-09,3.340328729666e-01,0.234065602160,0.039932162528,0.234065602160,9.287561156510,11.447535320231,2.862062128718,2.862062128718,12.816447903441,5.071597557294,False
179,trot_FR_RL,0,0.447500000000,179,179,0.895000000000,0.895000000000,False,0.332269202258,-0.051900066955,-0.012371352644,solved,9.921485959007e-08,3.618296034044e-09,3.267708706970e-01,0.238901049322,0.043289925926,0.238901049322,9.282164744480,11.973765553745,4.314621323423,4.314621323423,12.763108984166,5.073672331832,False
180,trot_FR_RL,0,0.450000000000,180,180,0.900000000000,0.900000000000,False,0.331938654133,-0.055279880678,-0.013133115835,solved,9.547874667825e-08,3.519112400284e-09,3.377852905414e-01,0.233972836953,0.037294213887,0.233972836953,9.284621261104,11.281389802615,2.745674368982,2.745674368982,12.725753755552,5.081414776665,False
181,trot_FR_RL,0,0.452500000000,181,181,0.905000000000,0.905000000000,False,0.331525922265,-0.054535178785,-0.013860329547,solved,1.003675302758e-07,3.656975204164e-09,3.344134267948e-01,0.238716205497,0.040596672590,0.238716205497,9.280902868522,11.920332491895,4.186508579501,4.186508579501,12.357329830993,5.036461889920,False
182,trot_FR_RL,0,0.455000000000,182,182,0.910000000000,0.910000000000,False,0.331137429448,-0.058370526838,-0.014649546375,solved,9.856255131531e-08,3.611654159949e-09,3.475957207889e-01,0.233607868432,0.034614692443,0.233607868432,9.283726515858,10.947229665613,2.493580311329,2.493580311329,12.293040765382,5.133009934702,False
183,trot_FR_RL,0,0.457500000000,183,183,0.915000000000,0.915000000000,False,0.330656673259,-0.057239155442,-0.015307122402,solved,1.007952638168e-07,3.664455127373e-09,3.361623545040e-01,0.238298309389,0.037964535703,0.238298309389,9.281331945668,11.877152854161,4.111586342680,4.111586342680,11.911849338035,5.089401219822,False
184,trot_FR_RL,0,0.460000000000,184,184,0.920000000000,0.920000000000,False,0.330190652963,-0.060825421121,-0.016060773336,solved,9.862003708777e-08,3.609647232662e-09,3.491872114920e-01,0.233503821905,0.031933197196,0.233503821905,9.284377894970,12.721174609079,3.472969244131,3.472969244131,12.401084151310,5.065464487153,False
185,trot_FR_RL,0,0.462500000000,185,185,0.925000000000,0.925000000000,False,0.329635826038,-0.059396775297,-0.016656848789,solved,1.010789641114e-07,3.670016322309e-09,3.366858079617e-01,0.238022472384,0.035238025649,0.238022472384,9.283031321106,11.898904522065,3.985926233717,3.985926233717,12.825334820532,5.158074905885,False
186,trot_FR_RL,0,0.465000000000,186,186,0.930000000000,0.930000000000,False,0.329117287634,-0.061337397901,-0.017180025786,solved,9.798893234195e-08,3.577098491239e-09,3.471482329316e-01,0.234712242559,0.029172522991,0.234712242559,9.286502297372,11.633963495413,2.461887108086,2.461887108086,12.482775534231,5.077760309044,False
187,trot_FR_RL,0,0.467500000000,187,187,0.935000000000,0.935000000000,False,0.328514301209,-0.059104219188,-0.017515161098,solved,1.019273112853e-07,3.683785814850e-09,3.412024878167e-01,0.237640810874,0.032363640877,0.237640810874,9.287206077784,11.811360667093,3.818846502747,3.818846502747,12.121807094227,5.134274105572,False
188,trot_FR_RL,0,0.470000000000,188,188,0.940000000000,0.940000000000,False,0.327984505979,-0.061134369945,-0.017715334469,solved,9.965668320210e-08,3.612524254265e-09,3.572662218690e-01,0.232603967029,0.026285287820,0.232603967029,9.293466208602,10.460901929516,2.574075712511,2.574075712511,12.032800325997,5.031884039297,False
189,trot_FR_RL,0,0.472500000000,189,189,0.945000000000,0.945000000000,False,0.327305971209,-0.059232973371,-0.018407995952,solved,1.018876990047e-07,3.677747420011e-09,3.433181853843e-01,0.237298067082,0.029596031295,0.237298067082,9.290607739311,11.838972709763,3.771717955221,3.771717955221,11.462206720662,5.056094420440,False
190,trot_FR_RL,0,0.475000000000,190,190,0.950000000000,0.950000000000,False,0.326740898838,-0.061264906202,-0.018227280597,solved,1.011776387698e-07,3.656849752227e-09,3.556208311634e-01,0.232494604646,0.023492566266,0.232494604646,9.294108054638,6.898052967882,2.562060821334,2.562060821334,12.939470285153,4.983099893406,False
191,trot_FR_RL,0,0.477500000000,191,191,0.955000000000,0.955000000000,False,0.326079132412,-0.058473655111,-0.018318537143,solved,1.031719223585e-07,3.704808790566e-09,3.508645426675e-01,0.237137770349,0.026877327212,0.237137770349,9.290088865726,11.807093665178,3.703330813924,3.703330813924,11.984067472679,4.913059886208,False
192,trot_FR_RL,0,0.480000000000,192,192,0.960000000000,0.960000000000,False,0.325452511845,-0.060290125342,-0.018414780581,solved,1.005260214436e-07,3.626463072119e-09,3.707344590964e-01,0.235075339459,0.020827002837,0.235075339459,9.299933694745,10.899649476802,2.859201601622,2.859201601622,11.641364312094,4.999644664518,False
193,trot_FR_RL,0,0.482500000000,193,193,0.965000000000,0.965000000000,False,0.324771256634,-0.056893210583,-0.018039387295,solved,1.028214946413e-07,3.696623103261e-09,3.538230289563e-01,0.236992687481,0.024128127907,0.236992687481,9.297407358154,11.877737347102,3.554203784640,3.554203784640,11.715825225237,5.062969854014,False
194,trot_FR_RL,0,0.485000000000,194,194,0.970000000000,0.970000000000,False,0.324112998968,-0.058174943900,-0.017622736827,solved,9.931292121291e-08,3.593932939140e-09,3.776012252647e-01,0.237895154719,0.019488596390,0.237895154719,9.311573815063,11.165920708022,3.076282671909,3.076282671909,11.849528290537,5.145426320309,False
195,trot_FR_RL,0,0.487500000000,195,195,0.975000000000,0.975000000000,False,0.323409080600,-0.054198212231,-0.016674843100,solved,1.021316586901e-07,3.673437512426e-09,3.530191818771e-01,0.236577525599,0.021406651132,0.236577525599,9.306566617696,11.786288616091,3.449524853155,3.449524853155,12.375638927733,5.044818329756,False
196,trot_FR_RL,0,0.490000000000,196,196,0.980000000000,0.980000000000,False,0.322817329226,-0.054236514335,-0.015097847284,solved,9.818994126498e-08,3.549846691996e-09,3.791270413297e-01,0.232023784151,0.020133241236,0.232023784151,9.327251801744,8.861548750544,3.266484259823,3.266484259823,11.880137338047,5.151191335863,False
197,trot_FR_RL,0,0.492500000000,197,197,0.985000000000,0.985000000000,False,0.322142646936,-0.049950286463,-0.013863053346,solved,9.879039846935e-08,3.540402722329e-09,3.499329937287e-01,0.235443565474,0.018803565475,0.235443565474,9.319870774474,11.450131592753,3.401958765832,3.401958765832,11.157347723325,4.853609062170,False
198,trot_FR_RL,0,0.495000000000,198,198,0.990000000000,0.990000000000,False,0.321563163620,-0.049903315978,-0.012355118532,solved,9.690388054758e-08,3.480078336912e-09,3.761906813510e-01,0.234762648222,0.020267645785,0.234762648222,9.344014807935,10.239469352890,3.448473091193,3.448473091193,11.273591585369,4.991575759539,False
199,trot_FR_RL,0,0.497500000000,199,199,0.995000000000,0.995000000000,False,0.320895914359,-0.045020229023,-0.011118836718,solved,9.623041989939e-08,3.427310326887e-09,3.416726188202e-01,0.236474899231,0.017325504586,0.236474899231,9.336081085150,11.572474936439,3.301286949805,3.301286949805,11.319693714391,5.097708792549,False
200,trot_FL_RR,0,0.500000000000,200,0,0.000000000000,0.000000000000,True,0.320246002568,-0.044927870153,-0.009956912145,solved,4.960126291738e-08,2.393961823877e-09,2.446777175925e-01,0.238556000407,0.238556000407,0.020449827201,7.901355405147,10.582790604302,3.907635374331,3.907635374331,12.550838050503,6.533896426222,False
201,trot_FL_RR,0,0.502500000000,201,1,0.005000000000,0.005000000000,False,0.319640597218,-0.042859935587,-0.008184600220,solved,5.186755806679e-08,2.466555722236e-09,2.478604901371e-01,0.234323184110,0.234323184110,0.017631338894,6.686488562549,11.654847825431,4.968359262882,4.968359262882,11.981676793102,6.241185306727,False
202,trot_FL_RR,0,0.505000000000,202,2,0.010000000000,0.010000000000,False,0.319026444545,-0.042347409377,-0.005808764490,solved,4.760980938115e-08,2.222750312527e-09,2.199671751349e-01,0.230518331897,0.230518331897,0.023009370030,5.651070301033,7.656728760774,2.270737070897,2.270737070897,6.931488905512,3.807083582385,False
203,trot_FL_RR,0,0.507500000000,203,3,0.015000000000,0.015000000000,False,0.318390952343,-0.041001330249,-0.003605740950,solved,5.179469967876e-08,2.347660888118e-09,2.033977766122e-01,0.236467668069,0.236467668069,0.023618252667,4.772161464681,11.685027635721,6.912866171040,6.912866171040,10.384244746958,5.751590490542,False
204,trot_FL_RR,0,0.510000000000,204,4,0.020000000000,0.020000000000,False,0.317761983777,-0.039684952402,-0.001103681930,solved,5.233658450119e-08,2.324070398601e-09,1.961831679389e-01,0.232944378345,0.232944378345,0.031352752115,5.568086234745,6.651675968898,2.698615374430,2.698615374430,10.486281437926,6.621114293105,False
205,trot_FL_RR,0,0.512500000000,205,5,0.025000000000,0.025000000000,False,0.317085089600,-0.036987817027,0.001176863103,solved,5.171699395191e-08,2.280862203475e-09,1.868371052624e-01,0.224212535809,0.224212535809,0.045625485373,6.251756492273,8.975852212802,2.730826063406,2.730826063406,6.430328968823,3.192250698488,False
206,trot_FL_RR,0,0.515000000000,206,6,0.030000000000,0.030000000000,False,0.316372953654,-0.036764668405,0.003605202135,solved,4.622385982206e-08,2.043959160077e-09,1.674616299423e-01,0.223294621699,0.223294621699,0.049073925510,6.828483101884,9.860607977033,4.691477260622,4.691477260622,9.488777369420,5.975878843881,False
207,trot_FL_RR,0,0.517500000000,207,7,0.035000000000,0.035000000000,False,0.315687787393,-0.033285626755,0.006063838125,solved,5.744821211746e-08,2.434876408797e-09,1.906466407673e-01,0.214284943627,0.214284943627,0.060233782172,7.318279806927,7.765471637068,2.644686090673,2.644686090673,10.376204794867,5.676810965822,False
208,trot_FL_RR,0,0.520000000000,208,8,0.040000000000,0.040000000000,False,0.314922170931,-0.033397047756,0.008361669685,solved,5.064879826008e-08,2.079378526550e-09,1.481876328276e-01,0.214984933969,0.214984933969,0.076127520865,7.728760226896,10.687581382193,6.210828877428,6.210828877428,10.123190289401,5.376724722301,False
209,trot_FL_RR,0,0.522500000000,209,9,0.045000000000,0.045000000000,False,0.314126315313,-0.029369385583,0.011139530447,solved,5.431386129319e-08,2.269701229648e-09,1.672505772527e-01,0.207253128570,0.207253128570,0.082072819883,8.057311709947,11.709909551537,3.652597841590,3.652597841590,11.001439527606,5.124005918886,False
210,trot_FL_RR,0,0.525000000000,210,10,0.050000000000,0.050000000000,False,0.313343621352,-0.030129811837,0.013754753088,solved,5.443878820727e-08,2.222170026981e-09,1.245633824345e-01,0.194421625424,0.194421625424,0.093710179317,8.352627582430,9.189113734706,5.672155698179,5.672155698179,11.597533185100,6.078214763846,False
211,trot_FL_RR,0,0.527500000000,211,11,0.055000000000,0.055000000000,False,0.312477944467,-0.025839749313,0.016251134365,solved,6.096878466772e-08,2.452526794891e-09,1.423899362057e-01,0.192362713347,0.192362713347,0.111451461682,8.568822370610,12.959904730495,4.948322005851,4.948322005851,11.870238783753,5.556837729784,False
212,trot_FL_RR,0,0.530000000000,212,12,0.060000000000,0.060000000000,False,0.311606229028,-0.026654847327,0.018792373296,solved,5.153709505134e-08,2.126926890483e-09,1.144638794581e-01,0.182401332187,0.182401332187,0.116945346118,8.767900426610,10.618977075225,4.837392038982,4.837392038982,11.238339505876,6.037577851889,False
213,trot_FL_RR,0,0.532500000000,213,13,0.065000000000,0.065000000000,False,0.310685640673,-0.021923779969,0.021191128708,solved,6.605527948543e-08,2.642233754318e-09,1.268603013640e-01,0.181948803611,0.181948803611,0.129820158478,8.910452821832,11.363551752713,5.661730013535,5.661730013535,11.064442929667,4.870591958434,False
214,trot_FL_RR,0,0.535000000000,214,14,0.070000000000,0.070000000000,False,0.309732673800,-0.022747490767,0.023591401210,solved,5.788997635173e-08,2.364780079159e-09,1.086254675734e-01,0.173344507429,0.173344507429,0.131423704311,9.049255220872,11.093831452926,6.021740743439,6.021740743439,12.222359172616,5.641375022444,False
215,trot_FL_RR,0,0.537500000000,215,15,0.075000000000,0.075000000000,False,0.308766565120,-0.018289155460,0.025945887975,solved,6.884433555341e-08,2.741895082900e-09,1.135749804368e-01,0.173280699635,0.173280699635,0.141035675057,9.146607306694,10.393812486156,5.713228060333,5.713228060333,12.427190283326,5.575325852067,False
216,trot_FL_RR,0,0.540000000000,216,16,0.080000000000,0.080000000000,False,0.307806872681,-0.016214920805,0.027554682330,solved,6.231830697160e-08,2.487199564426e-09,1.160896151424e-01,0.165023753807,0.165023753807,0.152902241481,9.243535410403,12.050995324684,3.455975999576,3.455975999576,9.553244762640,4.330617506466,False
217,trot_FL_RR,0,0.542500000000,217,17,0.085000000000,0.085000000000,False,0.306944891710,-0.011960401398,0.029618093385,solved,6.696879730857e-08,2.682463653488e-09,1.161526913676e-01,0.164772126745,0.164772126745,0.155226459527,9.306092587807,8.964802004388,5.463986937584,5.463986937584,8.824152799886,4.645421554166,False
218,trot_FL_RR,0,0.545000000000,218,18,0.090000000000,0.090000000000,False,0.306062831367,-0.010472928194,0.030316664440,solved,6.930176312371e-08,2.808855706419e-09,1.520961825733e-01,0.164316586217,0.156204278620,0.164316586217,9.381983904277,11.276314543316,5.172004853231,5.172004853231,9.453684027372,5.629900958560,False
219,trot_FL_RR,0,0.547500000000,219,19,0.095000000000,0.095000000000,False,0.305241318548,-0.003800273739,0.031343069475,solved,7.713838510113e-08,3.028427806290e-09,1.243298298636e-01,0.162920728636,0.157002528796,0.162920728636,9.415877327313,9.642951401764,5.852388608624,5.852388608624,10.258327032704,5.283139807236,False
220,trot_FL_RR,0,0.550000000000,220,20,0.100000000000,0.100000000000,False,0.304475546169,-0.002120260304,0.031254610123,solved,7.112940857638e-08,2.843445421289e-09,1.700366792688e-01,0.169079204964,0.149370420282,0.169079204964,9.476035117112,10.080432415837,6.356846083581,6.356846083581,11.240529113747,5.496479540219,False
221,trot_FL_RR,0,0.552500000000,221,21,0.105000000000,0.105000000000,False,0.303738129422,0.005181393705,0.031156271493,solved,8.030731113349e-08,3.142743317128e-09,1.451689458195e-01,0.177950486040,0.149540372846,0.177950486040,9.492404069607,11.797053461252,5.379142435038,5.379142435038,9.133520254667,4.567587333517,False
222,trot_FL_RR,0,0.555000000000,222,22,0.110000000000,0.110000000000,False,0.303166412969,0.007332559140,0.030671122723,solved,7.459869212559e-08,2.925604424753e-09,1.814893927457e-01,0.177334084883,0.141480824346,0.177334084883,9.535641946283,8.540857519549,2.515566650931,2.515566650931,9.815593441250,4.785967630102,False
223,trot_FL_RR,0,0.557500000000,223,23,0.115000000000,0.115000000000,False,0.302704005607,0.013278579286,0.030213087014,solved,8.192105986161e-08,3.153564266581e-09,1.581013495433e-01,0.182229522308,0.142103677633,0.182229522308,9.538571635792,9.930609435612,5.397000867230,5.397000867230,8.628849585333,4.401257608337,False
224,trot_FL_RR,0,0.560000000000,224,24,0.120000000000,0.120000000000,False,0.302373896640,0.014278199500,0.028817915710,solved,7.896220700316e-08,3.048271670101e-09,2.006178818210e-01,0.187069882946,0.134639581124,0.187069882946,9.572239743187,10.049524885578,5.030357500158,5.030357500158,9.052908933841,5.511818434879,False
225,trot_FL_RR,0,0.562500000000,225,25,0.125000000000,0.125000000000,False,0.302185066943,0.020186879101,0.028052110348,solved,8.337359712728e-08,3.158331326289e-09,1.748294621873e-01,0.192151148283,0.136202363005,0.192151148283,9.565211915053,10.317849296252,5.681880404222,5.681880404222,8.990642773141,4.596130501854,False
226,trot_FL_RR,0,0.565000000000,226,26,0.130000000000,0.130000000000,False,0.302157850435,0.020885995386,0.026824123950,solved,8.116345315427e-08,3.090639648327e-09,2.148551201441e-01,0.196677829078,0.129286801440,0.196677829078,9.592389599179,10.163363131094,6.011732666411,6.011732666411,9.873126196361,5.404664885678,False
227,trot_FL_RR,0,0.567500000000,227,27,0.135000000000,0.135000000000,False,0.302297181457,0.025101430943,0.026615469758,solved,8.461834111620e-08,3.173810425556e-09,1.941767139107e-01,0.201422132855,0.131401520997,0.201422132855,9.582995342591,10.405896359484,5.803806981660,5.803806981660,9.174781556173,4.616618863096,False
228,trot_FL_RR,0,0.570000000000,228,28,0.140000000000,0.140000000000,False,0.302581866192,0.024309836427,0.025818037362,solved,8.379291024861e-08,3.148454022466e-09,2.219167860557e-01,0.205703303030,0.124930577674,0.205703303030,9.593685839113,10.296219821789,5.798769262991,5.798769262991,8.654361237813,4.532093336992,False
229,trot_FL_RR,0,0.572500000000,229,29,0.145000000000,0.145000000000,False,0.303033835086,0.028447895853,0.026115692446,solved,8.607211317024e-08,3.204010368343e-09,2.103202960648e-01,0.209806593485,0.127801239165,0.209806593485,9.581591040389,10.332319472799,6.075070205346,6.075070205346,9.300687198273,4.803356560678,False
230,trot_FL_RR,0,0.575000000000,230,30,0.150000000000,0.150000000000,False,0.303616404361,0.027571943536,0.025847843667,solved,8.480262728866e-08,3.163735407637e-09,2.302549242831e-01,0.213295934158,0.121737501288,0.213295934158,9.585369529280,10.138528226469,6.523224859438,6.523224859438,10.013000426023,5.292385642326,False
231,trot_FL_RR,0,0.577500000000,231,31,0.155000000000,0.155000000000,False,0.304303426304,0.030302132067,0.026113127901,solved,8.662753883273e-08,3.213706371266e-09,2.291781118507e-01,0.216907439438,0.124900694361,0.216907439438,9.577255820208,10.331566207514,6.141261059249,6.141261059249,9.404052853039,4.756845611330,False
232,trot_FL_RR,0,0.580000000000,232,32,0.160000000000,0.160000000000,False,0.305148525658,0.028480945279,0.026346195173,solved,8.593575558509e-08,3.188970875496e-09,2.397301629652e-01,0.219678426564,0.119306749869,0.219678426564,9.571870639249,10.023444617525,1.850678434346,1.850678434346,6.483154796105,4.586604292192,False
233,trot_FL_RR,0,0.582500000000,233,33,0.165000000000,0.165000000000,False,0.305992432498,0.032115263367,0.026379249424,solved,8.693147229965e-08,3.224788925374e-09,2.361709749003e-01,0.223565743555,0.119628032023,0.223565743555,9.565900137684,10.750951673305,4.538239878590,4.538239878590,7.279451746218,3.201170831429,False
234,trot_FL_RR,0,0.585000000000,234,34,0.170000000000,0.170000000000,False,0.307013901910,0.030933624359,0.026595715640,solved,8.639915177750e-08,3.212558296623e-09,2.531995942469e-01,0.223477580958,0.111759879970,0.223477580958,9.558439595911,9.220846909160,2.386602358371,2.386602358371,9.489163579145,4.397322316072,False
235,trot_FL_RR,0,0.587500000000,235,35,0.175000000000,0.175000000000,False,0.308138939859,0.033750121310,0.027772545253,solved,8.640614362322e-08,3.207370631876e-09,2.530555680556e-01,0.225665003809,0.114201950659,0.225665003809,9.550673704191,10.040730931557,5.404794718536,5.404794718536,9.573990067179,5.263877156017,False
236,trot_FL_RR,0,0.590000000000,236,36,0.180000000000,0.180000000000,False,0.309292459701,0.032696419129,0.027917081336,solved,8.643154360073e-08,3.205717008156e-09,2.642102503757e-01,0.228632009892,0.107854302420,0.228632009892,9.533734400463,10.596210166484,2.495881823275,2.495881823275,8.588006470637,4.639621168104,False
237,trot_FL_RR,0,0.592500000000,237,37,0.185000000000,0.185000000000,False,0.310476487297,0.035571612508,0.028961716891,solved,8.672801041880e-08,3.219471770093e-09,2.697118434019e-01,0.230025491693,0.111504204451,0.230025491693,9.522436907805,10.972767315121,5.919147349431,5.919147349431,9.122812591636,5.153973799000,False
238,trot_FL_RR,0,0.595000000000,238,38,0.190000000000,0.190000000000,False,0.311706768129,0.034149556679,0.029477290095,solved,8.694033338636e-08,3.223183730600e-09,2.774298630478e-01,0.232893587310,0.106098507964,0.232893587310,9.502002877967,10.776145093219,2.826866307766,2.826866307766,8.735935065572,4.734535922676,False
239,trot_FL_RR,0,0.597500000000,239,39,0.195000000000,0.195000000000,False,0.312927136579,0.036446110678,0.030879118264,solved,8.676938994620e-08,3.200073500899e-09,2.903864492881e-01,0.232449489648,0.110651880024,0.232449489648,9.493984529625,11.307837897249,6.355906453090,6.355906453090,8.736526460950,5.171295026335,False
240,trot_FL_RR,0,0.600000000000,240,40,0.200000000000,0.200000000000,False,0.314210842090,0.035020364942,0.031546436961,solved,8.908167585832e-08,3.266684373313e-09,2.873419473060e-01,0.234636164663,0.105929478365,0.234636164663,9.471381617745,10.555570317101,3.020148370574,3.020148370574,9.708110002894,4.817623681108,False
241,trot_FL_RR,0,0.602500000000,241,41,0.205000000000,0.205000000000,False,0.315546626320,0.038243988148,0.032933129950,solved,8.790455590605e-08,3.212251348678e-09,3.060597699968e-01,0.235376409309,0.107923486691,0.235376409309,9.467053603754,9.875260383172,4.986117274488,4.986117274488,8.752294259868,4.280298420500,False
242,trot_FL_RR,0,0.605000000000,242,42,0.210000000000,0.210000000000,False,0.316821934637,0.037208145499,0.033812262081,solved,9.014307937840e-08,3.282784596830e-09,3.006086969038e-01,0.240174623836,0.101212795935,0.240174623836,9.441124239433,12.100702327152,3.535780793829,3.535780793829,9.597822668352,4.611243595225,False
243,trot_FL_RR,0,0.607500000000,243,43,0.215000000000,0.215000000000,False,0.318122377577,0.040305499426,0.035220943705,solved,9.064034083321e-08,3.289199589491e-09,3.215512820569e-01,0.235399776492,0.104603596765,0.235399776492,9.440343021777,7.119303781129,5.570794139126,5.570794139126,12.519122028144,5.195920459862,False
244,trot_FL_RR,0,0.610000000000,244,44,0.220000000000,0.220000000000,False,0.319415825121,0.041322630022,0.035531356950,solved,9.260754052205e-08,3.348774751828e-09,3.219571207256e-01,0.237232581662,0.099071959542,0.237232581662,9.421978166327,10.485209555324,2.448827647205,2.448827647205,9.842955440709,4.673590153249,False
245,trot_FL_RR,0,0.612500000000,245,45,0.225000000000,0.225000000000,False,0.320668336354,0.044458532735,0.036722639612,solved,8.956387923404e-08,3.227033433232e-09,3.191713552968e-01,0.238904199718,0.103395271063,0.238904199718,9.412446705017,11.474599984357,6.008251963371,6.008251963371,8.174772401957,5.111047977494,False
246,trot_FL_RR,0,0.615000000000,246,46,0.230000000000,0.230000000000,False,0.321934777421,0.044012287575,0.037172545190,solved,9.162387538626e-08,3.313404904751e-09,3.257800511951e-01,0.242958529871,0.098619647422,0.242958529871,9.393756332127,11.787125103724,2.765776225302,2.765776225302,9.470985478429,4.732628632915,False
247,trot_FL_RR,0,0.617500000000,247,47,0.235000000000,0.235000000000,False,0.323176375597,0.047750240602,0.037945349048,solved,9.207549443643e-08,3.317893478006e-09,3.391366254062e-01,0.237660790775,0.103592224427,0.237660790775,9.395026934876,10.676918978672,6.358408680290,6.358408680290,11.671226639748,5.082785349835,False
248,trot_FL_RR,0,0.620000000000,248,48,0.240000000000,0.240000000000,False,0.324351981025,0.047342552273,0.038304767452,solved,9.428855503533e-08,3.373521216873e-09,3.358764248959e-01,0.240814586050,0.099314906999,0.240814586050,9.372090428335,12.121950492258,2.752088790600,2.752088790600,10.489977820558,4.788633047668,False
249,trot_FL_RR,0,0.622500000000,249,49,0.245000000000,0.245000000000,False,0.325518736395,0.051386483368,0.039155135668,solved,9.334312862511e-08,3.309079212624e-09,3.545288064062e-01,0.234835631144,0.101070599842,0.234835631144,9.376459656197,7.119096185520,5.390055103538,5.390055103538,11.584579712421,5.007223534600,False
250,trot_FL_RR,0,0.625000000000,250,50,0.250000000000,0.250000000000,False,0.326617770010,0.051037647044,0.039467956408,solved,9.633842079095e-08,3.403711096457e-09,3.535692932924e-01,0.238159806160,0.094203813140,0.238159806160,9.356483498661,11.406567044672,2.877759943492,2.877759943492,11.764885001318,4.764736357248,False
251,trot_FL_RR,0,0.627500000000,251,51,0.255000000000,0.255000000000,False,0.327704445954,0.055097713900,0.040271107780,solved,9.343505320035e-08,3.279106089112e-09,3.707710297989e-01,0.232314808842,0.097446140446,0.232314808842,9.364514594135,6.538366702639,5.282753798138,5.282753798138,11.805391682112,5.194161896709,False
252,trot_FL_RR,0,0.630000000000,252,52,0.260000000000,0.260000000000,False,0.328736524215,0.054987877300,0.040543290173,solved,9.841812810181e-08,3.451693625166e-09,3.654580082987e-01,0.236095610682,0.091743220925,0.236095610682,9.344023009331,11.276324592071,3.013027907846,3.013027907846,11.965549172723,4.951146523295,False
253,trot_FL_RR,0,0.632500000000,253,53,0.265000000000,0.265000000000,False,0.329751505729,0.059214415825,0.041304663140,solved,9.499774427927e-08,3.308039361975e-09,3.868213237943e-01,0.230589514405,0.095875965968,0.230589514405,9.352447056145,7.401683659630,5.683113993375,5.683113993375,11.963268545055,5.093258635245,False
254,trot_FL_RR,0,0.635000000000,254,54,0.270000000000,0.270000000000,False,0.330706739072,0.059199454993,0.041573526150,solved,9.941172244754e-08,3.453907662977e-09,3.819560695118e-01,0.234805294084,0.090870129927,0.234805294084,9.332889189189,12.088145904715,3.002796382741,3.002796382741,12.074406448731,5.026447858658,False
255,trot_FL_RR,0,0.637500000000,255,55,0.275000000000,0.275000000000,False,0.331643956113,0.063489377448,0.042333610972,solved,9.620178947818e-08,3.326662763545e-09,4.031756282961e-01,0.229622360057,0.095526805435,0.229622360057,9.341620422912,7.105108313672,5.949007246602,5.949007246602,12.390950411837,5.027672353002,False
256,trot_FL_RR,0,0.640000000000,256,56,0.280000000000,0.280000000000,False,0.332520778178,0.063531597501,0.042598568428,solved,1.005652318516e-07,3.469325022016e-09,3.984369439206e-01,0.234067212042,0.090929008221,0.234067212042,9.323096526760,11.947374220253,2.988924467552,2.988924467552,12.166761406784,4.995775536889,False
257,trot_FL_RR,0,0.642500000000,257,57,0.285000000000,0.285000000000,False,0.333379458383,0.067870916640,0.043353310700,solved,9.738981097680e-08,3.348269113920e-09,4.193379621438e-01,0.229043195221,0.095897137104,0.229043195221,9.332457670871,6.995055598010,6.137426067711,6.137426067711,12.351088699453,4.991856428229,False
258,trot_FL_RR,0,0.645000000000,258,58,0.290000000000,0.290000000000,False,0.334176260055,0.067984441017,0.043602875110,solved,1.017036956376e-07,3.488417425616e-09,4.145410196360e-01,0.233593423940,0.091539847456,0.233593423940,9.314964428666,11.862297654570,2.987172662461,2.987172662461,12.195983966192,4.975678715565,False
259,trot_FL_RR,0,0.647500000000,259,59,0.295000000000,0.295000000000,False,0.334954203259,0.072372678445,0.044325042660,solved,9.852245178478e-08,3.371053837362e-09,4.348076030540e-01,0.228640754853,0.096632419752,0.228640754853,9.324721507170,6.929834995043,6.246849657996,6.246849657996,12.276641920550,4.943772268881,False
260,trot_FL_RR,0,0.650000000000,260,60,0.300000000000,0.300000000000,False,0.335671293122,0.072502920782,0.044554772909,solved,1.027443315842e-07,3.508424465769e-09,4.300740222375e-01,0.233237115712,0.092381789749,0.233237115712,9.308500420549,11.813456443262,3.005718954436,3.005718954436,12.199112722446,4.962546205375,False
261,trot_FL_RR,0,0.652500000000,261,61,0.305000000000,0.305000000000,False,0.336370639877,0.076918833001,0.045277581104,solved,9.958644397329e-08,3.395367301871e-09,4.497801137626e-01,0.228623343366,0.097613030663,0.228623343366,9.318886800585,6.887151914524,6.373747050913,6.373747050913,12.320617359540,4.960383444997,False
262,trot_FL_RR,0,0.655000000000,262,62,0.310000000000,0.310000000000,False,0.337003715813,0.077213568466,0.045536342987,solved,1.038493119768e-07,3.533435228776e-09,4.455387044843e-01,0.233432806226,0.093456655087,0.233432806226,9.303312916862,11.776077062194,3.008979907585,3.008979907585,12.219735987318,4.955829174164,False
263,trot_FL_RR,0,0.657500000000,263,63,0.315000000000,0.315000000000,False,0.337620104186,0.081766468741,0.046280802538,solved,1.004839844653e-07,3.415921690758e-09,4.639229123147e-01,0.228768726427,0.096648124805,0.228768726427,9.313786151351,6.855412221430,5.333798902541,5.333798902541,11.778231174041,4.953523777985,False
264,trot_FL_RR,0,0.660000000000,264,64,0.320000000000,0.320000000000,False,0.338175810215,0.082036080484,0.046525728363,solved,1.047366739306e-07,3.554782829807e-09,4.606754710123e-01,0.233517170264,0.090892581503,0.233517170264,9.298578564061,11.750943646337,3.063875642266,3.063875642266,12.149304027414,4.949477821600,False
265,trot_FL_RR,0,0.662500000000,265,65,0.325000000000,0.325000000000,False,0.338714600959,0.086569746533,0.047258974220,solved,1.013017987742e-07,3.436121807839e-09,4.796375630852e-01,0.228819531547,0.094924096993,0.228819531547,9.309821627612,6.836330554674,5.704107138527,5.704107138527,12.363160968804,5.065343436040,False
266,trot_FL_RR,0,0.665000000000,266,66,0.330000000000,0.330000000000,False,0.339192223881,0.086824596161,0.047494608700,solved,1.056670230394e-07,3.578006686263e-09,4.758407278849e-01,0.233554264846,0.089819758084,0.233554264846,9.294985045908,11.735806382712,3.056000974571,3.056000974571,12.186124146265,4.949061601439,False
267,trot_FL_RR,0,0.667500000000,267,67,0.335000000000,0.335000000000,False,0.339652883919,0.091347005830,0.048220273578,solved,1.021681908742e-07,3.458402931679e-09,4.951769495972e-01,0.228857898534,0.094346995131,0.228857898534,9.306848316051,6.824592396717,5.948121877317,5.948121877317,12.331487187135,5.007596861241,False
268,trot_FL_RR,0,0.670000000000,268,68,0.340000000000,0.340000000000,False,0.340050669532,0.091571770229,0.048444155363,solved,1.066164581753e-07,3.602481188903e-09,4.909889750560e-01,0.233604683547,0.089624116186,0.233604683547,9.292374285622,11.727326914034,3.052745008948,3.052745008948,12.209796787545,4.949610518684,False
269,trot_FL_RR,0,0.672500000000,269,69,0.345000000000,0.345000000000,False,0.340431869336,0.096071552198,0.049161178508,solved,1.028612604810e-07,3.474227242982e-09,5.108458283842e-01,0.228924399467,0.094440641743,0.228924399467,9.305032046692,6.817780761274,6.115855065810,6.115855065810,12.195740502601,4.973228057838,False
270,trot_FL_RR,0,0.675000000000,270,70,0.350000000000,0.350000000000,False,0.340751492862,0.096300894541,0.049384262568,solved,1.076260864169e-07,3.629233672348e-09,5.057536167404e-01,0.233690237275,0.089936594415,0.233690237275,9.290538873934,11.723341079205,3.065825009129,3.065825009129,12.209294753333,4.950448881376,False
271,trot_FL_RR,0,0.677500000000,271,71,0.355000000000,0.355000000000,False,0.341054519511,0.100804028096,0.050100145352,solved,1.038525371978e-07,3.501334309660e-09,5.259737323618e-01,0.229030198895,0.094911759883,0.229030198895,9.303431548766,6.817166915158,6.233512805669,6.233512805669,12.311231878193,4.961036051182,False
272,trot_FL_RR,0,0.680000000000,272,72,0.360000000000,0.360000000000,False,0.341295625254,0.101035985105,0.050322070248,solved,1.085737443370e-07,3.654056047912e-09,5.208569866867e-01,0.233811987641,0.090524908557,0.233811987641,9.289304113838,11.724286662671,3.059630807542,3.059630807542,12.225541636819,4.950961315625,False
273,trot_FL_RR,0,0.682500000000,273,73,0.365000000000,0.365000000000,False,0.341520212353,0.105541017882,0.051036675218,solved,1.048372192588e-07,3.528519238799e-09,5.410651359871e-01,0.229161602841,0.095582703068,0.229161602841,9.302384881640,6.819167913811,6.321351259629,6.321351259629,12.298338311646,4.960869267414,False
274,trot_FL_RR,0,0.685000000000,274,74,0.370000000000,0.370000000000,False,0.341681448221,0.105791819818,0.051268956916,solved,1.095431449479e-07,3.680109927775e-09,5.359194088755e-01,0.233945885492,0.091253061810,0.233945885492,9.288522015061,11.726987142615,3.057628028804,3.057628028804,12.235614478644,4.950989887296,False
275,trot_FL_RR,0,0.687500000000,275,75,0.375000000000,0.375000000000,False,0.341826558888,0.110311032402,0.051991649882,solved,1.058245462003e-07,3.556255636339e-09,5.560224010732e-01,0.229287026514,0.095716337345,0.229287026514,9.301672241571,6.820201137989,6.049310966997,6.049310966997,12.147553381884,4.962345964298,False
276,trot_FL_RR,0,0.690000000000,276,76,0.380000000000,0.380000000000,False,0.341907317268,0.110520783555,0.052210184168,solved,1.104844630914e-07,3.706129142918e-09,5.513831524914e-01,0.234057349625,0.090914597745,0.234057349625,9.288088683664,11.728500593299,3.064606514001,3.064606514001,12.219219675493,4.950580132832,False
277,trot_FL_RR,0,0.692500000000,277,77,0.385000000000,0.385000000000,False,0.341972499923,0.115009105194,0.052923127133,solved,1.064415350206e-07,3.570459873020e-09,5.718018052676e-01,0.229380002317,0.095631861148,0.229380002317,9.301880195062,6.821828463376,6.193144949674,6.193144949674,12.124946425293,4.961981441742,False
278,trot_FL_RR,0,0.695000000000,278,78,0.390000000000,0.390000000000,False,0.341974832573,0.115278046543,0.053139048926,solved,1.115334872401e-07,3.735335774861e-09,5.659354710300e-01,0.234128283522,0.091020293339,0.234128283522,9.287832560253,11.729715699196,3.085761751232,3.085761751232,12.206111165314,4.949665424321,False
279,trot_FL_RR,0,0.697500000000,279,79,0.395000000000,0.395000000000,False,0.341961531412,0.119816677249,0.053848479292,solved,1.074285650655e-07,3.598672269545e-09,5.861578398184e-01,0.229436230958,0.095867347093,0.229436230958,9.301363841648,6.827382001723,6.287783251960,6.287783251960,12.264875030570,4.957241950311,False
280,trot_FL_RR,0,0.700000000000,280,80,0.400000000000,0.400000000000,False,0.341885727367,0.120081076502,0.054065555539,solved,1.124579202101e-07,3.760830611653e-09,5.801283777685e-01,0.234167177957,0.091350563844,0.234167177957,9.287289140536,11.733509135399,3.091227526389,3.091227526389,12.220313190994,4.947024137966,False
281,trot_FL_RR,0,0.702500000000,281,81,0.405000000000,0.405000000000,False,0.341794306805,0.124614790353,0.054775472571,solved,1.084491336578e-07,3.628759324088e-09,6.008607023020e-01,0.229451671793,0.096267447332,0.229451671793,9.300884150331,6.826479734107,6.359150336682,6.359150336682,12.302917975424,4.964923439699,False
282,trot_FL_RR,0,0.705000000000,282,82,0.410000000000,0.410000000000,False,0.341637746785,0.124909332434,0.055016100586,solved,1.134046606855e-07,3.787700798332e-09,5.949834097626e-01,0.234162688894,0.091797411161,0.234162688894,9.287079053110,11.732067634462,3.083252021416,3.083252021416,12.232299272601,4.946786962848,False
283,trot_FL_RR,0,0.707500000000,283,83,0.415000000000,0.415000000000,False,0.341466188806,0.129464689379,0.055744663187,solved,1.094747332825e-07,3.659507176996e-09,6.154741897660e-01,0.229424759179,0.095477046528,0.229424759179,9.300585395784,6.820780532751,5.729478109356,5.729478109356,12.015767418588,4.967603267938,False
284,trot_FL_RR,0,0.710000000000,284,84,0.420000000000,0.420000000000,False,0.341231973166,0.129739500502,0.055977325193,solved,1.142939020628e-07,3.814017514569e-09,6.107715936177e-01,0.234121297761,0.090032451937,0.234121297761,9.287148541667,11.727268816432,3.092824365179,3.092824365179,12.195438447926,4.946934687822,False
285,trot_FL_RR,0,0.712500000000,285,85,0.425000000000,0.425000000000,False,0.340982661534,0.134278992148,0.056699365842,solved,1.103921377368e-07,3.687074280298e-09,6.309320469101e-01,0.229383297702,0.094201627468,0.229383297702,9.300770970884,6.820554395149,5.944230565043,5.944230565043,12.320982238275,4.985339248720,False
286,trot_FL_RR,0,0.715000000000,286,86,0.430000000000,0.430000000000,False,0.340670305918,0.134540845719,0.056927018445,solved,1.152363532701e-07,3.841725345599e-09,6.259550481336e-01,0.234083755894,0.089132876245,0.234083755894,9.301088225157,11.726664522814,3.086989357390,3.086989357390,12.218273316944,4.947146084312,False
287,trot_FL_RR,0,0.717500000000,287,87,0.435000000000,0.435000000000,False,0.340342873747,0.139069860976,0.057644914783,solved,1.113511703198e-07,3.715997723511e-09,6.462776826949e-01,0.229353375720,0.093584102094,0.229353375720,9.309706770318,6.819879841723,6.081535703495,6.081535703495,12.301716509083,4.964853394067,False
288,trot_FL_RR,0,0.720000000000,288,88,0.440000000000,0.440000000000,False,0.339951152910,0.139307620271,0.057865594264,solved,1.162132771733e-07,3.870720236283e-09,6.411092555965e-01,0.234064448320,0.088728456141,0.234064448320,9.317791932606,11.726154111956,3.084649516209,3.084649516209,12.233048012856,4.947559935665,False
289,trot_FL_RR,0,0.722500000000,289,89,0.445000000000,0.445000000000,False,0.339544667091,0.143818025811,0.058578402956,solved,1.121920898815e-07,3.740341400128e-09,6.617483711683e-01,0.229345190859,0.093337324503,0.229345190859,9.326554751655,6.818887671836,6.171493291928,6.171493291928,12.205623497099,4.964688979613,False
290,trot_FL_RR,0,0.725000000000,290,90,0.450000000000,0.450000000000,False,0.339074743784,0.144056720407,0.058799739344,solved,1.172480217238e-07,3.901503513293e-09,6.559525844248e-01,0.234068744162,0.088596606752,0.234068744162,9.334799093271,11.725787437794,3.094189041860,3.094189041860,12.231449828352,4.948049157919,False
291,trot_FL_RR,0,0.727500000000,291,91,0.455000000000,0.455000000000,False,0.338590093909,0.148567386313,0.059512695446,solved,1.132553744751e-07,3.772704266698e-09,6.768361486442e-01,0.229363477241,0.093283628372,0.229363477241,9.343773326920,6.819904534468,6.229458711405,6.229458711405,12.290143395107,4.964191323710,False
292,trot_FL_RR,0,0.730000000000,292,92,0.460000000000,0.460000000000,False,0.338041708901,0.148805851477,0.059734334545,solved,1.182548765346e-07,3.931420082896e-09,6.710841260184e-01,0.234099448892,0.088596074088,0.234099448892,9.352092589336,11.727147103343,3.090023555158,3.090023555158,12.242660651909,4.948385916049,False
293,trot_FL_RR,0,0.732500000000,293,93,0.465000000000,0.465000000000,False,0.337478697151,0.153316006127,0.060447255508,solved,1.143195705424e-07,3.805237301975e-09,6.919390745520e-01,0.229404154191,0.093315366318,0.229404154191,9.361272177784,6.821533984137,6.267938044114,6.267938044114,12.281231362294,4.964084462726,False
294,trot_FL_RR,0,0.735000000000,294,94,0.470000000000,0.470000000000,False,0.336851699837,0.153553638923,0.060669124207,solved,1.192881392489e-07,3.962496624497e-09,6.862068201106e-01,0.234147125324,0.088644741043,0.234147125324,9.369693689790,11.728993957583,3.089007308782,3.089007308782,12.250012856314,4.948551265160,False
295,trot_FL_RR,0,0.737500000000,295,95,0.475000000000,0.475000000000,False,0.336210211603,0.158062908913,0.061382015528,solved,1.153882688528e-07,3.838104664688e-09,7.070635512982e-01,0.229455494187,0.093368096452,0.229455494187,9.379070792810,6.823464292474,6.293181519632,6.293181519632,12.275393510927,4.964168653081,False
296,trot_FL_RR,0,0.740000000000,296,96,0.480000000000,0.480000000000,False,0.335504125347,0.158326858815,0.061601598525,solved,1.203417340891e-07,3.994524724572e-09,7.013326753066e-01,0.234198826774,0.088692087390,0.234198826774,9.387608693862,11.730922109448,3.089831695400,3.089831695400,12.254849358225,4.948466067005,False
297,trot_FL_RR,0,0.742500000000,297,97,0.485000000000,0.485000000000,False,0.334783726101,0.162859143228,0.062312114781,solved,1.164242412246e-07,3.870234409450e-09,7.218191300981e-01,0.229507806155,0.093399494495,0.229507806155,9.397143226838,6.827064258408,6.307588378502,6.307588378502,12.243286005323,4.961345371738,False
298,trot_FL_RR,0,0.745000000000,298,98,0.490000000000,0.490000000000,False,0.333998936099,0.163115544021,0.062532382932,solved,1.214060283874e-07,4.027514880448e-09,7.158967527007e-01,0.234248244756,0.088702566912,0.234248244756,9.405841527950,11.733945656091,3.100919545148,3.100919545148,12.256256205994,4.947292411973,False
299,trot_FL_RR,0,0.747500000000,299,99,0.495000000000,0.495000000000,False,0.333199998909,0.167641222936,0.063243334508,solved,1.174960345808e-07,3.904068505922e-09,7.368019115889e-01,0.229548279351,0.093387359594,0.229548279351,9.415569461835,6.827675040278,6.316917125286,6.316917125286,12.270465493734,4.965529516499,False
300,trot_FL_RR,0,0.750000000000,300,100,0.500000000000,0.500000000000,False,0.332336474431,0.167891495728,0.063464391319,solved,1.224751091353e-07,4.061015520607e-09,7.308902182669e-01,0.234279029015,0.088663830400,0.234279029015,9.424387576551,11.734391055424,3.101368043312,3.101368043312,12.259071325049,4.947200219930,False
301,trot_FL_RR,0,0.752500000000,301,101,0.505000000000,0.505000000000,False,0.331458975260,0.172411853159,0.064175867789,solved,1.185810270211e-07,3.938499316049e-09,7.518414633014e-01,0.229569256367,0.093318663914,0.229569256367,9.434306451929,6.827868638669,6.320293723654,6.320293723654,12.268130657575,4.965836316884,False
302,trot_FL_RR,0,0.755000000000,302,102,0.510000000000,0.510000000000,False,0.330516563524,0.172654893765,0.064397231971,solved,1.235614461410e-07,4.095278196319e-09,7.459259841031e-01,0.234290839908,0.088562716524,0.234290839908,9.443250838062,11.734360203797,3.102621248646,3.102621248646,12.261183973645,4.946962089454,False
