zanshi-dev/robot-mpc-wbc-locomotion/results/logs_sample/stage07_online_swing_joint_target_tracking_support_test_log.csv
step,source_step,mode,phase_in_mode,swing_progress,stance_legs,swing_legs,base_z,roll,pitch,max_joint_error,max_swing_joint_error,max_stance_joint_error,tau_raw_max_abs,tau_max_abs,saturated
0,0,trot_FR_RL,0.000000000000,0.000000000000,"FR,RL","FL,RR",0.284884398318,-0.000012181847,0.000424212628,0.000000000000,0.000000000000,0.000000000000,0.000000000000,0.000000000000,False
1,1,trot_FR_RL,0.005000000000,0.005000000000,"FR,RL","FL,RR",0.284871991006,0.000127515342,0.000331362806,0.008430949373,0.008430949373,0.007686129966,8.193174243370,8.193174243370,False
2,2,trot_FR_RL,0.010000000000,0.010000000000,"FR,RL","FL,RR",0.284890906400,0.000241818198,0.000641833501,0.007528436500,0.007528436500,0.005058412260,4.283139692160,4.283139692160,False
3,3,trot_FR_RL,0.015000000000,0.015000000000,"FR,RL","FL,RR",0.284736004190,-0.001113385704,0.000701508788,0.015614128738,0.015614128738,0.010625559343,6.528049386234,6.528049386234,False
4,4,trot_FR_RL,0.020000000000,0.020000000000,"FR,RL","FL,RR",0.284694187858,-0.000323601810,0.001069908481,0.014375173236,0.014375173236,0.006651333735,4.711879830164,4.711879830164,False
5,5,trot_FR_RL,0.025000000000,0.025000000000,"FR,RL","FL,RR",0.284520617271,-0.002709321961,0.000859628941,0.021646491389,0.021646491389,0.010899479902,5.358440140675,5.358440140675,False
6,6,trot_FR_RL,0.030000000000,0.030000000000,"FR,RL","FL,RR",0.284437560512,-0.000700618269,0.001121223817,0.019507166340,0.019507166340,0.007927637634,6.136328635684,6.136328635684,False
7,7,trot_FR_RL,0.035000000000,0.035000000000,"FR,RL","FL,RR",0.284213690314,-0.002522374886,0.000875054717,0.025345930569,0.025345930569,0.011320325985,4.786075775168,4.786075775168,False
8,8,trot_FR_RL,0.040000000000,0.040000000000,"FR,RL","FL,RR",0.284083077262,0.000028462215,0.001104025508,0.022237989983,0.022237989983,0.010267342439,6.462206604942,6.462206604942,False
9,9,trot_FR_RL,0.045000000000,0.045000000000,"FR,RL","FL,RR",0.283796367768,-0.000457488993,0.000710047897,0.027371759324,0.027371759324,0.012756326331,4.599555752912,4.599555752912,False
10,10,trot_FR_RL,0.050000000000,0.050000000000,"FR,RL","FL,RR",0.283606311196,0.003289010114,0.000802176297,0.023616431087,0.023616431087,0.013942320763,6.814904126885,6.814904126885,False
11,11,trot_FR_RL,0.055000000000,0.055000000000,"FR,RL","FL,RR",0.283312053651,0.002479161565,0.000032378158,0.028437094951,0.028437094951,0.014039290198,4.803514871181,4.803514871181,False
12,12,trot_FR_RL,0.060000000000,0.060000000000,"FR,RL","FL,RR",0.283051363414,0.006599270430,-0.000032312414,0.024962035324,0.024962035324,0.016348324401,6.242676229040,6.242676229040,False
13,13,trot_FR_RL,0.065000000000,0.065000000000,"FR,RL","FL,RR",0.282709395351,0.005776036500,-0.000702495440,0.029531420853,0.029531420853,0.014917880032,4.909706725864,4.909706725864,False
14,14,trot_FR_RL,0.070000000000,0.070000000000,"FR,RL","FL,RR",0.282408906593,0.009754492879,-0.000608149155,0.028143547029,0.028143547029,0.016912768006,6.071307799290,6.071307799290,False
15,15,trot_FR_RL,0.075000000000,0.075000000000,"FR,RL","FL,RR",0.282029796736,0.008784150124,-0.001152058093,0.032490309765,0.032490309765,0.016040489652,5.234036195417,5.234036195417,False
16,16,trot_FR_RL,0.080000000000,0.080000000000,"FR,RL","FL,RR",0.281686321902,0.012697672400,-0.001000454320,0.031773751549,0.031773751549,0.017265031418,6.255517763803,6.255517763803,False
17,17,trot_FR_RL,0.085000000000,0.085000000000,"FR,RL","FL,RR",0.281266967788,0.011654763226,-0.001504844440,0.036184522579,0.036184522579,0.017294836925,6.242495200420,6.242495200420,False
18,18,trot_FR_RL,0.090000000000,0.090000000000,"FR,RL","FL,RR",0.280914210347,0.015177912875,-0.001574860585,0.035456195146,0.035456195146,0.020589575930,7.303396045139,7.303396045139,False
19,19,trot_FR_RL,0.095000000000,0.095000000000,"FR,RL","FL,RR",0.280482350674,0.016457343406,-0.002308834751,0.039687148273,0.039687148273,0.019452846914,5.612675523704,5.612675523704,False
20,20,trot_FR_RL,0.100000000000,0.100000000000,"FR,RL","FL,RR",0.280133619660,0.017862449350,-0.002424108954,0.038919143300,0.038919143300,0.018471918774,6.546532599768,6.546532599768,False
21,21,trot_FR_RL,0.105000000000,0.105000000000,"FR,RL","FL,RR",0.279702942218,0.017872181471,-0.003312690256,0.042829794850,0.042829794850,0.018548187461,6.270920795805,6.270920795805,False
22,22,trot_FR_RL,0.110000000000,0.110000000000,"FR,RL","FL,RR",0.279342379313,0.022298130749,-0.003218831609,0.041790023087,0.041790023087,0.018380608479,6.418986662665,6.418986662665,False
23,23,trot_FR_RL,0.115000000000,0.115000000000,"FR,RL","FL,RR",0.278888335727,0.021770113813,-0.004128171215,0.046039773877,0.046039773877,0.019687767726,6.145200576679,6.145200576679,False
24,24,trot_FR_RL,0.120000000000,0.120000000000,"FR,RL","FL,RR",0.278544472701,0.025364280894,-0.004824895204,0.045007055006,0.045007055006,0.017399050570,6.556331681420,6.556331681420,False
25,25,trot_FR_RL,0.125000000000,0.125000000000,"FR,RL","FL,RR",0.278144561566,0.023654923585,-0.006360355551,0.046908534175,0.046908534175,0.020066776330,5.364935646605,5.364935646605,False
26,26,trot_FR_RL,0.130000000000,0.130000000000,"FR,RL","FL,RR",0.277712775389,0.027436136408,-0.007818969806,0.043882904492,0.043882904492,0.018506104180,6.697104622523,6.697104622523,False
27,27,trot_FR_RL,0.135000000000,0.135000000000,"FR,RL","FL,RR",0.277302354658,0.024959667480,-0.009121566012,0.045911967229,0.045911967229,0.019185560913,6.253663217879,6.253663217879,False
28,28,trot_FR_RL,0.140000000000,0.140000000000,"FR,RL","FL,RR",0.277045482674,0.026715962506,-0.009787918604,0.043372867198,0.043372867198,0.020271236087,6.861244557788,6.861244557788,False
29,29,trot_FR_RL,0.145000000000,0.145000000000,"FR,RL","FL,RR",0.276648156529,0.024616812383,-0.010941509495,0.046205991995,0.046205991995,0.019229964543,6.263200959017,6.263200959017,False
30,30,trot_FR_RL,0.150000000000,0.150000000000,"FR,RL","FL,RR",0.276415509293,0.026644444810,-0.011400835422,0.044138968677,0.044138968677,0.022855979386,6.970761629522,6.970761629522,False
31,31,trot_FR_RL,0.155000000000,0.155000000000,"FR,RL","FL,RR",0.276142600025,0.025636592484,-0.012570915677,0.047394643200,0.047394643200,0.021402901622,6.545729245167,6.545729245167,False
32,32,trot_FR_RL,0.160000000000,0.160000000000,"FR,RL","FL,RR",0.275895689858,0.029454664387,-0.013466046126,0.045663947971,0.045663947971,0.024124015595,7.141444326544,7.141444326544,False
33,33,trot_FR_RL,0.165000000000,0.165000000000,"FR,RL","FL,RR",0.275661907399,0.027321453002,-0.014373321978,0.050228567366,0.050228567366,0.021001565293,7.140912071210,7.140912071210,False
34,34,trot_FR_RL,0.170000000000,0.170000000000,"FR,RL","FL,RR",0.275467862950,0.030087501124,-0.014928808827,0.047325598610,0.047325598610,0.022659179730,4.501460094839,4.501460094839,False
35,35,trot_FR_RL,0.175000000000,0.175000000000,"FR,RL","FL,RR",0.275266521444,0.026809226297,-0.015994752013,0.053111708404,0.053111708404,0.021117230021,7.200131627403,7.200131627403,False
36,36,trot_FR_RL,0.180000000000,0.180000000000,"FR,RL","FL,RR",0.275132803382,0.028442616814,-0.017242670513,0.050014902134,0.050014902134,0.024160644533,5.542042887743,5.542042887743,False
37,37,trot_FR_RL,0.185000000000,0.185000000000,"FR,RL","FL,RR",0.274951308958,0.025145087078,-0.018029893558,0.056189333208,0.056189333208,0.022601160663,7.629438317391,7.629438317391,False
38,38,trot_FR_RL,0.190000000000,0.190000000000,"FR,RL","FL,RR",0.274907341072,0.026164620292,-0.018699293134,0.053020340217,0.053020340217,0.025741507355,5.394095077338,5.394095077338,False
39,39,trot_FR_RL,0.195000000000,0.195000000000,"FR,RL","FL,RR",0.274797506798,0.022162663004,-0.019969850968,0.058339171848,0.058339171848,0.023863706286,6.941734379727,6.941734379727,False
40,40,trot_FR_RL,0.200000000000,0.200000000000,"FR,RL","FL,RR",0.274756596042,0.023221825568,-0.020155012699,0.054832470346,0.054832470346,0.028228974640,7.117707624139,7.117707624139,False
41,41,trot_FR_RL,0.205000000000,0.205000000000,"FR,RL","FL,RR",0.274769089204,0.020531925731,-0.020472491535,0.060234400160,0.060234400160,0.026715472892,7.184061673018,7.184061673018,False
42,42,trot_FR_RL,0.210000000000,0.210000000000,"FR,RL","FL,RR",0.274755026149,0.021878372868,-0.021805928579,0.056904939887,0.056904939887,0.027810176434,3.197409373254,3.197409373254,False
43,43,trot_FR_RL,0.215000000000,0.215000000000,"FR,RL","FL,RR",0.274777561220,0.018517575628,-0.021827060662,0.063009928757,0.063009928757,0.022253231088,8.102478388486,8.102478388486,False
44,44,trot_FR_RL,0.220000000000,0.220000000000,"FR,RL","FL,RR",0.274829588291,0.020177666425,-0.022407639482,0.059608716577,0.059608716577,0.022059624640,4.986744306410,4.986744306410,False
45,45,trot_FR_RL,0.225000000000,0.225000000000,"FR,RL","FL,RR",0.274855807163,0.016032199135,-0.023216240933,0.065638357634,0.065638357634,0.017101773392,8.233764636118,8.233764636118,False
46,46,trot_FR_RL,0.230000000000,0.230000000000,"FR,RL","FL,RR",0.274919460841,0.017116395398,-0.024061317701,0.062482017533,0.062482017533,0.018783563749,4.961453067563,4.961453067563,False
47,47,trot_FR_RL,0.235000000000,0.235000000000,"FR,RL","FL,RR",0.275029533074,0.013054809434,-0.024119936393,0.068553987459,0.068553987459,0.015377244012,8.499673896863,8.499673896863,False
48,48,trot_FR_RL,0.240000000000,0.240000000000,"FR,RL","FL,RR",0.275042805816,0.013654223938,-0.024778911611,0.065236276131,0.065236276131,0.017222227995,7.078802130536,7.078802130536,False
49,49,trot_FR_RL,0.245000000000,0.245000000000,"FR,RL","FL,RR",0.275147639671,0.009131018261,-0.024443643737,0.070968037361,0.070968037361,0.015235231447,8.354052601927,8.354052601927,False
50,50,trot_FR_RL,0.250000000000,0.250000000000,"FR,RL","FL,RR",0.275267457949,0.009758235310,-0.024737574824,0.067344321047,0.067344321047,0.016214828141,6.081258148942,6.081258148942,False
51,51,trot_FR_RL,0.255000000000,0.255000000000,"FR,RL","FL,RR",0.275386912270,0.005902747034,-0.024476336327,0.073189968944,0.073189968944,0.014308052928,8.653158096863,8.653158096863,False
52,52,trot_FR_RL,0.260000000000,0.260000000000,"FR,RL","FL,RR",0.275564146102,0.005336173558,-0.024672348486,0.069777301689,0.069777301689,0.012775959963,5.515339257908,5.515339257908,False
53,53,trot_FR_RL,0.265000000000,0.265000000000,"FR,RL","FL,RR",0.275633767722,0.002089141939,-0.024924787474,0.075544263100,0.075544263100,0.014942526894,8.769703301556,8.769703301556,False
54,54,trot_FR_RL,0.270000000000,0.270000000000,"FR,RL","FL,RR",0.275807460071,0.002311688646,-0.024778418380,0.072315126052,0.072315126052,0.013738841730,6.939830793106,6.939830793106,False
55,55,trot_FR_RL,0.275000000000,0.275000000000,"FR,RL","FL,RR",0.276015306055,-0.000175186741,-0.024059923675,0.077958407988,0.077958407988,0.014299812783,8.846264629180,8.846264629180,False
56,56,trot_FR_RL,0.280000000000,0.280000000000,"FR,RL","FL,RR",0.276149568850,0.000739695259,-0.023878007729,0.074544545695,0.074544545695,0.015243482504,5.330812874243,5.330812874243,False
57,57,trot_FR_RL,0.285000000000,0.285000000000,"FR,RL","FL,RR",0.276383246171,-0.002863102512,-0.022492763165,0.078599429193,0.078599429193,0.012927561411,7.352717749145,7.352717749145,False
58,58,trot_FR_RL,0.290000000000,0.290000000000,"FR,RL","FL,RR",0.276555330335,-0.001102146234,-0.021737851860,0.075091768982,0.075091768982,0.013129800016,5.964592855366,5.964592855366,False
59,59,trot_FR_RL,0.295000000000,0.295000000000,"FR,RL","FL,RR",0.276724351002,-0.004660987476,-0.020796382365,0.079303594532,0.079303594532,0.009821366669,7.609323307724,7.609323307724,False
60,60,trot_FR_RL,0.300000000000,0.300000000000,"FR,RL","FL,RR",0.276868665772,-0.002541815114,-0.019742910977,0.076017979908,0.076017979908,0.013209860283,5.787288978106,5.787288978106,False
61,61,trot_FR_RL,0.305000000000,0.305000000000,"FR,RL","FL,RR",0.277088124688,-0.005278711834,-0.017734664165,0.080173557423,0.080173557423,0.013023973973,7.663898806374,7.663898806374,False
62,62,trot_FR_RL,0.310000000000,0.310000000000,"FR,RL","FL,RR",0.277249140291,-0.003766126457,-0.016715869640,0.075371499667,0.075371499667,0.010795644056,6.293468511716,6.293468511716,False
63,63,trot_FR_RL,0.315000000000,0.315000000000,"FR,RL","FL,RR",0.277441445343,-0.006390145503,-0.014456560292,0.080198929756,0.080198929756,0.015268892122,8.397172734374,8.397172734374,False
64,64,trot_FR_RL,0.320000000000,0.320000000000,"FR,RL","FL,RR",0.277623421859,-0.005782554237,-0.013120680885,0.075814742884,0.075814742884,0.015909567845,6.673339657814,6.673339657814,False
65,65,trot_FR_RL,0.325000000000,0.325000000000,"FR,RL","FL,RR",0.277779860938,-0.007711950019,-0.011246627527,0.080818088887,0.080818088887,0.014651997410,8.671303340015,8.671303340015,False
66,66,trot_FR_RL,0.330000000000,0.330000000000,"FR,RL","FL,RR",0.277924634640,-0.007376799882,-0.010104393348,0.076888550888,0.076888550888,0.013708750776,7.619050643244,7.619050643244,False
67,67,trot_FR_RL,0.335000000000,0.335000000000,"FR,RL","FL,RR",0.278084171283,-0.009878835357,-0.008502249678,0.082013366391,0.082013366391,0.016626372783,8.926571771299,8.926571771299,False
68,68,trot_FR_RL,0.340000000000,0.340000000000,"FR,RL","FL,RR",0.278230619408,-0.009083283899,-0.007072754018,0.078172885993,0.078172885993,0.016505380309,7.779659097431,7.779659097431,False
69,69,trot_FR_RL,0.345000000000,0.345000000000,"FR,RL","FL,RR",0.278341256761,-0.011719030427,-0.005634328485,0.083210716161,0.083210716161,0.013863145839,8.974438116782,8.974438116782,False
70,70,trot_FR_RL,0.350000000000,0.350000000000,"FR,RL","FL,RR",0.278461829293,-0.010404256643,-0.003821241074,0.079305902132,0.079305902132,0.012600756647,7.854833163795,7.854833163795,False
71,71,trot_FR_RL,0.355000000000,0.355000000000,"FR,RL","FL,RR",0.278513330293,-0.012876239742,-0.002348547183,0.084059362214,0.084059362214,0.011358054316,8.804897114498,8.804897114498,False
72,72,trot_FR_RL,0.360000000000,0.360000000000,"FR,RL","FL,RR",0.278613665226,-0.013179566465,-0.000695282434,0.079943886640,0.079943886640,0.010790511979,7.914012618557,7.914012618557,False
73,73,trot_FR_RL,0.365000000000,0.365000000000,"FR,RL","FL,RR",0.278656561819,-0.013088955318,0.001060685635,0.084414806745,0.084414806745,0.012081679066,8.608471446158,8.608471446158,False
74,74,trot_FR_RL,0.370000000000,0.370000000000,"FR,RL","FL,RR",0.278766330721,-0.014008420600,0.002546482588,0.080352328779,0.080352328779,0.012939170565,7.802748601473,7.802748601473,False
75,75,trot_FR_RL,0.375000000000,0.375000000000,"FR,RL","FL,RR",0.278791855858,-0.015371380298,0.004518123399,0.084610994341,0.084610994341,0.012586700255,8.473603227484,8.473603227484,False
76,76,trot_FR_RL,0.380000000000,0.380000000000,"FR,RL","FL,RR",0.278837800412,-0.016566001656,0.005567407324,0.080120259482,0.080120259482,0.011714473496,8.113315935314,8.113315935314,False
77,77,trot_FR_RL,0.385000000000,0.385000000000,"FR,RL","FL,RR",0.278908844127,-0.016593484125,0.007029597086,0.084326817356,0.084326817356,0.015204057834,8.470816084449,8.470816084449,False
78,78,trot_FR_RL,0.390000000000,0.390000000000,"FR,RL","FL,RR",0.278956582474,-0.018585341985,0.008161187076,0.079276174469,0.079276174469,0.013685802104,8.104621686918,8.104621686918,False
79,79,trot_FR_RL,0.395000000000,0.395000000000,"FR,RL","FL,RR",0.279010772401,-0.017877705575,0.009584884362,0.083140210677,0.083140210677,0.011723689304,8.124154142754,8.124154142754,False
80,80,trot_FR_RL,0.400000000000,0.400000000000,"FR,RL","FL,RR",0.279038820293,-0.019751438294,0.010612551198,0.077991216661,0.077991216661,0.014219811393,8.140026329780,8.140026329780,False
81,81,trot_FR_RL,0.405000000000,0.405000000000,"FR,RL","FL,RR",0.279067187336,-0.020208825929,0.011951594942,0.081572726499,0.081572726499,0.012051964447,7.815259599250,7.815259599250,False
82,82,trot_FR_RL,0.410000000000,0.410000000000,"FR,RL","FL,RR",0.279055348090,-0.020201864304,0.012220132286,0.076861125803,0.076861125803,0.013501744028,8.378141838614,8.378141838614,False
83,83,trot_FR_RL,0.415000000000,0.415000000000,"FR,RL","FL,RR",0.279014824182,-0.019918386735,0.013249836027,0.080629062914,0.080629062914,0.013736065134,8.013318999582,8.013318999582,False
84,84,trot_FR_RL,0.420000000000,0.420000000000,"FR,RL","FL,RR",0.279003438737,-0.017510158175,0.013709415385,0.075779817943,0.075779817943,0.010461087500,8.350095904775,8.350095904775,False
85,85,trot_FR_RL,0.425000000000,0.425000000000,"FR,RL","FL,RR",0.278971570570,-0.017796220826,0.014778506256,0.079589176487,0.079589176487,0.014297137779,8.061114732798,8.061114732798,False
86,86,trot_FR_RL,0.430000000000,0.430000000000,"FR,RL","FL,RR",0.278978033746,-0.015134869148,0.015145223747,0.074486337509,0.074486337509,0.012477752580,8.603977728061,8.603977728061,False
87,87,trot_FR_RL,0.435000000000,0.435000000000,"FR,RL","FL,RR",0.278890145148,-0.015164326864,0.015861195136,0.078327798875,0.078327798875,0.011969314247,8.086757558079,8.086757558079,False
88,88,trot_FR_RL,0.440000000000,0.440000000000,"FR,RL","FL,RR",0.278876343540,-0.012357360852,0.016119452256,0.073230411536,0.073230411536,0.010884526185,8.598967288149,8.598967288149,False
89,89,trot_FR_RL,0.445000000000,0.445000000000,"FR,RL","FL,RR",0.278815595063,-0.012896640028,0.015919585877,0.077061914466,0.077061914466,0.012387815162,8.070461120987,8.070461120987,False
90,90,trot_FR_RL,0.450000000000,0.450000000000,"FR,RL","FL,RR",0.278723897156,-0.010262376594,0.015878548507,0.072219642934,0.072219642934,0.013208354048,8.723146399280,8.723146399280,False
91,91,trot_FR_RL,0.455000000000,0.455000000000,"FR,RL","FL,RR",0.278637992135,-0.011046526069,0.015884610004,0.075939950904,0.075939950904,0.009711766532,7.961893816965,7.961893816965,False
92,92,trot_FR_RL,0.460000000000,0.460000000000,"FR,RL","FL,RR",0.278625240691,-0.008987866561,0.015444390618,0.070875685132,0.070875685132,0.010003260540,8.877800603570,8.877800603570,False
93,93,trot_FR_RL,0.465000000000,0.465000000000,"FR,RL","FL,RR",0.278508581962,-0.009411213753,0.015285023655,0.074870006791,0.074870006791,0.011751632750,8.241926295813,8.241926295813,False
94,94,trot_FR_RL,0.470000000000,0.470000000000,"FR,RL","FL,RR",0.278472140011,-0.007021968095,0.014670994426,0.069891572099,0.069891572099,0.012041588788,8.856351936086,8.856351936086,False
95,95,trot_FR_RL,0.475000000000,0.475000000000,"FR,RL","FL,RR",0.278430763624,-0.008087646183,0.013970785871,0.074008612824,0.074008612824,0.012804280292,8.383387118215,8.383387118215,False
96,96,trot_FR_RL,0.480000000000,0.480000000000,"FR,RL","FL,RR",0.278354655686,-0.005957024501,0.013429242197,0.069271813276,0.069271813276,0.012221971937,9.044165789326,9.044165789326,False
97,97,trot_FR_RL,0.485000000000,0.485000000000,"FR,RL","FL,RR",0.278284206774,-0.007312262943,0.012767453992,0.073258310190,0.073258310190,0.013641323085,8.278399847494,8.278399847494,False
98,98,trot_FR_RL,0.490000000000,0.490000000000,"FR,RL","FL,RR",0.278279945363,-0.005599482569,0.011737882258,0.068421062929,0.068421062929,0.013816734071,9.096622302860,9.096622302860,False
99,99,trot_FR_RL,0.495000000000,0.495000000000,"FR,RL","FL,RR",0.278151247008,-0.006652929736,0.010554156113,0.072679493331,0.072679493331,0.014477274820,8.586266945560,8.586266945560,False
100,100,trot_FR_RL,0.500000000000,0.500000000000,"FR,RL","FL,RR",0.278128477045,-0.004584318309,0.009437527338,0.067983130091,0.067983130091,0.010470372418,8.963817663299,8.963817663299,False
101,101,trot_FR_RL,0.505000000000,0.505000000000,"FR,RL","FL,RR",0.278086433947,-0.004675751803,0.008292949143,0.072237362805,0.072237362805,0.011089160814,8.626230405729,8.626230405729,False
102,102,trot_FR_RL,0.510000000000,0.510000000000,"FR,RL","FL,RR",0.278037165704,-0.003220575483,0.007411877883,0.067680323863,0.067680323863,0.006624347832,9.022630114735,9.022630114735,False
103,103,trot_FR_RL,0.515000000000,0.515000000000,"FR,RL","FL,RR",0.277998912709,-0.005176379471,0.006560337612,0.071801268487,0.071801268487,0.007189053008,8.537430672603,8.537430672603,False
104,104,trot_FR_RL,0.520000000000,0.520000000000,"FR,RL","FL,RR",0.277956403106,-0.003220035762,0.004838591286,0.066989977161,0.066989977161,0.008136569778,9.273287376512,9.273287376512,False
105,105,trot_FR_RL,0.525000000000,0.525000000000,"FR,RL","FL,RR",0.277915927521,-0.005294604500,0.004111692538,0.071528726807,0.071528726807,0.006716219524,9.009441192081,9.009441192081,False
106,106,trot_FR_RL,0.530000000000,0.530000000000,"FR,RL","FL,RR",0.277905509928,-0.002804831008,0.002771681404,0.066742576094,0.066742576094,0.005393037907,9.103591562178,9.103591562178,False
107,107,trot_FR_RL,0.535000000000,0.535000000000,"FR,RL","FL,RR",0.277878981866,-0.006173723412,0.001413616742,0.071121247693,0.071121247693,0.005542822336,8.999415359148,8.999415359148,False
108,108,trot_FR_RL,0.540000000000,0.540000000000,"FR,RL","FL,RR",0.277827591856,-0.003737711892,0.000247606614,0.067042612225,0.067042612225,0.010117423879,9.039080297807,9.039080297807,False
109,109,trot_FR_RL,0.545000000000,0.545000000000,"FR,RL","FL,RR",0.277852908176,-0.006511421619,-0.000129962932,0.070621012948,0.070621012948,0.006627931550,8.888873557473,8.888873557473,False
110,110,trot_FR_RL,0.550000000000,0.550000000000,"FR,RL","FL,RR",0.277780261692,-0.004643668780,-0.001133979454,0.067079535225,0.067079535225,0.008681808503,9.062836124704,9.062836124704,False
111,111,trot_FR_RL,0.555000000000,0.555000000000,"FR,RL","FL,RR",0.277788832371,-0.007845701936,-0.001283906809,0.069749274636,0.069749274636,0.004329851843,8.769525331572,8.769525331572,False
112,112,trot_FR_RL,0.560000000000,0.560000000000,"FR,RL","FL,RR",0.277828517254,-0.006200339238,-0.002151599605,0.066885968055,0.066885968055,0.006324287448,9.013477768994,9.013477768994,False
113,113,trot_FR_RL,0.565000000000,0.565000000000,"FR,RL","FL,RR",0.277782352370,-0.009280855083,-0.002894889953,0.068830992620,0.068830992620,0.008049921989,8.863569166373,8.863569166373,False
114,114,trot_FR_RL,0.570000000000,0.570000000000,"FR,RL","FL,RR",0.277803151135,-0.007183648512,-0.003659180700,0.066413924150,0.066413924150,0.004487324401,8.753275905695,8.753275905695,False
115,115,trot_FR_RL,0.575000000000,0.575000000000,"FR,RL","FL,RR",0.277836933555,-0.009070087797,-0.003357818233,0.068003261144,0.068003261144,0.006351655731,8.822928862862,8.822928862862,False
116,116,trot_FR_RL,0.580000000000,0.580000000000,"FR,RL","FL,RR",0.277852005580,-0.007020457489,-0.003931851132,0.065787820864,0.065787820864,0.008216801590,8.791060678109,8.791060678109,False
117,117,trot_FR_RL,0.585000000000,0.585000000000,"FR,RL","FL,RR",0.277937985072,-0.009899457731,-0.003562152992,0.066880489448,0.066880489448,0.006323409128,8.716618762153,8.716618762153,False
118,118,trot_FR_RL,0.590000000000,0.590000000000,"FR,RL","FL,RR",0.277971915888,-0.007182007582,-0.003636366565,0.065134620325,0.065134620325,0.008042922909,8.884024430979,8.884024430979,False
119,119,trot_FR_RL,0.595000000000,0.595000000000,"FR,RL","FL,RR",0.278038361087,-0.009783215992,-0.003509427492,0.065589901716,0.065589901716,0.009400973713,8.637922216635,8.637922216635,False
120,120,trot_FR_RL,0.600000000000,0.600000000000,"FR,RL","FL,RR",0.278062293058,-0.006759754970,-0.003625451792,0.064187147483,0.064187147483,0.009767088403,8.709533017895,8.709533017895,False
121,121,trot_FR_RL,0.605000000000,0.605000000000,"FR,RL","FL,RR",0.278065500228,-0.009555800675,-0.003784544529,0.064431840816,0.064431840816,0.011442273640,8.659207396248,8.659207396248,False
122,122,trot_FR_RL,0.610000000000,0.610000000000,"FR,RL","FL,RR",0.278055871335,-0.006486881283,-0.003678428554,0.062960344836,0.062960344836,0.008346145538,8.549163505826,8.549163505826,False
123,123,trot_FR_RL,0.615000000000,0.615000000000,"FR,RL","FL,RR",0.278102196247,-0.008611077603,-0.003099407006,0.063076233546,0.063076233546,0.009634342944,8.484829823252,8.484829823252,False
124,124,trot_FR_RL,0.620000000000,0.620000000000,"FR,RL","FL,RR",0.278098675885,-0.006627873793,-0.003586975935,0.061690261985,0.061690261985,0.010706839308,8.562842192449,8.562842192449,False
125,125,trot_FR_RL,0.625000000000,0.625000000000,"FR,RL","FL,RR",0.278129844613,-0.008902726304,-0.002804910836,0.061646067456,0.061646067456,0.011006188527,8.540192564256,8.540192564256,False
126,126,trot_FR_RL,0.630000000000,0.630000000000,"FR,RL","FL,RR",0.278160839775,-0.006251448803,-0.002940127043,0.060360347702,0.060360347702,0.010125065747,8.504254198179,8.504254198179,False
127,127,trot_FR_RL,0.635000000000,0.635000000000,"FR,RL","FL,RR",0.278236087102,-0.008635946681,-0.002559694376,0.060045951005,0.060045951005,0.013912979369,8.486050657032,8.486050657032,False
128,128,trot_FR_RL,0.640000000000,0.640000000000,"FR,RL","FL,RR",0.278247348890,-0.008247607560,-0.002995665204,0.058935076749,0.058935076749,0.012164362012,8.440246014864,8.440246014864,False
129,129,trot_FR_RL,0.645000000000,0.645000000000,"FR,RL","FL,RR",0.278300542833,-0.009763201732,-0.002502295970,0.058389312356,0.058389312356,0.016339736223,8.243154859993,8.243154859993,False
130,130,trot_FR_RL,0.650000000000,0.650000000000,"FR,RL","FL,RR",0.278291027658,-0.008463974772,-0.002461277134,0.057731972039,0.057731972039,0.017458528623,8.543106599808,8.543106599808,False
131,131,trot_FR_RL,0.655000000000,0.655000000000,"FR,RL","FL,RR",0.278340688494,-0.012161730520,-0.001802748868,0.056699324098,0.056699324098,0.018592799384,8.193448283438,8.193448283438,False
132,132,trot_FR_RL,0.660000000000,0.660000000000,"FR,RL","FL,RR",0.278293152654,-0.011127653268,-0.001758038318,0.056634361345,0.056634361345,0.014430314735,8.565710026211,8.565710026211,False
133,133,trot_FR_RL,0.665000000000,0.665000000000,"FR,RL","FL,RR",0.278319824264,-0.014888684269,-0.000783131990,0.054660263527,0.054660263527,0.017707316938,8.001022213054,8.001022213054,False
134,134,trot_FR_RL,0.670000000000,0.670000000000,"FR,RL","FL,RR",0.278337646699,-0.013519421173,-0.000634228310,0.055139171090,0.055139171090,0.015379932249,8.376149153030,8.376149153030,False
135,135,trot_FR_RL,0.675000000000,0.675000000000,"FR,RL","FL,RR",0.278358273485,-0.016562161366,0.000115530120,0.052382339032,0.052382339032,0.017805478507,7.875925505100,7.875925505100,False
136,136,trot_FR_RL,0.680000000000,0.680000000000,"FR,RL","FL,RR",0.278327042431,-0.015431399705,-0.000161916485,0.053311721484,0.053311721484,0.014725226422,8.090652440788,8.090652440788,False
137,137,trot_FR_RL,0.685000000000,0.685000000000,"FR,RL","FL,RR",0.278333293211,-0.018499308278,0.000768797481,0.050082657524,0.050082657524,0.018445923880,7.732540457921,7.732540457921,False
138,138,trot_FR_RL,0.690000000000,0.690000000000,"FR,RL","FL,RR",0.278358947796,-0.016259549946,0.001435610341,0.051251757019,0.051251757019,0.017012834521,7.969960547408,7.969960547408,False
139,139,trot_FR_RL,0.695000000000,0.695000000000,"FR,RL","FL,RR",0.278341951057,-0.019519521689,0.001916395204,0.047276480420,0.047276480420,0.020087990645,7.334379007260,7.334379007260,False
140,140,trot_FR_RL,0.700000000000,0.700000000000,"FR,RL","FL,RR",0.278308456878,-0.017110619427,0.002571051579,0.049038249434,0.049038249434,0.017843378077,7.749441165479,7.749441165479,False
141,141,trot_FR_RL,0.705000000000,0.705000000000,"FR,RL","FL,RR",0.278311993142,-0.019774580354,0.003492720873,0.044248948647,0.044248948647,0.022066675094,7.006640884236,7.006640884236,False
142,142,trot_FR_RL,0.710000000000,0.710000000000,"FR,RL","FL,RR",0.278285461760,-0.018354663588,0.003796874682,0.046660556740,0.046660556740,0.020909666183,7.646595139473,7.646595139473,False
143,143,trot_FR_RL,0.715000000000,0.715000000000,"FR,RL","FL,RR",0.278251052298,-0.021612004824,0.004564186684,0.041034701318,0.041034701318,0.019827296314,6.855993137157,6.855993137157,False
144,144,trot_FR_RL,0.720000000000,0.720000000000,"FR,RL","FL,RR",0.278170948738,-0.019188753309,0.004919014342,0.044248810887,0.044248810887,0.014825055000,7.495492451123,7.495492451123,False
145,145,trot_FR_RL,0.725000000000,0.725000000000,"FR,RL","FL,RR",0.278127212625,-0.021820616742,0.005542178510,0.038232210209,0.038232210209,0.016262127028,6.636781931807,6.636781931807,False
146,146,trot_FR_RL,0.730000000000,0.730000000000,"FR,RL","FL,RR",0.278042945261,-0.018970366746,0.005817774024,0.041522863990,0.041522863990,0.013661277695,7.287229508833,7.287229508833,False
147,147,trot_FR_RL,0.735000000000,0.735000000000,"FR,RL","FL,RR",0.277933784124,-0.021753376813,0.006096020446,0.035447629317,0.035447629317,0.015819999145,6.458365730538,6.458365730538,False
148,148,trot_FR_RL,0.740000000000,0.740000000000,"FR,RL","FL,RR",0.277801290658,-0.018709182716,0.006520197696,0.038629367752,0.038629367752,0.014156262795,7.058884713368,7.058884713368,False
149,149,trot_FR_RL,0.745000000000,0.745000000000,"FR,RL","FL,RR",0.277711522103,-0.020522764475,0.007403124431,0.032495898674,0.032495898674,0.017154888764,6.853784828280,6.853784828280,False
150,150,trot_FR_RL,0.750000000000,0.750000000000,"FR,RL","FL,RR",0.277560893105,-0.018420636106,0.007354894299,0.035674542034,0.035674542034,0.016041262167,6.931294056565,6.931294056565,False
151,151,trot_FR_RL,0.755000000000,0.755000000000,"FR,RL","FL,RR",0.277434001297,-0.020603135687,0.008456089563,0.029549314052,0.029549314052,0.019428550101,5.774678896804,5.774678896804,False
152,152,trot_FR_RL,0.760000000000,0.760000000000,"FR,RL","FL,RR",0.277301533425,-0.017814377785,0.008656031682,0.032726661209,0.032726661209,0.016549504466,6.804482354782,6.804482354782,False
153,153,trot_FR_RL,0.765000000000,0.765000000000,"FR,RL","FL,RR",0.277141095575,-0.020639583007,0.008872766295,0.026554564575,0.026554564575,0.020355334868,5.525406009990,5.525406009990,False
154,154,trot_FR_RL,0.770000000000,0.770000000000,"FR,RL","FL,RR",0.276954559043,-0.017611797261,0.009225317195,0.029629651549,0.029629651549,0.018437796381,7.150205343187,7.150205343187,False
155,155,trot_FR_RL,0.775000000000,0.775000000000,"FR,RL","FL,RR",0.276799047140,-0.019757564963,0.009793610610,0.023376402203,0.023376402203,0.022954704385,5.894190266964,5.894190266964,False
156,156,trot_FR_RL,0.780000000000,0.780000000000,"FR,RL","FL,RR",0.276607269814,-0.018672442302,0.010021765112,0.026426605321,0.026426605321,0.022063986501,6.397543278932,6.397543278932,False
157,157,trot_FR_RL,0.785000000000,0.785000000000,"FR,RL","FL,RR",0.276433128281,-0.019684567369,0.010527254259,0.020333596749,0.020333596749,0.019420150995,5.852464192315,5.852464192315,False
158,158,trot_FR_RL,0.790000000000,0.790000000000,"FR,RL","FL,RR",0.276261166975,-0.015807178173,0.010125568893,0.023346351735,0.023346351735,0.017794588447,6.222034927889,6.222034927889,False
159,159,trot_FR_RL,0.795000000000,0.795000000000,"FR,RL","FL,RR",0.276099579459,-0.016465396242,0.010805187972,0.022468977310,0.017663958044,0.022468977310,6.022527501752,6.022527501752,False
160,160,trot_FR_RL,0.800000000000,0.800000000000,"FR,RL","FL,RR",0.275896452872,-0.013034836079,0.010347000827,0.020802334749,0.019998829294,0.020802334749,6.029302298106,6.029302298106,False
161,161,trot_FR_RL,0.805000000000,0.805000000000,"FR,RL","FL,RR",0.275743368412,-0.014501164404,0.010446905037,0.024761802445,0.019116616406,0.024761802445,5.445175842857,5.445175842857,False
162,162,trot_FR_RL,0.810000000000,0.810000000000,"FR,RL","FL,RR",0.275581096813,-0.012418536621,0.009927202857,0.023711684110,0.017985984922,0.023711684110,5.869764801723,5.869764801723,False
163,163,trot_FR_RL,0.815000000000,0.815000000000,"FR,RL","FL,RR",0.275390388923,-0.013723261600,0.009448964515,0.021869719247,0.021869719247,0.021365305192,7.114161667723,7.114161667723,False
164,164,trot_FR_RL,0.820000000000,0.820000000000,"FR,RL","FL,RR",0.275282268183,-0.010153717838,0.009273411792,0.021107191477,0.021107191477,0.018836907680,5.755782970060,5.755782970060,False
165,165,trot_FR_RL,0.825000000000,0.825000000000,"FR,RL","FL,RR",0.275132716394,-0.010434773966,0.009059066660,0.022066578677,0.018152331723,0.022066578677,4.553665717176,4.553665717176,False
166,166,trot_FR_RL,0.830000000000,0.830000000000,"FR,RL","FL,RR",0.275023034052,-0.006710170742,0.008840023859,0.018087102810,0.018024933212,0.018087102810,5.791455658384,5.791455658384,False
167,167,trot_FR_RL,0.835000000000,0.835000000000,"FR,RL","FL,RR",0.274937255971,-0.008017013040,0.008422702160,0.019413278961,0.019299912131,0.019413278961,5.254401074040,5.254401074040,False
168,168,trot_FR_RL,0.840000000000,0.840000000000,"FR,RL","FL,RR",0.274823275088,-0.004052293780,0.008007709348,0.018567397877,0.018567397877,0.016521030638,6.122939252053,6.122939252053,False
169,169,trot_FR_RL,0.845000000000,0.845000000000,"FR,RL","FL,RR",0.274741817928,-0.005244601246,0.007368149784,0.020210889554,0.020210889554,0.019677462610,4.681930388883,4.681930388883,False
170,170,trot_FR_RL,0.850000000000,0.850000000000,"FR,RL","FL,RR",0.274685038744,-0.002307239414,0.006882779179,0.023503397857,0.023503397857,0.018202926758,6.288819880227,6.288819880227,False
171,171,trot_FR_RL,0.855000000000,0.855000000000,"FR,RL","FL,RR",0.274588037547,-0.003245435157,0.006348202833,0.021911624133,0.021556030191,0.021911624133,5.257174406794,5.257174406794,False
172,172,trot_FR_RL,0.860000000000,0.860000000000,"FR,RL","FL,RR",0.274562292136,0.000210370786,0.005502623549,0.028536387261,0.028536387261,0.018398728715,6.604826950889,6.604826950889,False
173,173,trot_FR_RL,0.865000000000,0.865000000000,"FR,RL","FL,RR",0.274564997232,-0.001456424378,0.004456286871,0.026286792567,0.026286792567,0.020228210194,4.966535030998,4.966535030998,False
174,174,trot_FR_RL,0.870000000000,0.870000000000,"FR,RL","FL,RR",0.274532259786,0.001402028661,0.003867625933,0.033036880365,0.033036880365,0.017620296393,6.612072932178,6.612072932178,False
175,175,trot_FR_RL,0.875000000000,0.875000000000,"FR,RL","FL,RR",0.274503166490,-0.000585093145,0.002763175022,0.031009767099,0.031009767099,0.021380790704,5.436258805947,5.436258805947,False
176,176,trot_FR_RL,0.880000000000,0.880000000000,"FR,RL","FL,RR",0.274540376596,-0.000431793532,0.001126982434,0.037839830772,0.037839830772,0.020355227857,6.949672475200,6.949672475200,False
177,177,trot_FR_RL,0.885000000000,0.885000000000,"FR,RL","FL,RR",0.274587869641,-0.001970158131,-0.000073527999,0.035584637304,0.035584637304,0.020786517362,3.565008817146,3.565008817146,False
178,178,trot_FR_RL,0.890000000000,0.890000000000,"FR,RL","FL,RR",0.274623840730,-0.000933221200,-0.001375114279,0.042214296767,0.042214296767,0.019724133225,6.983179841831,6.983179841831,False
179,179,trot_FR_RL,0.895000000000,0.895000000000,"FR,RL","FL,RR",0.274690350564,-0.001677968820,-0.002362219287,0.039989697357,0.039989697357,0.018103626027,4.819109559934,4.819109559934,False
180,180,trot_FR_RL,0.900000000000,0.900000000000,"FR,RL","FL,RR",0.274845408321,-0.001165346669,-0.003518650838,0.041960604649,0.041960604649,0.016964439184,6.742147881587,6.742147881587,False
181,181,trot_FR_RL,0.905000000000,0.905000000000,"FR,RL","FL,RR",0.274869045375,-0.001388036410,-0.005013027439,0.036113265900,0.036113265900,0.017681881524,5.978334982474,5.978334982474,False
182,182,trot_FR_RL,0.910000000000,0.910000000000,"FR,RL","FL,RR",0.275013935299,-0.001162269373,-0.005837329992,0.039735595138,0.039735595138,0.013618679277,6.993687870129,6.993687870129,False
183,183,trot_FR_RL,0.915000000000,0.915000000000,"FR,RL","FL,RR",0.275204477266,-0.000941413488,-0.006368835179,0.035169697503,0.035169697503,0.011852530129,4.697483810464,4.697483810464,False
184,184,trot_FR_RL,0.920000000000,0.920000000000,"FR,RL","FL,RR",0.275325885138,-0.002633508143,-0.007134174234,0.040645156562,0.040645156562,0.012340290773,6.682118766826,6.682118766826,False
185,185,trot_FR_RL,0.925000000000,0.925000000000,"FR,RL","FL,RR",0.275471491222,-0.000016114223,-0.007834667213,0.037278640134,0.037278640134,0.012646913089,5.973094202810,5.973094202810,False
186,186,trot_FR_RL,0.930000000000,0.930000000000,"FR,RL","FL,RR",0.275713050504,-0.002010985028,-0.008341627437,0.043179850358,0.043179850358,0.012292121518,7.087222284609,7.087222284609,False
187,187,trot_FR_RL,0.935000000000,0.935000000000,"FR,RL","FL,RR",0.275859096326,0.000725461446,-0.009127134246,0.040354119020,0.040354119020,0.011107226923,6.774325606717,6.774325606717,False
188,188,trot_FR_RL,0.940000000000,0.940000000000,"FR,RL","FL,RR",0.276056695623,-0.001554661063,-0.009749166891,0.046627510090,0.046627510090,0.011241297748,6.913914655978,6.913914655978,False
189,189,trot_FR_RL,0.945000000000,0.945000000000,"FR,RL","FL,RR",0.276185341856,0.000878253396,-0.010404634840,0.044185303920,0.044185303920,0.015204381367,6.005630438147,6.005630438147,False
190,190,trot_FR_RL,0.950000000000,0.950000000000,"FR,RL","FL,RR",0.276402053215,0.001200428546,-0.011076877815,0.048035837992,0.048035837992,0.015289855982,6.640021537257,6.640021537257,False
191,191,trot_FR_RL,0.955000000000,0.955000000000,"FR,RL","FL,RR",0.276605906377,-0.000375441585,-0.012048462048,0.044723460830,0.044723460830,0.016216291353,4.523890005530,4.523890005530,False
192,192,trot_FR_RL,0.960000000000,0.960000000000,"FR,RL","FL,RR",0.276788851466,0.002211305927,-0.012623542566,0.050339045201,0.050339045201,0.018162551807,6.315331146827,6.315331146827,False
193,193,trot_FR_RL,0.965000000000,0.965000000000,"FR,RL","FL,RR",0.276962646694,0.000322827794,-0.013413403606,0.047539732285,0.047539732285,0.015440306458,5.468464663455,5.468464663455,False
194,194,trot_FR_RL,0.970000000000,0.970000000000,"FR,RL","FL,RR",0.277180255570,0.001372196383,-0.014238725135,0.053564002522,0.053564002522,0.015904707114,6.906053429479,6.906053429479,False
195,195,trot_FR_RL,0.975000000000,0.975000000000,"FR,RL","FL,RR",0.277380102630,0.000063354777,-0.015125224718,0.051048590002,0.051048590002,0.016003335929,6.974093570503,6.974093570503,False
196,196,trot_FR_RL,0.980000000000,0.980000000000,"FR,RL","FL,RR",0.277608621358,0.002150972139,-0.016131280257,0.052081447250,0.052081447250,0.016077923361,6.666812351111,6.666812351111,False
197,197,trot_FR_RL,0.985000000000,0.985000000000,"FR,RL","FL,RR",0.277787784396,0.001113446924,-0.016691606122,0.049037423823,0.049037423823,0.014872533387,8.030117429695,8.030117429695,False
198,198,trot_FR_RL,0.990000000000,0.990000000000,"FR,RL","FL,RR",0.278051941391,0.004169034547,-0.017187744018,0.055280040444,0.055280040444,0.014280027645,7.211218034861,7.211218034861,False
199,199,trot_FR_RL,0.995000000000,0.995000000000,"FR,RL","FL,RR",0.278181745300,0.003431963709,-0.018203490907,0.052440157819,0.052440157819,0.013683184035,4.670751841772,4.670751841772,False
200,200,trot_FL_RR,0.000000000000,0.000000000000,"FL,RR","FR,RL",0.278421956861,0.007065886706,-0.018521289037,0.055344369001,0.016391328208,0.055344369001,6.501427027734,6.501427027734,False
201,201,trot_FL_RR,0.005000000000,0.005000000000,"FL,RR","FR,RL",0.278619699054,0.008516517511,-0.018531579635,0.049759761441,0.013747428785,0.049759761441,4.678465837814,4.678465837814,False
202,202,trot_FL_RR,0.010000000000,0.010000000000,"FL,RR","FR,RL",0.278822588975,0.011039929607,-0.018478238946,0.053406538644,0.010823454208,0.053406538644,6.700039688716,6.700039688716,False
203,203,trot_FL_RR,0.015000000000,0.015000000000,"FL,RR","FR,RL",0.279031027014,0.013385628968,-0.018231591195,0.047732635005,0.013651622276,0.047732635005,4.500023226136,4.500023226136,False
204,204,trot_FL_RR,0.020000000000,0.020000000000,"FL,RR","FR,RL",0.279223393374,0.016051123364,-0.018423151632,0.051540407334,0.016211869550,0.051540407334,7.000287799657,7.000287799657,False
205,205,trot_FL_RR,0.025000000000,0.025000000000,"FL,RR","FR,RL",0.279423990316,0.017629878730,-0.018041928144,0.045410139585,0.017751018181,0.045410139585,3.508655046045,3.508655046045,False
206,206,trot_FL_RR,0.030000000000,0.030000000000,"FL,RR","FR,RL",0.279619785864,0.019069416981,-0.017554434610,0.048962754555,0.018308852558,0.048962754555,6.998700191402,6.998700191402,False
207,207,trot_FL_RR,0.035000000000,0.035000000000,"FL,RR","FR,RL",0.279776487220,0.023559415045,-0.016564333637,0.042816534602,0.023150100086,0.042816534602,4.753170885739,4.753170885739,False
208,208,trot_FL_RR,0.040000000000,0.040000000000,"FL,RR","FR,RL",0.280028380410,0.023405116209,-0.014891617535,0.045962557201,0.023185047961,0.045962557201,6.918405360558,6.918405360558,False
209,209,trot_FL_RR,0.045000000000,0.045000000000,"FL,RR","FR,RL",0.280134352717,0.027113032244,-0.013740350196,0.040055173220,0.028029559400,0.040055173220,5.883280760917,5.883280760917,False
210,210,trot_FL_RR,0.050000000000,0.050000000000,"FL,RR","FR,RL",0.280336279120,0.026191205931,-0.011905274440,0.043223556437,0.027381208712,0.043223556437,7.021707119770,7.021707119770,False
211,211,trot_FL_RR,0.055000000000,0.055000000000,"FL,RR","FR,RL",0.280396903932,0.029077926395,-0.010560852754,0.037480793829,0.031903348212,0.037480793829,5.615443755010,5.615443755010,False
212,212,trot_FL_RR,0.060000000000,0.060000000000,"FL,RR","FR,RL",0.280547889175,0.027427747861,-0.008586692879,0.040979707856,0.031130018069,0.040979707856,7.058778909989,7.058778909989,False
213,213,trot_FL_RR,0.065000000000,0.065000000000,"FL,RR","FR,RL",0.280642261994,0.028177319087,-0.006848318976,0.035692067626,0.035659044170,0.035692067626,5.751384505766,5.751384505766,False
214,214,trot_FL_RR,0.070000000000,0.070000000000,"FL,RR","FR,RL",0.280772802603,0.025382609309,-0.004801697142,0.039883390757,0.035022742332,0.039883390757,7.198969306305,7.198969306305,False
215,215,trot_FL_RR,0.075000000000,0.075000000000,"FL,RR","FR,RL",0.280820737458,0.026028273697,-0.002978054524,0.039498214990,0.039498214990,0.035207792314,5.783220429835,5.783220429835,False
216,216,trot_FL_RR,0.080000000000,0.080000000000,"FL,RR","FR,RL",0.280928829617,0.022661623469,-0.001123699873,0.039977128081,0.038867221705,0.039977128081,7.162555273374,7.162555273374,False
217,217,trot_FL_RR,0.085000000000,0.085000000000,"FL,RR","FR,RL",0.280910586934,0.023022145322,0.000642681792,0.043011015388,0.043011015388,0.035789276719,5.639561154196,5.639561154196,False
218,218,trot_FL_RR,0.090000000000,0.090000000000,"FL,RR","FR,RL",0.280951180501,0.019389393628,0.002433143973,0.042150863441,0.042150863441,0.041057430627,7.202973914229,7.202973914229,False
219,219,trot_FL_RR,0.095000000000,0.095000000000,"FL,RR","FR,RL",0.280898864852,0.019197247502,0.003967894940,0.046033396775,0.046033396775,0.037251055222,5.645030640192,5.645030640192,False
220,220,trot_FL_RR,0.100000000000,0.100000000000,"FL,RR","FR,RL",0.280881424334,0.015476288283,0.005813474628,0.044751435976,0.044751435976,0.042692579266,7.209658622142,7.209658622142,False
221,221,trot_FL_RR,0.105000000000,0.105000000000,"FL,RR","FR,RL",0.280770171814,0.015193085906,0.007376555109,0.048519358244,0.048519358244,0.038996607944,5.771967609508,5.771967609508,False
222,222,trot_FL_RR,0.110000000000,0.110000000000,"FL,RR","FR,RL",0.280729628797,0.010775723312,0.009389108243,0.047120345402,0.047120345402,0.043872696703,6.750131183510,6.750131183510,False
223,223,trot_FL_RR,0.115000000000,0.115000000000,"FL,RR","FR,RL",0.280540859365,0.010351698763,0.010887279549,0.050853691192,0.050853691192,0.039860523648,8.677758706371,8.677758706371,False
224,224,trot_FL_RR,0.120000000000,0.120000000000,"FL,RR","FR,RL",0.280427884539,0.005763387313,0.012855597362,0.049302771309,0.049302771309,0.044805600312,7.144915188082,7.144915188082,False
225,225,trot_FL_RR,0.125000000000,0.125000000000,"FL,RR","FR,RL",0.280183640348,0.005400765696,0.014165390603,0.052927515429,0.052927515429,0.040850589361,6.307293505439,6.307293505439,False
226,226,trot_FL_RR,0.130000000000,0.130000000000,"FL,RR","FR,RL",0.280020055030,0.000811029428,0.015941137213,0.051204027923,0.051204027923,0.037827814598,4.809678669145,4.809678669145,False
227,227,trot_FL_RR,0.135000000000,0.135000000000,"FL,RR","FR,RL",0.279708254871,0.000119481244,0.017247444622,0.054664188348,0.054664188348,0.028204761451,7.853631315313,7.853631315313,False
228,228,trot_FL_RR,0.140000000000,0.140000000000,"FL,RR","FR,RL",0.279494318557,-0.004796341464,0.018939650912,0.052887354343,0.052887354343,0.028610886183,4.819369312453,4.819369312453,False
229,229,trot_FL_RR,0.145000000000,0.145000000000,"FL,RR","FR,RL",0.279133620950,-0.005813186136,0.020158491844,0.056249189110,0.056249189110,0.022946508524,6.122857489147,6.122857489147,False
230,230,trot_FL_RR,0.150000000000,0.150000000000,"FL,RR","FR,RL",0.278884951347,-0.011048322493,0.021691879908,0.054376576083,0.054376576083,0.026453126408,5.553737055266,5.553737055266,False
231,231,trot_FL_RR,0.155000000000,0.155000000000,"FL,RR","FR,RL",0.278554703339,-0.011309065944,0.022597862097,0.057611520357,0.057611520357,0.024372192103,6.231885125493,6.231885125493,False
232,232,trot_FL_RR,0.160000000000,0.160000000000,"FL,RR","FR,RL",0.278246206541,-0.016495740480,0.024014692991,0.055778374809,0.055778374809,0.017433636174,5.647577725693,5.647577725693,False
233,233,trot_FL_RR,0.165000000000,0.165000000000,"FL,RR","FR,RL",0.277875482325,-0.016538759326,0.024739835399,0.057552227609,0.057552227609,0.020305885989,5.863922363697,5.863922363697,False
234,234,trot_FL_RR,0.170000000000,0.170000000000,"FL,RR","FR,RL",0.277643647622,-0.020678789752,0.025688931379,0.054476958290,0.054476958290,0.019071596397,5.732004134536,5.732004134536,False
235,235,trot_FL_RR,0.175000000000,0.175000000000,"FL,RR","FR,RL",0.277312954893,-0.019988081242,0.025652925620,0.056665459677,0.056665459677,0.016438605589,6.235632866154,6.235632866154,False
236,236,trot_FL_RR,0.180000000000,0.180000000000,"FL,RR","FR,RL",0.277037750382,-0.023865446931,0.026426060474,0.053531291699,0.053531291699,0.013281411210,5.983466908601,5.983466908601,False
237,237,trot_FL_RR,0.185000000000,0.185000000000,"FL,RR","FR,RL",0.276671696232,-0.022861444164,0.026153673847,0.056000473982,0.056000473982,0.017818259032,6.200054699475,6.200054699475,False
238,238,trot_FL_RR,0.190000000000,0.190000000000,"FL,RR","FR,RL",0.276420574391,-0.026186623447,0.025808517442,0.053077297351,0.053077297351,0.020726279871,6.399903258993,6.399903258993,False
239,239,trot_FL_RR,0.195000000000,0.195000000000,"FL,RR","FR,RL",0.276133197155,-0.026319334702,0.024876253681,0.054876721654,0.054876721654,0.023347337134,6.141172651641,6.141172651641,False
240,240,trot_FL_RR,0.200000000000,0.200000000000,"FL,RR","FR,RL",0.275952939972,-0.028495478729,0.023864768989,0.051732940765,0.051732940765,0.024165416828,6.234219155851,6.234219155851,False
241,241,trot_FL_RR,0.205000000000,0.205000000000,"FL,RR","FR,RL",0.275702717993,-0.030143384801,0.021866718757,0.053449439114,0.053449439114,0.023808382166,6.443043558117,6.443043558117,False
242,242,trot_FL_RR,0.210000000000,0.210000000000,"FL,RR","FR,RL",0.275565101077,-0.027207818946,0.020267294885,0.050371221255,0.050371221255,0.022631919274,6.128738456130,6.128738456130,False
243,243,trot_FL_RR,0.215000000000,0.215000000000,"FL,RR","FR,RL",0.275302104654,-0.028270966996,0.018307715269,0.052513116433,0.052513116433,0.019672400870,7.095889815865,7.095889815865,False
244,244,trot_FL_RR,0.220000000000,0.220000000000,"FL,RR","FR,RL",0.275157467052,-0.024701523760,0.016724127913,0.049719846445,0.049719846445,0.023581739840,5.718922085558,5.718922085558,False
245,245,trot_FL_RR,0.225000000000,0.225000000000,"FL,RR","FR,RL",0.274996577403,-0.024345164608,0.014264964958,0.052038923465,0.052038923465,0.024521716710,7.199743482929,7.199743482929,False
246,246,trot_FL_RR,0.230000000000,0.230000000000,"FL,RR","FR,RL",0.274948065466,-0.020129588198,0.012265380922,0.049294416503,0.049294416503,0.023425310526,6.254847380127,6.254847380127,False
247,247,trot_FL_RR,0.235000000000,0.235000000000,"FL,RR","FR,RL",0.274786348820,-0.019573731833,0.009983430083,0.051598689450,0.051598689450,0.019827786261,6.950469954837,6.950469954837,False
248,248,trot_FL_RR,0.240000000000,0.240000000000,"FL,RR","FR,RL",0.274705099723,-0.014791202053,0.007883665968,0.049138750627,0.049138750627,0.024072381377,6.803918163178,6.803918163178,False
249,249,trot_FL_RR,0.245000000000,0.245000000000,"FL,RR","FR,RL",0.274587616092,-0.013987393691,0.004775669332,0.051294892574,0.051294892574,0.025481561742,7.057995775178,7.057995775178,False
250,250,trot_FL_RR,0.250000000000,0.250000000000,"FL,RR","FR,RL",0.274530242481,-0.008381922796,0.001995629996,0.048058074476,0.048058074476,0.024971516177,4.126717842776,4.126717842776,False
251,251,trot_FL_RR,0.255000000000,0.255000000000,"FL,RR","FR,RL",0.274382708592,-0.007514458614,-0.001084962416,0.051067748738,0.051067748738,0.020088836749,7.365855094468,7.365855094468,False
252,252,trot_FL_RR,0.260000000000,0.260000000000,"FL,RR","FR,RL",0.274360848109,-0.004405102780,-0.003398599190,0.048020659267,0.048020659267,0.024200527161,5.867605451126,5.867605451126,False
253,253,trot_FL_RR,0.265000000000,0.265000000000,"FL,RR","FR,RL",0.274295486460,-0.002747627732,-0.006460755628,0.054017393773,0.054017393773,0.022639833111,7.707864236932,7.707864236932,False
254,254,trot_FL_RR,0.270000000000,0.270000000000,"FL,RR","FR,RL",0.274285384094,0.000437171365,-0.008495768394,0.050865097316,0.050865097316,0.018352081296,4.392820749506,4.392820749506,False
255,255,trot_FL_RR,0.275000000000,0.275000000000,"FL,RR","FR,RL",0.274238506739,0.001794491993,-0.011340866925,0.056672223231,0.056672223231,0.022240950214,7.732937522732,7.732937522732,False
256,256,trot_FL_RR,0.280000000000,0.280000000000,"FL,RR","FR,RL",0.274304614311,0.007092434017,-0.013376689837,0.053424981941,0.053424981941,0.021576093539,3.656086808242,3.656086808242,False
257,257,trot_FL_RR,0.285000000000,0.285000000000,"FL,RR","FR,RL",0.274232725257,0.008449405593,-0.015876624365,0.059060693748,0.059060693748,0.016270190914,7.761221932599,7.761221932599,False
258,258,trot_FL_RR,0.290000000000,0.290000000000,"FL,RR","FR,RL",0.274298931140,0.013690544854,-0.017266104524,0.055687768605,0.055687768605,0.020256157377,5.650760406899,5.650760406899,False
259,259,trot_FL_RR,0.295000000000,0.295000000000,"FL,RR","FR,RL",0.274326415393,0.013641706296,-0.018120919946,0.061267546060,0.061267546060,0.016564258056,7.895112302919,7.895112302919,False
260,260,trot_FL_RR,0.300000000000,0.300000000000,"FL,RR","FR,RL",0.274455056063,0.017565178623,-0.018455643591,0.057726859461,0.057726859461,0.022177574663,6.881504633159,6.881504633159,False
261,261,trot_FL_RR,0.305000000000,0.305000000000,"FL,RR","FR,RL",0.274586368785,0.016402026296,-0.017778463570,0.061999547082,0.061999547082,0.019153544106,6.690568291969,6.690568291969,False
262,262,trot_FL_RR,0.310000000000,0.310000000000,"FL,RR","FR,RL",0.274689472797,0.020119995790,-0.017807385208,0.058740782896,0.058740782896,0.021101136118,4.714899877021,4.714899877021,False
263,263,trot_FL_RR,0.315000000000,0.315000000000,"FL,RR","FR,RL",0.274787928094,0.018509871689,-0.016790623851,0.063357886277,0.063357886277,0.014661126512,7.176383417733,7.176383417733,False
264,264,trot_FL_RR,0.320000000000,0.320000000000,"FL,RR","FR,RL",0.274981782955,0.020900889168,-0.015333497218,0.060345736613,0.060345736613,0.018262751667,5.353741754769,5.353741754769,False
265,265,trot_FL_RR,0.325000000000,0.325000000000,"FL,RR","FR,RL",0.275145198228,0.020589279268,-0.013968517366,0.064674432266,0.064674432266,0.014706312937,7.028033593907,7.028033593907,False
266,266,trot_FL_RR,0.330000000000,0.330000000000,"FL,RR","FR,RL",0.275357703258,0.021785786252,-0.012589166713,0.060230873449,0.060230873449,0.018700406384,6.172323619289,6.172323619289,False
267,267,trot_FL_RR,0.335000000000,0.335000000000,"FL,RR","FR,RL",0.275536005930,0.020275367896,-0.011296675519,0.065318452326,0.065318452326,0.015004420687,7.887640301606,7.887640301606,False
268,268,trot_FL_RR,0.340000000000,0.340000000000,"FL,RR","FR,RL",0.275724432410,0.020856158164,-0.010169236781,0.061432797140,0.061432797140,0.020871557271,7.086939802895,7.086939802895,False
269,269,trot_FL_RR,0.345000000000,0.345000000000,"FL,RR","FR,RL",0.275907585887,0.018205703393,-0.008375236498,0.066853343155,0.066853343155,0.017643443442,8.375711582882,8.375711582882,False
270,270,trot_FL_RR,0.350000000000,0.350000000000,"FL,RR","FR,RL",0.276058512962,0.018010226398,-0.006960543336,0.063008965530,0.063008965530,0.024021437414,7.843237936151,7.843237936151,False
271,271,trot_FL_RR,0.355000000000,0.355000000000,"FL,RR","FR,RL",0.276234316094,0.015503619515,-0.005318984607,0.068371715557,0.068371715557,0.021150212102,8.472928260041,8.472928260041,False
272,272,trot_FL_RR,0.360000000000,0.360000000000,"FL,RR","FR,RL",0.276475692547,0.013690436567,-0.002905983721,0.064535144912,0.064535144912,0.016325377424,5.308170506591,5.308170506591,False
273,273,trot_FL_RR,0.365000000000,0.365000000000,"FL,RR","FR,RL",0.276614196582,0.010352686294,-0.000844194407,0.069766867156,0.069766867156,0.019839979459,8.490397209302,8.490397209302,False
274,274,trot_FL_RR,0.370000000000,0.370000000000,"FL,RR","FR,RL",0.276825354411,0.010643922090,0.001278536374,0.066339196629,0.066339196629,0.018275335807,6.066691391056,6.066691391056,False
275,275,trot_FL_RR,0.375000000000,0.375000000000,"FL,RR","FR,RL",0.276981233239,0.006758649630,0.003695474220,0.071748735140,0.071748735140,0.012986926263,8.852740624602,8.852740624602,False
276,276,trot_FL_RR,0.380000000000,0.380000000000,"FL,RR","FR,RL",0.277117640739,0.007324122240,0.005224713387,0.067946920205,0.067946920205,0.015755023431,4.781401371045,4.781401371045,False
277,277,trot_FL_RR,0.385000000000,0.385000000000,"FL,RR","FR,RL",0.277256699141,0.003806973493,0.006855827287,0.073231306279,0.073231306279,0.014287846291,8.882913619437,8.882913619437,False
278,278,trot_FL_RR,0.390000000000,0.390000000000,"FL,RR","FR,RL",0.277418465622,0.003354755976,0.008852474480,0.069410584933,0.069410584933,0.012271773968,3.463277266340,3.463277266340,False
279,279,trot_FL_RR,0.395000000000,0.395000000000,"FL,RR","FR,RL",0.277547278705,0.000006429865,0.010465333267,0.074449617283,0.074449617283,0.015286701807,8.777714680496,8.777714680496,False
280,280,trot_FL_RR,0.400000000000,0.400000000000,"FL,RR","FR,RL",0.277733646099,0.000473206562,0.011939867764,0.070419987273,0.070419987273,0.014406073278,4.818513938122,4.818513938122,False
281,281,trot_FL_RR,0.405000000000,0.405000000000,"FL,RR","FR,RL",0.277801262478,-0.002644805693,0.013356404225,0.075433971394,0.075433971394,0.011556862076,8.879408575684,8.879408575684,False
282,282,trot_FL_RR,0.410000000000,0.410000000000,"FL,RR","FR,RL",0.277950522237,-0.001667897566,0.014889839313,0.071263080723,0.071263080723,0.016539315303,6.500192398732,6.500192398732,False
283,283,trot_FL_RR,0.415000000000,0.415000000000,"FL,RR","FR,RL",0.278072516188,-0.003268697356,0.015994423698,0.076070694005,0.076070694005,0.015922403349,8.779493036843,8.779493036843,False
284,284,trot_FL_RR,0.420000000000,0.420000000000,"FL,RR","FR,RL",0.278202774452,-0.002032637859,0.017362926199,0.071810785493,0.071810785493,0.011380815224,4.050279897543,4.050279897543,False
285,285,trot_FL_RR,0.425000000000,0.425000000000,"FL,RR","FR,RL",0.278313304133,-0.003753578370,0.018324381721,0.076534214218,0.076534214218,0.016112200624,8.791887178453,8.791887178453,False
286,286,trot_FL_RR,0.430000000000,0.430000000000,"FL,RR","FR,RL",0.278496899269,-0.003950504772,0.019400452571,0.072237072721,0.072237072721,0.016210790685,5.283073082251,5.283073082251,False
287,287,trot_FL_RR,0.435000000000,0.435000000000,"FL,RR","FR,RL",0.278523417282,-0.005793994834,0.020145972263,0.077135622802,0.077135622802,0.012264197546,9.072315708594,9.072315708594,False
288,288,trot_FL_RR,0.440000000000,0.440000000000,"FL,RR","FR,RL",0.278657272777,-0.005661734759,0.021129598445,0.072655858271,0.072655858271,0.017155793807,5.894144291680,5.894144291680,False
289,289,trot_FL_RR,0.445000000000,0.445000000000,"FL,RR","FR,RL",0.278755001468,-0.006408732143,0.021518684310,0.077417410089,0.077417410089,0.017151765079,9.021839746998,9.021839746998,False
290,290,trot_FL_RR,0.450000000000,0.450000000000,"FL,RR","FR,RL",0.278869739607,-0.003930982874,0.021932466879,0.072993110258,0.072993110258,0.014466422740,7.090076531531,7.090076531531,False
291,291,trot_FL_RR,0.455000000000,0.455000000000,"FL,RR","FR,RL",0.278977742540,-0.004586789323,0.021988071933,0.077607439039,0.077607439039,0.014544551097,8.955963915668,8.955963915668,False
292,292,trot_FL_RR,0.460000000000,0.460000000000,"FL,RR","FR,RL",0.279071086164,-0.004046085198,0.022635577511,0.073206887078,0.073206887078,0.014018959947,4.442299730731,4.442299730731,False
293,293,trot_FL_RR,0.465000000000,0.465000000000,"FL,RR","FR,RL",0.279121174449,-0.003988724449,0.022500420710,0.077781813887,0.077781813887,0.015379996254,8.997239871290,8.997239871290,False
294,294,trot_FL_RR,0.470000000000,0.470000000000,"FL,RR","FR,RL",0.279192214486,-0.001375669803,0.021911996546,0.073202635065,0.073202635065,0.016897141538,4.434823728212,4.434823728212,False
295,295,trot_FL_RR,0.475000000000,0.475000000000,"FL,RR","FR,RL",0.279210198401,-0.001761903263,0.020697476045,0.077917425418,0.077917425418,0.015650736866,9.215665501662,9.215665501662,False
296,296,trot_FL_RR,0.480000000000,0.480000000000,"FL,RR","FR,RL",0.279240860127,0.000901135502,0.019790072642,0.073608778571,0.073608778571,0.018004565120,5.476662992401,5.476662992401,False
297,297,trot_FL_RR,0.485000000000,0.485000000000,"FL,RR","FR,RL",0.279245774259,0.000700003475,0.018545994907,0.078211394170,0.078211394170,0.017862467497,9.191703571177,9.191703571177,False
298,298,trot_FL_RR,0.490000000000,0.490000000000,"FL,RR","FR,RL",0.279289547680,0.002249129729,0.017257191436,0.073715953128,0.073715953128,0.020481911624,6.331809734249,6.331809734249,False
299,299,trot_FL_RR,0.495000000000,0.495000000000,"FL,RR","FR,RL",0.279214297952,0.003870541982,0.015663089059,0.078408711347,0.078408711347,0.019868417068,9.364347842982,9.364347842982,False
300,300,trot_FL_RR,0.500000000000,0.500000000000,"FL,RR","FR,RL",0.279224709960,0.004834483017,0.014459925658,0.073565242562,0.073565242562,0.018063664630,6.658451100761,6.658451100761,False
301,301,trot_FL_RR,0.505000000000,0.505000000000,"FL,RR","FR,RL",0.279208324393,0.004733434747,0.012662479756,0.078138885426,0.078138885426,0.016333647212,9.299731913445,9.299731913445,False
302,302,trot_FL_RR,0.510000000000,0.510000000000,"FL,RR","FR,RL",0.279203776377,0.007556918670,0.011190125500,0.073535771110,0.073535771110,0.017821948909,4.345873996754,4.345873996754,False
303,303,trot_FL_RR,0.515000000000,0.515000000000,"FL,RR","FR,RL",0.279156030980,0.007494697330,0.009430525090,0.077874071975,0.077874071975,0.016909459263,9.119155123252,9.119155123252,False
304,304,trot_FL_RR,0.520000000000,0.520000000000,"FL,RR","FR,RL",0.279173126894,0.009097657027,0.008066781924,0.073097611291,0.073097611291,0.018783678309,4.863230866823,4.863230866823,False
305,305,trot_FL_RR,0.525000000000,0.525000000000,"FL,RR","FR,RL",0.279039912646,0.009595672718,0.006342371522,0.077414825903,0.077414825903,0.018914034878,9.141072102659,9.141072102659,False
306,306,trot_FL_RR,0.530000000000,0.530000000000,"FL,RR","FR,RL",0.279002098392,0.011492907319,0.005042285982,0.072324138488,0.072324138488,0.017255028995,5.093355630333,5.093355630333,False
307,307,trot_FL_RR,0.535000000000,0.535000000000,"FL,RR","FR,RL",0.278906666604,0.008861288088,0.004277767274,0.076478764363,0.076478764363,0.014494931988,8.992720676105,8.992720676105,False
308,308,trot_FL_RR,0.540000000000,0.540000000000,"FL,RR","FR,RL",0.278804284404,0.010972785265,0.002962390937,0.071417559251,0.071417559251,0.016342868040,6.643634596495,6.643634596495,False
309,309,trot_FL_RR,0.545000000000,0.545000000000,"FL,RR","FR,RL",0.278689688444,0.010155341940,0.002172674454,0.075594425610,0.075594425610,0.012365485841,9.032083870009,9.032083870009,False
310,310,trot_FL_RR,0.550000000000,0.550000000000,"FL,RR","FR,RL",0.278574231289,0.010627731398,0.001106862748,0.070433376624,0.070433376624,0.012910742079,7.124142727505,7.124142727505,False
311,311,trot_FL_RR,0.555000000000,0.555000000000,"FL,RR","FR,RL",0.278464292501,0.012043269000,0.000196656348,0.074604214180,0.074604214180,0.011239415341,9.036546539609,9.036546539609,False
312,312,trot_FL_RR,0.560000000000,0.560000000000,"FL,RR","FR,RL",0.278381643615,0.012051283321,0.000214222280,0.069396052906,0.069396052906,0.009255851830,4.962503260752,4.962503260752,False
313,313,trot_FL_RR,0.565000000000,0.565000000000,"FL,RR","FR,RL",0.278248612129,0.011318949232,-0.000478768458,0.073379244346,0.073379244346,0.011610090908,8.844966790956,8.844966790956,False
314,314,trot_FL_RR,0.570000000000,0.570000000000,"FL,RR","FR,RL",0.278192422842,0.014133667853,-0.001032193121,0.068153688335,0.068153688335,0.012340504790,5.615510625661,5.615510625661,False
315,315,trot_FL_RR,0.575000000000,0.575000000000,"FL,RR","FR,RL",0.278083116324,0.012596192526,-0.001234264933,0.071937498587,0.071937498587,0.012173935143,8.628245355529,8.628245355529,False
316,316,trot_FL_RR,0.580000000000,0.580000000000,"FL,RR","FR,RL",0.277951299304,0.015435439520,-0.002296284963,0.066560073868,0.066560073868,0.014071179250,4.152034629072,4.152034629072,False
317,317,trot_FL_RR,0.585000000000,0.585000000000,"FL,RR","FR,RL",0.277781509578,0.013439220655,-0.002593842975,0.070365015591,0.070365015591,0.014666001116,8.623732097088,8.623732097088,False
318,318,trot_FL_RR,0.590000000000,0.590000000000,"FL,RR","FR,RL",0.277706166938,0.015335009462,-0.002489208964,0.064916339763,0.064916339763,0.012921871717,7.226644858633,7.226644858633,False
319,319,trot_FL_RR,0.595000000000,0.595000000000,"FL,RR","FR,RL",0.277556511792,0.014174875277,-0.002910412129,0.068389850096,0.068389850096,0.012161345029,8.241974878135,8.241974878135,False
320,320,trot_FL_RR,0.600000000000,0.600000000000,"FL,RR","FR,RL",0.277467677188,0.016141125626,-0.002583169643,0.063632826583,0.063632826583,0.014070997836,6.187778295720,6.187778295720,False
321,321,trot_FL_RR,0.605000000000,0.605000000000,"FL,RR","FR,RL",0.277347961735,0.016425392668,-0.002682632271,0.066945033786,0.066945033786,0.013602321622,8.061587124504,8.061587124504,False
322,322,trot_FL_RR,0.610000000000,0.610000000000,"FL,RR","FR,RL",0.277254145483,0.016947472996,-0.002697220232,0.062830003565,0.062830003565,0.013839774738,3.720710904797,3.720710904797,False
323,323,trot_FL_RR,0.615000000000,0.615000000000,"FL,RR","FR,RL",0.277148352705,0.016541060383,-0.002687525248,0.066385756031,0.066385756031,0.011377741085,8.338541085745,8.338541085745,False
324,324,trot_FL_RR,0.620000000000,0.620000000000,"FL,RR","FR,RL",0.277057091579,0.017130844087,-0.002356207248,0.061771390562,0.061771390562,0.015044730387,6.055340438533,6.055340438533,False
325,325,trot_FL_RR,0.625000000000,0.625000000000,"FL,RR","FR,RL",0.277021266509,0.017951324171,-0.001304035474,0.065264677674,0.065264677674,0.016442366131,8.275078558589,8.275078558589,False
326,326,trot_FL_RR,0.630000000000,0.630000000000,"FL,RR","FR,RL",0.276896969344,0.020552425027,-0.001105776873,0.060850568209,0.060850568209,0.016421449974,4.311672989743,4.311672989743,False
327,327,trot_FL_RR,0.635000000000,0.635000000000,"FL,RR","FR,RL",0.276805681331,0.018953514778,-0.000378933900,0.064317930978,0.064317930978,0.016057914349,8.257860690204,8.257860690204,False
328,328,trot_FL_RR,0.640000000000,0.640000000000,"FL,RR","FR,RL",0.276729783745,0.020412132470,0.000240359800,0.060167741314,0.060167741314,0.016065249855,5.878627276788,5.878627276788,False
329,329,trot_FL_RR,0.645000000000,0.645000000000,"FL,RR","FR,RL",0.276661342790,0.018048284305,0.000725931379,0.063324378581,0.063324378581,0.014835023044,7.952219122568,7.952219122568,False
330,330,trot_FL_RR,0.650000000000,0.650000000000,"FL,RR","FR,RL",0.276586961434,0.019400818746,0.000720000580,0.058863294038,0.058863294038,0.011961537022,6.922372297923,6.922372297923,False
331,331,trot_FL_RR,0.655000000000,0.655000000000,"FL,RR","FR,RL",0.276443750199,0.017198858405,0.001600512526,0.061759103534,0.061759103534,0.017795322075,8.087661151841,8.087661151841,False
332,332,trot_FL_RR,0.660000000000,0.660000000000,"FL,RR","FR,RL",0.276392729232,0.016796355781,0.002398679222,0.057145622107,0.057145622107,0.017584756989,4.594024604654,4.594024604654,False
333,333,trot_FL_RR,0.665000000000,0.665000000000,"FL,RR","FR,RL",0.276291179890,0.014245537585,0.003045092124,0.059880091396,0.059880091396,0.015032953983,7.450116191011,7.450116191011,False
334,334,trot_FL_RR,0.670000000000,0.670000000000,"FL,RR","FR,RL",0.276289763547,0.013353691278,0.004035226793,0.055113629798,0.055113629798,0.013283905893,6.193956917396,6.193956917396,False
335,335,trot_FL_RR,0.675000000000,0.675000000000,"FL,RR","FR,RL",0.276260411609,0.009651535848,0.004638542669,0.057749786267,0.057749786267,0.008971941857,7.285896975575,7.285896975575,False
336,336,trot_FL_RR,0.680000000000,0.680000000000,"FL,RR","FR,RL",0.276269751256,0.008923870434,0.005725557110,0.052875513904,0.052875513904,0.010850398311,5.763769697863,5.763769697863,False
337,337,trot_FL_RR,0.685000000000,0.685000000000,"FL,RR","FR,RL",0.276292593637,0.006756598324,0.006467608983,0.055502090835,0.055502090835,0.009256759740,7.202326922446,7.202326922446,False
338,338,trot_FL_RR,0.690000000000,0.690000000000,"FL,RR","FR,RL",0.276324855797,0.006821748917,0.006651542026,0.050803436306,0.050803436306,0.010415419309,4.058672383810,4.058672383810,False
339,339,trot_FL_RR,0.695000000000,0.695000000000,"FL,RR","FR,RL",0.276310743801,0.002220767198,0.007510959850,0.053337185706,0.053337185706,0.012183043291,7.039380452741,7.039380452741,False
340,340,trot_FL_RR,0.700000000000,0.700000000000,"FL,RR","FR,RL",0.276375485883,0.002057589586,0.008022715036,0.048295286163,0.048295286163,0.009924297572,6.211041447450,6.211041447450,False
341,341,trot_FL_RR,0.705000000000,0.705000000000,"FL,RR","FR,RL",0.276445848453,-0.001208768518,0.008543953783,0.050876110306,0.050876110306,0.007858936097,6.997415733252,6.997415733252,False
342,342,trot_FL_RR,0.710000000000,0.710000000000,"FL,RR","FR,RL",0.276519255623,-0.001359687255,0.008910238757,0.045988931548,0.045988931548,0.010609805887,5.922955857951,5.922955857951,False
343,343,trot_FL_RR,0.715000000000,0.715000000000,"FL,RR","FR,RL",0.276622284065,-0.005049033240,0.009024976644,0.048492138842,0.048492138842,0.010892861392,6.834181566163,6.834181566163,False
344,344,trot_FL_RR,0.720000000000,0.720000000000,"FL,RR","FR,RL",0.276746373009,-0.003989000103,0.008793678863,0.043500587086,0.043500587086,0.011551568295,6.750424962578,6.750424962578,False
345,345,trot_FL_RR,0.725000000000,0.725000000000,"FL,RR","FR,RL",0.276812125433,-0.007514143741,0.009121558909,0.046066704457,0.046066704457,0.012445160812,6.807729408331,6.807729408331,False
346,346,trot_FL_RR,0.730000000000,0.730000000000,"FL,RR","FR,RL",0.276904288464,-0.006796078104,0.008932636174,0.041002987873,0.041002987873,0.014486471957,6.897071862057,6.897071862057,False
347,347,trot_FL_RR,0.735000000000,0.735000000000,"FL,RR","FR,RL",0.277031565197,-0.009890206939,0.008943275549,0.043438658135,0.043438658135,0.015488073125,7.056066107768,7.056066107768,False
348,348,trot_FL_RR,0.740000000000,0.740000000000,"FL,RR","FR,RL",0.277123199681,-0.009648211286,0.008628231496,0.038394295685,0.038394295685,0.013988266869,6.981160129293,6.981160129293,False
349,349,trot_FL_RR,0.745000000000,0.745000000000,"FL,RR","FR,RL",0.277195285201,-0.011712527537,0.008200781057,0.040700442222,0.040700442222,0.016955778182,6.577486543127,6.577486543127,False
350,350,trot_FL_RR,0.750000000000,0.750000000000,"FL,RR","FR,RL",0.277341605990,-0.009691057987,0.008002092589,0.035600299014,0.035600299014,0.017527084495,3.341435376101,3.341435376101,False
351,351,trot_FL_RR,0.755000000000,0.755000000000,"FL,RR","FR,RL",0.277352980108,-0.011592072464,0.007414790090,0.038520179984,0.038520179984,0.014772251015,6.869131301469,6.869131301469,False
352,352,trot_FL_RR,0.760000000000,0.760000000000,"FL,RR","FR,RL",0.277459897160,-0.009197587795,0.007346794647,0.032558166011,0.032558166011,0.017736267403,5.726214444979,5.726214444979,False
353,353,trot_FL_RR,0.765000000000,0.765000000000,"FL,RR","FR,RL",0.277516065329,-0.010127870481,0.006478722223,0.035840590519,0.035840590519,0.016553326027,7.121519949598,7.121519949598,False
354,354,trot_FL_RR,0.770000000000,0.770000000000,"FL,RR","FR,RL",0.277598041478,-0.007942640783,0.006308119703,0.029869441759,0.029869441759,0.011939329156,5.880996451248,5.880996451248,False
355,355,trot_FL_RR,0.775000000000,0.775000000000,"FL,RR","FR,RL",0.277631491742,-0.009032166383,0.005339166724,0.032849395155,0.032849395155,0.015136713646,6.688687273947,6.688687273947,False
356,356,trot_FL_RR,0.780000000000,0.780000000000,"FL,RR","FR,RL",0.277751561116,-0.007022441061,0.004937475362,0.026639087436,0.026639087436,0.014001533699,6.934921220627,6.934921220627,False
357,357,trot_FL_RR,0.785000000000,0.785000000000,"FL,RR","FR,RL",0.277755602488,-0.009388220089,0.004115386334,0.029472077947,0.029472077947,0.013999419029,6.386637202659,6.386637202659,False
358,358,trot_FL_RR,0.790000000000,0.790000000000,"FL,RR","FR,RL",0.277805967409,-0.006896090020,0.003574863082,0.022998937662,0.022998937662,0.013492073931,4.636993951128,4.636993951128,False
359,359,trot_FL_RR,0.795000000000,0.795000000000,"FL,RR","FR,RL",0.277781376157,-0.008707364312,0.002668071196,0.025715019026,0.025715019026,0.015404868712,6.090251030641,6.090251030641,False
360,360,trot_FL_RR,0.800000000000,0.800000000000,"FL,RR","FR,RL",0.277825755078,-0.006021764706,0.001829238462,0.019203297234,0.019203297234,0.015836342357,4.818916827310,4.818916827310,False
361,361,trot_FL_RR,0.805000000000,0.805000000000,"FL,RR","FR,RL",0.277773772048,-0.006185513662,0.000778712154,0.021856948749,0.021856948749,0.015220167613,5.840632113430,5.840632113430,False
362,362,trot_FL_RR,0.810000000000,0.810000000000,"FL,RR","FR,RL",0.277788689268,-0.004282589827,-0.000138341278,0.016702382287,0.016702382287,0.016191844113,5.031041852793,5.031041852793,False
363,363,trot_FL_RR,0.815000000000,0.815000000000,"FL,RR","FR,RL",0.277765031835,-0.005875707186,-0.001949511160,0.017868553930,0.017868553930,0.016588660273,5.434546383576,5.434546383576,False
364,364,trot_FL_RR,0.820000000000,0.820000000000,"FL,RR","FR,RL",0.277738479797,-0.003466568225,-0.003098313322,0.017756046385,0.017756046385,0.015511944462,5.089556598160,5.089556598160,False
365,365,trot_FL_RR,0.825000000000,0.825000000000,"FL,RR","FR,RL",0.277673274920,-0.005207679544,-0.005109855254,0.017138695370,0.016453564132,0.017138695370,5.188484664772,5.188484664772,False
366,366,trot_FL_RR,0.830000000000,0.830000000000,"FL,RR","FR,RL",0.277671565145,-0.003583834019,-0.007202380174,0.020579077037,0.020579077037,0.017540210601,5.402764450668,5.402764450668,False
367,367,trot_FL_RR,0.835000000000,0.835000000000,"FL,RR","FR,RL",0.277580674834,-0.005410413430,-0.008914925724,0.020095703168,0.020095703168,0.017299139680,4.814995704908,4.814995704908,False
368,368,trot_FL_RR,0.840000000000,0.840000000000,"FL,RR","FR,RL",0.277555355181,-0.003418848735,-0.010641554647,0.019894928207,0.019894928207,0.016506771065,5.397388836580,5.397388836580,False
369,369,trot_FL_RR,0.845000000000,0.845000000000,"FL,RR","FR,RL",0.277524008198,-0.003188355134,-0.012907289481,0.018938263676,0.017099396509,0.018938263676,4.202005204062,4.202005204062,False
370,370,trot_FL_RR,0.850000000000,0.850000000000,"FL,RR","FR,RL",0.277460691590,-0.000227197625,-0.015237882323,0.020272988454,0.020266142060,0.020272988454,5.290660120951,5.290660120951,False
371,371,trot_FL_RR,0.855000000000,0.855000000000,"FL,RR","FR,RL",0.277398431535,-0.001565058901,-0.017294528095,0.016993892193,0.016993892193,0.016906450284,5.991146362208,5.991146362208,False
372,372,trot_FL_RR,0.860000000000,0.860000000000,"FL,RR","FR,RL",0.277382642385,0.000947976778,-0.019811764134,0.021339804703,0.021339804703,0.017014571340,5.626068198343,5.626068198343,False
373,373,trot_FL_RR,0.865000000000,0.865000000000,"FL,RR","FR,RL",0.277344692434,-0.000850442608,-0.021370642332,0.018732551630,0.018732551630,0.016498742144,6.194559923310,6.194559923310,False
374,374,trot_FL_RR,0.870000000000,0.870000000000,"FL,RR","FR,RL",0.277281989113,0.001784174748,-0.023754578106,0.024341186970,0.024341186970,0.018857213132,5.988602428004,5.988602428004,False
375,375,trot_FL_RR,0.875000000000,0.875000000000,"FL,RR","FR,RL",0.277200821654,-0.000279407467,-0.025148677079,0.021573748862,0.021573748862,0.015899212576,6.664430279254,6.664430279254,False
376,376,trot_FL_RR,0.880000000000,0.880000000000,"FL,RR","FR,RL",0.277184641350,-0.000691018540,-0.026956683584,0.028189116008,0.028189116008,0.016368259285,6.204970494151,6.204970494151,False
377,377,trot_FL_RR,0.885000000000,0.885000000000,"FL,RR","FR,RL",0.277143575483,-0.000221965137,-0.029063169122,0.025238102173,0.025238102173,0.016543780510,3.602038758379,3.602038758379,False
378,378,trot_FL_RR,0.890000000000,0.890000000000,"FL,RR","FR,RL",0.277137645665,-0.004414111967,-0.030477996236,0.031063948792,0.031063948792,0.016327171807,7.063915586209,7.063915586209,False
379,379,trot_FL_RR,0.895000000000,0.895000000000,"FL,RR","FR,RL",0.277034214723,-0.003783848373,-0.032669761947,0.028102596836,0.028102596836,0.017702456043,4.697193146238,4.697193146238,False
380,380,trot_FL_RR,0.900000000000,0.900000000000,"FL,RR","FR,RL",0.277021413584,-0.008167096635,-0.033606786757,0.034280950034,0.034280950034,0.016550716728,6.029347973104,6.029347973104,False
381,381,trot_FL_RR,0.905000000000,0.905000000000,"FL,RR","FR,RL",0.276994781245,-0.008509596344,-0.034742326351,0.031684785116,0.031684785116,0.014655029117,5.736194633838,5.736194633838,False
382,382,trot_FL_RR,0.910000000000,0.910000000000,"FL,RR","FR,RL",0.277061861253,-0.011660615500,-0.035538699437,0.038165707121,0.038165707121,0.016943856586,6.540542171105,6.540542171105,False
383,383,trot_FL_RR,0.915000000000,0.915000000000,"FL,RR","FR,RL",0.277042572589,-0.013359576657,-0.036648389812,0.035702800132,0.035702800132,0.015794638459,6.313310019528,6.313310019528,False
384,384,trot_FL_RR,0.920000000000,0.920000000000,"FL,RR","FR,RL",0.277117896341,-0.017790838821,-0.037366678538,0.042075735118,0.042075735118,0.017730272989,6.644793264659,6.644793264659,False
385,385,trot_FL_RR,0.925000000000,0.925000000000,"FL,RR","FR,RL",0.277095749998,-0.017544110832,-0.038363234506,0.039578288829,0.039578288829,0.016378891453,7.892159650929,7.892159650929,False
386,386,trot_FL_RR,0.930000000000,0.930000000000,"FL,RR","FR,RL",0.277191857997,-0.021983193793,-0.038984070341,0.046273169486,0.046273169486,0.020990191076,7.198348076650,7.198348076650,False
387,387,trot_FL_RR,0.935000000000,0.935000000000,"FL,RR","FR,RL",0.277298360465,-0.024842500832,-0.038961407389,0.043816653095,0.043816653095,0.020285008859,5.904993030226,5.904993030226,False
388,388,trot_FL_RR,0.940000000000,0.940000000000,"FL,RR","FR,RL",0.277382412396,-0.027861731361,-0.039206807159,0.047931142544,0.047931142544,0.020569008346,4.699353569812,4.699353569812,False
389,389,trot_FL_RR,0.945000000000,0.945000000000,"FL,RR","FR,RL",0.277483927444,-0.032729459166,-0.038327129479,0.043089014466,0.043089014466,0.016705770692,7.429968452825,7.429968452825,False
390,390,trot_FL_RR,0.950000000000,0.950000000000,"FL,RR","FR,RL",0.277668768008,-0.033780955819,-0.037140945567,0.048451662931,0.048451662931,0.013367523824,5.962844322815,5.962844322815,False
391,391,trot_FL_RR,0.955000000000,0.955000000000,"FL,RR","FR,RL",0.277718482856,-0.038735136936,-0.036467373446,0.045025958607,0.045025958607,0.015649202953,5.074106072796,5.074106072796,False
392,392,trot_FL_RR,0.960000000000,0.960000000000,"FL,RR","FR,RL",0.277877944804,-0.038942563365,-0.034917318994,0.050934373330,0.050934373330,0.013028891802,6.830307022415,6.830307022415,False
393,393,trot_FL_RR,0.965000000000,0.965000000000,"FL,RR","FR,RL",0.278051633756,-0.041929736698,-0.033663788271,0.048200090223,0.048200090223,0.015263737958,5.611512404752,5.611512404752,False
394,394,trot_FL_RR,0.970000000000,0.970000000000,"FL,RR","FR,RL",0.278254688715,-0.039714050617,-0.032270871410,0.053619663288,0.053619663288,0.013490233910,6.304695903294,6.304695903294,False
395,395,trot_FL_RR,0.975000000000,0.975000000000,"FL,RR","FR,RL",0.278382355171,-0.042482721896,-0.030735475249,0.050392985795,0.050392985795,0.015871835710,7.039506713120,7.039506713120,False
396,396,trot_FL_RR,0.980000000000,0.980000000000,"FL,RR","FR,RL",0.278550281955,-0.039984335738,-0.029047833352,0.056508976233,0.056508976233,0.013466584751,7.165263741684,7.165263741684,False
397,397,trot_FL_RR,0.985000000000,0.985000000000,"FL,RR","FR,RL",0.278742902153,-0.042091081076,-0.026705280242,0.053821187621,0.053821187621,0.015263057267,7.143495627265,7.143495627265,False
398,398,trot_FL_RR,0.990000000000,0.990000000000,"FL,RR","FR,RL",0.278905596436,-0.040474524470,-0.025073918250,0.051838217836,0.051838217836,0.012774715221,6.005536038671,6.005536038671,False
399,399,trot_FL_RR,0.995000000000,0.995000000000,"FL,RR","FR,RL",0.279088061951,-0.042795743274,-0.022479049061,0.043052138885,0.043052138885,0.015223046598,9.014211173291,9.014211173291,False
400,400,trot_FR_RL,0.000000000000,0.000000000000,"FR,RL","FL,RR",0.279265917192,-0.042028920431,-0.020481676784,0.044416644682,0.011432211257,0.044416644682,5.654794174274,5.654794174274,False
401,401,trot_FR_RL,0.005000000000,0.005000000000,"FR,RL","FL,RR",0.279484110687,-0.043377714653,-0.017702517595,0.043358510071,0.014352018594,0.043358510071,6.790546885771,6.790546885771,False
402,402,trot_FR_RL,0.010000000000,0.010000000000,"FR,RL","FL,RR",0.279651353889,-0.042888279282,-0.015587218214,0.040322539790,0.012732104436,0.040322539790,6.043105655153,6.043105655153,False
403,403,trot_FR_RL,0.015000000000,0.015000000000,"FR,RL","FL,RR",0.279898256199,-0.043624437179,-0.013081251387,0.041549598209,0.015497780189,0.041549598209,5.473607048253,5.473607048253,False
404,404,trot_FR_RL,0.020000000000,0.020000000000,"FR,RL","FL,RR",0.280120855363,-0.043512493201,-0.010742322965,0.039262600032,0.014740453347,0.039262600032,4.770981547818,4.770981547818,False
405,405,trot_FR_RL,0.025000000000,0.025000000000,"FR,RL","FL,RR",0.280314292687,-0.043686097251,-0.008876287772,0.034623497462,0.015869809734,0.034623497462,5.525713632103,5.525713632103,False
406,406,trot_FR_RL,0.030000000000,0.030000000000,"FR,RL","FL,RR",0.280533872179,-0.045308949941,-0.007025316712,0.039155825564,0.018114574691,0.039155825564,7.270612462464,7.270612462464,False
407,407,trot_FR_RL,0.035000000000,0.035000000000,"FR,RL","FL,RR",0.280747919379,-0.046908512481,-0.004738546720,0.037035008990,0.019908758737,0.037035008990,5.012487995369,5.012487995369,False
408,408,trot_FR_RL,0.040000000000,0.040000000000,"FR,RL","FL,RR",0.280956783815,-0.048558000945,-0.002846576825,0.029377699469,0.018365052050,0.029377699469,6.918878482650,6.918878482650,False
409,409,trot_FR_RL,0.045000000000,0.045000000000,"FR,RL","FL,RR",0.281205568387,-0.049130600032,-0.000761455048,0.031584489755,0.017722813979,0.031584489755,5.289637129512,5.289637129512,False
410,410,trot_FR_RL,0.050000000000,0.050000000000,"FR,RL","FL,RR",0.281384345868,-0.051810259875,0.001199763642,0.027182131658,0.020656639951,0.027182131658,5.556861929587,5.556861929587,False
411,411,trot_FR_RL,0.055000000000,0.055000000000,"FR,RL","FL,RR",0.281547862860,-0.050843242722,0.003027812819,0.021340850060,0.019016405090,0.021340850060,4.550506651526,4.550506651526,False
412,412,trot_FR_RL,0.060000000000,0.060000000000,"FR,RL","FL,RR",0.281746093892,-0.051887367420,0.004887045461,0.024774953956,0.021990146150,0.024774953956,6.021683544405,6.021683544405,False
413,413,trot_FR_RL,0.065000000000,0.065000000000,"FR,RL","FL,RR",0.281947964043,-0.052399236592,0.007111228034,0.021683059105,0.020328284085,0.021683059105,6.081742353652,6.081742353652,False
414,414,trot_FR_RL,0.070000000000,0.070000000000,"FR,RL","FL,RR",0.282152186992,-0.055027187912,0.008442166871,0.024034505642,0.024034505642,0.018451860839,6.544300553393,6.544300553393,False
415,415,trot_FR_RL,0.075000000000,0.075000000000,"FR,RL","FL,RR",0.282313624438,-0.055611271924,0.010457076316,0.022435496142,0.022435496142,0.016487047081,4.379539952372,4.379539952372,False
416,416,trot_FR_RL,0.080000000000,0.080000000000,"FR,RL","FL,RR",0.282475038812,-0.059969044121,0.011613722041,0.026091140720,0.026091140720,0.017126947813,6.345644999296,6.345644999296,False
417,417,trot_FR_RL,0.085000000000,0.085000000000,"FR,RL","FL,RR",0.282660601968,-0.058872614917,0.013335865544,0.024518493208,0.024518493208,0.018295647525,6.390860493592,6.390860493592,False
418,418,trot_FR_RL,0.090000000000,0.090000000000,"FR,RL","FL,RR",0.282779914378,-0.062149306389,0.014561821638,0.029273448327,0.029273448327,0.017025835121,6.460980487700,6.460980487700,False
419,419,trot_FR_RL,0.095000000000,0.095000000000,"FR,RL","FL,RR",0.282931572250,-0.060012898795,0.016321755063,0.027011358863,0.027011358863,0.016511226107,5.410668982816,5.410668982816,False
420,420,trot_FR_RL,0.100000000000,0.100000000000,"FR,RL","FL,RR",0.282997647571,-0.062490649699,0.017475875684,0.033830928829,0.033830928829,0.018052286582,6.706021222777,6.706021222777,False
421,421,trot_FR_RL,0.105000000000,0.105000000000,"FR,RL","FL,RR",0.283098094109,-0.059615939190,0.019173602294,0.031373053410,0.031373053410,0.014005520369,6.196799406823,6.196799406823,False
422,422,trot_FR_RL,0.110000000000,0.110000000000,"FR,RL","FL,RR",0.283191729141,-0.059727220598,0.019884328195,0.038054895568,0.038054895568,0.019370125183,6.857129183650,6.857129183650,False
423,423,trot_FR_RL,0.115000000000,0.115000000000,"FR,RL","FL,RR",0.283248604092,-0.055725060261,0.021315182526,0.035391380354,0.035391380354,0.015207851991,5.541138527794,5.541138527794,False
424,424,trot_FR_RL,0.120000000000,0.120000000000,"FR,RL","FL,RR",0.283304984822,-0.055794692374,0.021897475092,0.042015666925,0.042015666925,0.020349133757,7.048617719042,7.048617719042,False
425,425,trot_FR_RL,0.125000000000,0.125000000000,"FR,RL","FL,RR",0.283377508238,-0.050876527560,0.023116625118,0.039429131493,0.039429131493,0.017216304110,6.504347212178,6.504347212178,False
426,426,trot_FR_RL,0.130000000000,0.130000000000,"FR,RL","FL,RR",0.283363993900,-0.050755662227,0.023749547672,0.046061355086,0.046061355086,0.020543212617,7.289897136988,7.289897136988,False
427,427,trot_FR_RL,0.135000000000,0.135000000000,"FR,RL","FL,RR",0.283376784306,-0.045597794756,0.024925966110,0.043498951353,0.043498951353,0.019656482662,6.945537736725,6.945537736725,False
428,428,trot_FR_RL,0.140000000000,0.140000000000,"FR,RL","FL,RR",0.283305179039,-0.045205090336,0.025505140463,0.050127282383,0.050127282383,0.020373151320,7.546658135768,7.546658135768,False
429,429,trot_FR_RL,0.145000000000,0.145000000000,"FR,RL","FL,RR",0.283258603334,-0.039834371714,0.026621182128,0.047538580946,0.047538580946,0.021417888541,7.037278244541,7.037278244541,False
430,430,trot_FR_RL,0.150000000000,0.150000000000,"FR,RL","FL,RR",0.283128385055,-0.039227470237,0.027131422548,0.054131023628,0.054131023628,0.019977745945,7.797318905187,7.797318905187,False
431,431,trot_FR_RL,0.155000000000,0.155000000000,"FR,RL","FL,RR",0.283020158985,-0.033708321538,0.028183005620,0.051497764644,0.051497764644,0.022477569147,6.945621753774,6.945621753774,False
432,432,trot_FR_RL,0.160000000000,0.160000000000,"FR,RL","FL,RR",0.282828697511,-0.032972346922,0.028622082664,0.058048654800,0.058048654800,0.019773853629,8.044348917318,8.044348917318,False
433,433,trot_FR_RL,0.165000000000,0.165000000000,"FR,RL","FL,RR",0.282656328396,-0.027378594454,0.029609453916,0.055377496708,0.055377496708,0.023114104929,6.792260589372,6.792260589372,False
434,434,trot_FR_RL,0.170000000000,0.170000000000,"FR,RL","FL,RR",0.282401448801,-0.026594295617,0.029977712888,0.061898199786,0.061898199786,0.020236949635,8.289380095665,8.289380095665,False
435,435,trot_FR_RL,0.175000000000,0.175000000000,"FR,RL","FL,RR",0.282163363820,-0.021010663944,0.030900081279,0.059202700385,0.059202700385,0.023693487816,6.664519208150,6.664519208150,False
436,436,trot_FR_RL,0.180000000000,0.180000000000,"FR,RL","FL,RR",0.281844023508,-0.020264020644,0.031195357018,0.065704540365,0.065704540365,0.021751002722,8.534908892815,8.534908892815,False
437,437,trot_FR_RL,0.185000000000,0.185000000000,"FR,RL","FL,RR",0.281544184938,-0.014808683919,0.032009544758,0.062991503775,0.062991503775,0.024282469047,6.499045107720,6.499045107720,False
438,438,trot_FR_RL,0.190000000000,0.190000000000,"FR,RL","FL,RR",0.281169384108,-0.013928375426,0.032164075634,0.069480439063,0.069480439063,0.022295858326,8.785628001145,8.785628001145,False
439,439,trot_FR_RL,0.195000000000,0.195000000000,"FR,RL","FL,RR",0.280844502087,-0.010183273271,0.032681318580,0.066724767386,0.066724767386,0.025016386933,6.393141149546,6.393141149546,False
440,440,trot_FR_RL,0.200000000000,0.200000000000,"FR,RL","FL,RR",0.280454896281,-0.007172151197,0.032478498202,0.073374878218,0.073374878218,0.023902713565,9.224030462246,9.224030462246,False
441,441,trot_FR_RL,0.205000000000,0.205000000000,"FR,RL","FL,RR",0.280139421040,-0.004576591784,0.032714099199,0.070352742964,0.070352742964,0.025731152829,6.078343638794,6.078343638794,False
442,442,trot_FR_RL,0.210000000000,0.210000000000,"FR,RL","FL,RR",0.279678789812,-0.001942656031,0.032479168517,0.077152956837,0.077152956837,0.021696984924,9.649472736376,9.649472736376,False
443,443,trot_FR_RL,0.215000000000,0.215000000000,"FR,RL","FL,RR",0.279308052343,0.000152946082,0.032615893015,0.074099312353,0.074099312353,0.026521535566,6.113388130639,6.113388130639,False
444,444,trot_FR_RL,0.220000000000,0.220000000000,"FR,RL","FL,RR",0.278874214992,-0.000594999058,0.031578725708,0.080884821019,0.080884821019,0.022435329123,9.908640761214,9.908640761214,False
445,445,trot_FR_RL,0.225000000000,0.225000000000,"FR,RL","FL,RR",0.278424501536,0.001448028837,0.031347688002,0.078122948869,0.078122948869,0.027454176421,6.457805679915,6.457805679915,False
446,446,trot_FR_RL,0.230000000000,0.230000000000,"FR,RL","FL,RR",0.277970003294,0.001124312180,0.030337689027,0.084555045978,0.084555045978,0.023177085819,9.824958660048,9.824958660048,False
447,447,trot_FR_RL,0.235000000000,0.235000000000,"FR,RL","FL,RR",0.277613056242,0.002831339232,0.029708643161,0.081570772674,0.081570772674,0.028209231750,6.661398018730,6.661398018730,False
448,448,trot_FR_RL,0.240000000000,0.240000000000,"FR,RL","FL,RR",0.277167152556,-0.000033693102,0.028076986314,0.087872723963,0.087872723963,0.023904473723,9.943754146164,9.943754146164,False
449,449,trot_FR_RL,0.245000000000,0.245000000000,"FR,RL","FL,RR",0.276751049674,0.001835246164,0.027201411718,0.084880736266,0.084880736266,0.028835430779,6.739348769254,6.739348769254,False
450,450,trot_FR_RL,0.250000000000,0.250000000000,"FR,RL","FL,RR",0.276262877965,-0.001197890727,0.025404489711,0.090615919067,0.090615919067,0.024341928253,9.593217052016,9.593217052016,False
451,451,trot_FR_RL,0.255000000000,0.255000000000,"FR,RL","FL,RR",0.275873578965,0.000167108722,0.023592995571,0.087228115311,0.087228115311,0.029145198220,6.723978007191,6.723978007191,False
452,452,trot_FR_RL,0.260000000000,0.260000000000,"FR,RL","FL,RR",0.275430929490,-0.003466708525,0.021080689159,0.092289730383,0.092289730383,0.024734481896,9.073906299301,9.073906299301,False
453,453,trot_FR_RL,0.265000000000,0.265000000000,"FR,RL","FL,RR",0.275016727667,-0.002077836861,0.019288794411,0.088434986954,0.088434986954,0.029596855952,6.834038063534,6.834038063534,False
454,454,trot_FR_RL,0.270000000000,0.270000000000,"FR,RL","FL,RR",0.274552380443,-0.005695275828,0.016776941603,0.092590978187,0.092590978187,0.025423270123,8.241877799407,8.241877799407,False
455,455,trot_FR_RL,0.275000000000,0.275000000000,"FR,RL","FL,RR",0.274229979608,-0.004882575478,0.014665314912,0.088016243546,0.088016243546,0.030514740763,7.075958631786,7.075958631786,False
456,456,trot_FR_RL,0.280000000000,0.280000000000,"FR,RL","FL,RR",0.273791792098,-0.006651790916,0.011434336257,0.091305058190,0.091305058190,0.026844743428,7.354171049417,7.354171049417,False
457,457,trot_FR_RL,0.285000000000,0.285000000000,"FR,RL","FL,RR",0.273427307053,-0.005936142224,0.009322836925,0.086435689060,0.086435689060,0.027561510615,4.451505974206,4.451505974206,False
458,458,trot_FR_RL,0.290000000000,0.290000000000,"FR,RL","FL,RR",0.273019108547,-0.007551436374,0.006437620789,0.088984805421,0.088984805421,0.021231568998,6.532823642366,6.532823642366,False
459,459,trot_FR_RL,0.295000000000,0.295000000000,"FR,RL","FL,RR",0.272727710475,-0.007006381715,0.003827841706,0.082868204698,0.082868204698,0.025174219051,5.430023634723,5.430023634723,False
460,460,trot_FR_RL,0.300000000000,0.300000000000,"FR,RL","FL,RR",0.272416643558,-0.009167472851,0.001062815025,0.084284941915,0.084284941915,0.022922187706,6.158376659227,6.158376659227,False
461,461,trot_FR_RL,0.305000000000,0.305000000000,"FR,RL","FL,RR",0.272126426900,-0.007779566180,-0.001581913235,0.078000292562,0.078000292562,0.017450307659,4.518073314676,4.518073314676,False
462,462,trot_FR_RL,0.310000000000,0.310000000000,"FR,RL","FL,RR",0.271888373792,-0.010605071760,-0.003735556157,0.078719397933,0.078719397933,0.021302390380,6.486213577639,6.486213577639,False
463,463,trot_FR_RL,0.315000000000,0.315000000000,"FR,RL","FL,RR",0.271715557940,-0.008215478999,-0.004808158588,0.071589225053,0.071589225053,0.022115205730,4.603582334953,4.603582334953,False
464,464,trot_FR_RL,0.320000000000,0.320000000000,"FR,RL","FL,RR",0.271485890566,-0.010826613371,-0.006534181723,0.072107410075,0.072107410075,0.019048343368,6.364507709373,6.364507709373,False
465,465,trot_FR_RL,0.325000000000,0.325000000000,"FR,RL","FL,RR",0.271421284812,-0.009802280165,-0.007486055282,0.064625140348,0.064625140348,0.022329472073,5.982717184819,5.982717184819,False
466,466,trot_FR_RL,0.330000000000,0.330000000000,"FR,RL","FL,RR",0.271306867957,-0.010030403941,-0.007958634133,0.065399338442,0.065399338442,0.022040257253,6.468792322428,6.468792322428,False
467,467,trot_FR_RL,0.335000000000,0.335000000000,"FR,RL","FL,RR",0.271363079740,-0.008047615709,-0.007710629390,0.058638620784,0.058638620784,0.020559947743,5.113740390510,5.113740390510,False
468,468,trot_FR_RL,0.340000000000,0.340000000000,"FR,RL","FL,RR",0.271325276176,-0.010784002316,-0.008425059362,0.059945826200,0.059945826200,0.016601895587,5.657887367461,5.657887367461,False
469,469,trot_FR_RL,0.345000000000,0.345000000000,"FR,RL","FL,RR",0.271351404946,-0.008132776884,-0.008087870777,0.052943524627,0.052943524627,0.021935801012,6.984101573283,6.984101573283,False
470,470,trot_FR_RL,0.350000000000,0.350000000000,"FR,RL","FL,RR",0.271421126656,-0.009089315714,-0.007371432296,0.054589243630,0.054589243630,0.023114497291,6.939594648155,6.939594648155,False
471,471,trot_FR_RL,0.355000000000,0.355000000000,"FR,RL","FL,RR",0.271591530557,-0.005778169529,-0.006898786918,0.048313511120,0.048313511120,0.022478554048,5.288201308845,5.288201308845,False
472,472,trot_FR_RL,0.360000000000,0.360000000000,"FR,RL","FL,RR",0.271706426681,-0.005888391072,-0.006489824738,0.050402647044,0.050402647044,0.020389340444,6.731519288285,6.731519288285,False
473,473,trot_FR_RL,0.365000000000,0.365000000000,"FR,RL","FL,RR",0.271930176791,-0.001887542913,-0.006196060753,0.044034830560,0.044034830560,0.018715192321,6.391402920456,6.391402920456,False
474,474,trot_FR_RL,0.370000000000,0.370000000000,"FR,RL","FL,RR",0.272077853997,-0.002797766914,-0.006604433066,0.046789716109,0.046789716109,0.017359770725,7.162814135826,7.162814135826,False
475,475,trot_FR_RL,0.375000000000,0.375000000000,"FR,RL","FL,RR",0.272270743540,0.001464801647,-0.006104376288,0.040985966373,0.040985966373,0.019314213427,6.008022197575,6.008022197575,False
476,476,trot_FR_RL,0.380000000000,0.380000000000,"FR,RL","FL,RR",0.272505789995,0.001310413513,-0.005253901826,0.046154211416,0.046154211416,0.018202733207,7.161002711243,7.161002711243,False
477,477,trot_FR_RL,0.385000000000,0.385000000000,"FR,RL","FL,RR",0.272759331815,0.004050121903,-0.004939380723,0.042201295562,0.042201295562,0.017858990840,6.909496011599,6.909496011599,False
478,478,trot_FR_RL,0.390000000000,0.390000000000,"FR,RL","FL,RR",0.273004017144,0.003929334244,-0.004629786655,0.047622967743,0.047622967743,0.019478693039,7.556208076625,7.556208076625,False
479,479,trot_FR_RL,0.395000000000,0.395000000000,"FR,RL","FL,RR",0.273276154753,0.008680050272,-0.003598628394,0.044055871300,0.044055871300,0.020307850842,4.043465902473,4.043465902473,False
480,480,trot_FR_RL,0.400000000000,0.400000000000,"FR,RL","FL,RR",0.273486008822,0.008172138238,-0.003277372710,0.049380611063,0.049380611063,0.015864547279,7.632382481559,7.632382481559,False
481,481,trot_FR_RL,0.405000000000,0.405000000000,"FR,RL","FL,RR",0.273821859103,0.009595163770,-0.002630699869,0.045633326745,0.045633326745,0.020344012947,5.972063923856,5.972063923856,False
482,482,trot_FR_RL,0.410000000000,0.410000000000,"FR,RL","FL,RR",0.274088868315,0.009062465374,-0.002125204266,0.050743115739,0.050743115739,0.018572963138,7.567388732769,7.567388732769,False
483,483,trot_FR_RL,0.415000000000,0.415000000000,"FR,RL","FL,RR",0.274412925450,0.011678917076,-0.001954253742,0.046993951046,0.046993951046,0.015624598114,5.859992410283,5.859992410283,False
484,484,trot_FR_RL,0.420000000000,0.420000000000,"FR,RL","FL,RR",0.274730768186,0.012471531606,-0.001692751617,0.052337054119,0.052337054119,0.020499796233,7.965050250130,7.965050250130,False
485,485,trot_FR_RL,0.425000000000,0.425000000000,"FR,RL","FL,RR",0.274994810168,0.013817627055,-0.001244846775,0.048715445468,0.048715445468,0.019453904447,2.550825330218,2.550825330218,False
486,486,trot_FR_RL,0.430000000000,0.430000000000,"FR,RL","FL,RR",0.275281069672,0.014214631817,-0.000951382856,0.054397665139,0.054397665139,0.018382939467,8.496960660324,8.496960660324,False
487,487,trot_FR_RL,0.435000000000,0.435000000000,"FR,RL","FL,RR",0.275593018082,0.012343918471,-0.001116516326,0.050398507180,0.050398507180,0.019363444622,5.226847708597,5.226847708597,False
488,488,trot_FR_RL,0.440000000000,0.440000000000,"FR,RL","FL,RR",0.275849406632,0.013480251767,-0.001062951838,0.055792039300,0.055792039300,0.019168071453,8.361476619586,8.361476619586,False
489,489,trot_FR_RL,0.445000000000,0.445000000000,"FR,RL","FL,RR",0.276120692648,0.012826224948,-0.001266294956,0.051758270260,0.051758270260,0.020491044338,6.737727787902,6.737727787902,False
490,490,trot_FR_RL,0.450000000000,0.450000000000,"FR,RL","FL,RR",0.276409465490,0.010125698531,-0.001723387706,0.057098847735,0.057098847735,0.019382030539,8.456792986309,8.456792986309,False
491,491,trot_FR_RL,0.455000000000,0.455000000000,"FR,RL","FL,RR",0.276660467524,0.011395739604,-0.002150230335,0.052710635032,0.052710635032,0.014377901427,5.097950378718,5.097950378718,False
492,492,trot_FR_RL,0.460000000000,0.460000000000,"FR,RL","FL,RR",0.276909587523,0.008433413368,-0.002454953173,0.057399014390,0.057399014390,0.018299833632,7.892727893413,7.892727893413,False
493,493,trot_FR_RL,0.465000000000,0.465000000000,"FR,RL","FL,RR",0.277125726550,0.009216014404,-0.002842409815,0.052992792917,0.052992792917,0.015393267207,5.468318862860,5.468318862860,False
494,494,trot_FR_RL,0.470000000000,0.470000000000,"FR,RL","FL,RR",0.277336310941,0.005824599800,-0.003102115703,0.057659623350,0.057659623350,0.020667365901,7.957139163066,7.957139163066,False
495,495,trot_FR_RL,0.475000000000,0.475000000000,"FR,RL","FL,RR",0.277543355952,0.007047443746,-0.003227772393,0.053215833796,0.053215833796,0.018955339242,5.907926076752,5.907926076752,False
496,496,trot_FR_RL,0.480000000000,0.480000000000,"FR,RL","FL,RR",0.277670902859,0.003385416505,-0.003963292731,0.057898345522,0.057898345522,0.015555029107,8.057607943133,8.057607943133,False
497,497,trot_FR_RL,0.485000000000,0.485000000000,"FR,RL","FL,RR",0.277822345306,0.004564231635,-0.003966813294,0.053535892899,0.053535892899,0.017631602488,5.736808383765,5.736808383765,False
498,498,trot_FR_RL,0.490000000000,0.490000000000,"FR,RL","FL,RR",0.277892169053,0.000939068411,-0.004578595151,0.058112395465,0.058112395465,0.016428197087,8.034985558605,8.034985558605,False
499,499,trot_FR_RL,0.495000000000,0.495000000000,"FR,RL","FL,RR",0.277978483285,0.002283208742,-0.004552965287,0.053652557726,0.053652557726,0.019429908991,6.661301484251,6.661301484251,False
500,500,trot_FR_RL,0.500000000000,0.500000000000,"FR,RL","FL,RR",0.278024102428,-0.000713301019,-0.004944270786,0.058171020378,0.058171020378,0.018399384563,8.051025273597,8.051025273597,False
501,501,trot_FR_RL,0.505000000000,0.505000000000,"FR,RL","FL,RR",0.278084900642,-0.001392058786,-0.005105957662,0.053692523494,0.053692523494,0.017395629528,5.594849506086,5.594849506086,False
502,502,trot_FR_RL,0.510000000000,0.510000000000,"FR,RL","FL,RR",0.278086233777,-0.004072133071,-0.005439737440,0.058039975004,0.058039975004,0.021534864503,7.942670779847,7.942670779847,False
503,503,trot_FR_RL,0.515000000000,0.515000000000,"FR,RL","FL,RR",0.278144235122,-0.003476964767,-0.005522676059,0.053537763700,0.053537763700,0.018687148453,5.484770447755,5.484770447755,False
504,504,trot_FR_RL,0.520000000000,0.520000000000,"FR,RL","FL,RR",0.278144564782,-0.005710451055,-0.005905362545,0.057992570360,0.057992570360,0.016611312638,8.117597464886,8.117597464886,False
505,505,trot_FR_RL,0.525000000000,0.525000000000,"FR,RL","FL,RR",0.278145662474,-0.005262060484,-0.005737445942,0.053545918852,0.053545918852,0.014996762404,8.716046589124,8.716046589124,False
506,506,trot_FR_RL,0.530000000000,0.530000000000,"FR,RL","FL,RR",0.278060329081,-0.009512214227,-0.006161538952,0.057783893641,0.057783893641,0.011942751001,7.958496658102,7.958496658102,False
507,507,trot_FR_RL,0.535000000000,0.535000000000,"FR,RL","FL,RR",0.277991604992,-0.008650941181,-0.005915093537,0.052990456146,0.052990456146,0.017980895281,7.099482189896,7.099482189896,False
508,508,trot_FR_RL,0.540000000000,0.540000000000,"FR,RL","FL,RR",0.277907298615,-0.010474621813,-0.005923552630,0.057185552850,0.057185552850,0.016185192957,7.949745103057,7.949745103057,False
509,509,trot_FR_RL,0.545000000000,0.545000000000,"FR,RL","FL,RR",0.277780373667,-0.008457497969,-0.005921381948,0.052552516516,0.052552516516,0.012313189309,5.269487744167,5.269487744167,False
510,510,trot_FR_RL,0.550000000000,0.550000000000,"FR,RL","FL,RR",0.277657982798,-0.010646587142,-0.005680414129,0.056887289893,0.056887289893,0.017433320027,8.141267805426,8.141267805426,False
511,511,trot_FR_RL,0.555000000000,0.555000000000,"FR,RL","FL,RR",0.277536462528,-0.008171187205,-0.005304508582,0.052026167511,0.052026167511,0.016307527235,5.823084521186,5.823084521186,False
512,512,trot_FR_RL,0.560000000000,0.560000000000,"FR,RL","FL,RR",0.277334278942,-0.010587043078,-0.005524583143,0.056267933975,0.056267933975,0.014146061118,8.080495865304,8.080495865304,False
513,513,trot_FR_RL,0.565000000000,0.565000000000,"FR,RL","FL,RR",0.277156042836,-0.008007686443,-0.005030944003,0.051423845038,0.051423845038,0.017622087322,6.292552434069,6.292552434069,False
514,514,trot_FR_RL,0.570000000000,0.570000000000,"FR,RL","FL,RR",0.276968281943,-0.009749851645,-0.004683079563,0.055523810151,0.055523810151,0.017286453949,7.963037888484,7.963037888484,False
515,515,trot_FR_RL,0.575000000000,0.575000000000,"FR,RL","FL,RR",0.276781091985,-0.010041177092,-0.004629524468,0.050553067658,0.050553067658,0.016672864738,5.829316905612,5.829316905612,False
516,516,trot_FR_RL,0.580000000000,0.580000000000,"FR,RL","FL,RR",0.276573803849,-0.011651535389,-0.004167123149,0.054596570885,0.054596570885,0.016772934467,7.919467180835,7.919467180835,False
